/* XPM */
static char *_16b1a8fd4eb4a0f96112e658e99711csfcuuisthDEF38tu[] = {
/* columns rows colors chars-per-pixel */
"625 400 256 2 ",
"   c #6A330E",
".  c #64340D",
"X  c #6C3513",
"o  c #6C3A15",
"O  c #6D361A",
"+  c #6D3B1A",
"@  c #663613",
"#  c #733514",
"$  c #723A15",
"%  c #73361A",
"&  c #733B1B",
"*  c #7B3B1B",
"=  c #7B3716",
"-  c #6F2E0D",
";  c #773D22",
":  c #6F3B21",
">  c #5E300B",
",  c #74421B",
"<  c #79431B",
"1  c #6E411A",
"2  c #764221",
"3  c #7B4323",
"4  c #7C4A23",
"5  c #7D5128",
"6  c #853C19",
"7  c #863B0E",
"8  c #823D22",
"9  c #83431D",
"0  c #8C441C",
"q  c #8B481A",
"w  c #934B1C",
"e  c #9D4B1C",
"r  c #974619",
"t  c #98541C",
"y  c #944910",
"u  c #A24D1D",
"i  c #A14D16",
"p  c #A5531C",
"a  c #A9581B",
"s  c #AF5C1B",
"d  c #B0631C",
"f  c #844423",
"g  c #8B4523",
"h  c #844B24",
"j  c #8B4B23",
"k  c #8B4D2A",
"l  c #854A2A",
"z  c #944B23",
"x  c #9C4C23",
"c  c #964A27",
"v  c #85522B",
"b  c #8B532C",
"n  c #8B5427",
"m  c #945324",
"M  c #9B5323",
"N  c #9C5A24",
"B  c #94542B",
"V  c #9B542A",
"C  c #9B5B2C",
"Z  c #96592A",
"A  c #8C5833",
"S  c #965B33",
"D  c #904E31",
"F  c #A24D23",
"G  c #A34E28",
"H  c #A55324",
"J  c #AA5524",
"K  c #AD5A24",
"L  c #A4532A",
"P  c #AB562A",
"I  c #AD5A2B",
"U  c #A45B28",
"Y  c #B15D25",
"T  c #B25D2B",
"R  c #B65C2A",
"E  c #A95A32",
"W  c #B35E31",
"Q  c #B45F37",
"!  c #986339",
"~  c #9B622A",
"^  c #A9642A",
"/  c #B46325",
"(  c #BA6B26",
")  c #B5632C",
"_  c #B9652D",
"`  c #BC6B2C",
"'  c #B76927",
"]  c #BD722C",
"[  c #BB7328",
"{  c #A86734",
"}  c #B56332",
"|  c #BA6533",
" . c #B56B33",
".. c #BD6A33",
"X. c #BD6B3A",
"o. c #B7673A",
"O. c #BD7234",
"+. c #BD733B",
"@. c #B97637",
"#. c #AB713B",
"$. c #C16D2D",
"%. c #C1692C",
"&. c #C2732D",
"*. c #C4792E",
"=. c #C16D34",
"-. c #C26D3A",
";. c #C46935",
":. c #C47334",
">. c #C97535",
",. c #C57A34",
"<. c #CA7B35",
"1. c #C5733A",
"2. c #CA753B",
"3. c #C57A3B",
"4. c #CC7B3B",
"5. c #D17E3D",
"6. c #D17D37",
"7. c #9C6842",
"8. c #BB7344",
"9. c #AF744A",
"0. c #B37960",
"q. c #C47442",
"w. c #CA7641",
"e. c #C57B43",
"r. c #CD7B42",
"t. c #CA7B4A",
"y. c #D27E42",
"u. c #D27D48",
"i. c #C47044",
"p. c #CC8236",
"a. c #CD823B",
"s. c #CE8A3B",
"d. c #C88437",
"f. c #D3833D",
"g. c #D9853E",
"h. c #D48B3D",
"j. c #DA8B3E",
"k. c #D18436",
"l. c #DA923E",
"z. c #D5923E",
"x. c #C5812E",
"c. c #E0913F",
"v. c #B8865A",
"b. c #BB854A",
"n. c #BC8B63",
"m. c #BE9164",
"M. c #CC8343",
"N. c #CB8647",
"B. c #D58342",
"V. c #D98644",
"C. c #D58B42",
"Z. c #DB8C44",
"A. c #D4844A",
"S. c #D9864A",
"D. c #D48B4B",
"F. c #DC8C4A",
"G. c #D69243",
"H. c #DC9344",
"J. c #DD9A46",
"K. c #D5924B",
"L. c #DD944A",
"P. c #DE9B4A",
"I. c #D69948",
"U. c #CA8858",
"Y. c #DC8C53",
"T. c #D48B56",
"R. c #DC9453",
"E. c #DD9B53",
"W. c #D9965A",
"Q. c #CC9258",
"!. c #E18D45",
"~. c #E18E4B",
"^. c #E19346",
"/. c #E19A46",
"(. c #E3944B",
"). c #E39C4C",
"_. c #E99A4E",
"`. c #E9964B",
"'. c #E49552",
"]. c #E49C52",
"[. c #EB9C52",
"{. c #E39C5B",
"}. c #E7995A",
"|. c #EB9854",
" X c #DEA14C",
".X c #DEA156",
"XX c #E3A14D",
"oX c #E8A24D",
"OX c #E5A353",
"+X c #EBA354",
"@X c #EAA956",
"#X c #E5A45B",
"$X c #EAA55A",
"%X c #E6A95A",
"&X c #EBAA5B",
"*X c #E6A956",
"=X c #F1A559",
"-X c #EFB15E",
";X c #C58C64",
":X c #C9946A",
">X c #DC9B64",
",X c #DB9C6B",
"<X c #D69666",
"1X c #D69C73",
"2X c #D19268",
"3X c #E39C63",
"4X c #E49D69",
"5X c #E39E71",
"6X c #DDA36C",
"7X c #DBA569",
"8X c #DCA374",
"9X c #DBA57A",
"0X c #DDAA7C",
"qX c #D7A475",
"wX c #DAAE79",
"eX c #E4A364",
"rX c #ECAC63",
"tX c #E4A46C",
"yX c #EAA56B",
"uX c #E5AA6C",
"iX c #EBAB6D",
"pX c #E8A763",
"aX c #F2AD63",
"sX c #F2AD6B",
"dX c #ECB165",
"fX c #EDB36A",
"gX c #E8B56B",
"hX c #F2B265",
"jX c #F3B36B",
"kX c #F6B76C",
"lX c #E3A573",
"zX c #E4AB73",
"xX c #EBAC72",
"cX c #E3AC7C",
"vX c #E9A977",
"bX c #F2AD73",
"nX c #ECB374",
"mX c #EBB37B",
"MX c #E9B778",
"NX c #F3B473",
"BX c #F3BB74",
"VX c #F3BC7A",
"CX c #F7B879",
"ZX c #F7C27B",
"AX c #F2C173",
"SX c #BF813D",
"DX c #DDB082",
"FX c #E4AD82",
"GX c #EBB484",
"HX c #E8B785",
"JX c #F2BB86",
"KX c #EDBC92",
"LX c #F7C688",
"PX c #F9CB95",
"IX c #F4C890",
"UX c #FDD0A0",
/* pixels */
",XcXzX6XVXVXnXVXnXnXNXnXmXmXvX>X<XQ.lXxXxXxXuXnXiXnXNXiXuXxXvXxXxXxXxXxXxXxXzXzXtXtXyXzXzXxXxXxXmXmXnXnXfXfXiXxX6X~ ! h @ @ 5 wXwX7XuXW.pXsX{.#XfXgXgXgXgXgXgXnXxX,X>XzXmXmX7X7X7XnXMXMXnXgXMXMXVXVXMXMXBXBXVXMXMX<X8XzXuXnXnXnXgXnXzXnXnXuXvX2XS ! l $ > S 0X:X<XuXtX6X6XtX4XlX5XlXlXtXtXtXuXiXtXiXxXuXtXtX,X,X1X1X<XU.U.<X1X1X,X;XU.U.U.U.Q.Q.Q.W.<X4XtX3XtXiXgXnXnXfXNXVXW.~ ~ , $   ! ;X9XlXyX7XxX>XQ.<X2X2X2X2X<X>X<X3X4X,X,X5X5X,X<X<X,X4X,X,X,X5XlXlX,X<X>X<X<X,X<X<X<XU.e.Q.<X<XU.U.U.U.U.t.2X<X4X{ j k = O O ;X1X:X<X<X<X<X<X2X<X<XW.>X<X4X4X>X3X4XyX4XyXeXeXtXtX>X<X<X>XW.T.W.>X>X>X>X>XtXtX,X,X6X6X,X<X>X6XtXtXtXtXtXtX>X<XlXE { h X @ , qXwX7X7XgXuXuXW.Q.7XuXuXuXnXnXnXnXnXmXmXMXzXnXuXeX7X7X7X>X<X,X<X<X,X2XU.U.Q.U.3XiXuXxXnXnXCXBXBXVXVXVXBXBXnXiX>X2X! S f O O l :X1X<X2XU.,XU.Q.Q.Q.Q.2X2X2X2X2X2X2X2X2X2X2X2X2X<X,X<X;XU.U.2XU.U.U.U.N.N.U.T.Q.W.W.W.<X<XQ.U.2X2X2XU.U.U.U.U.2X9.0.0.S + > 4 KXHXMXLXVXNXNXiXnX7XgXgX7X7XLXLXLXLX7XZXVXAXnXuXmXzX6X>X7XuXuXuX7X7XnXnXzXzX>X>X5X2X<X,XQ.U.>XyX7XiXeXuXuXtXxX6XU.;Xn.A + + A 1X1X<X<X<X>X6X6X>XW.W.>XW.W.Q.U.U.U.2X,X,X<X<X4X<X>X>X>X>X<XW.<X<X2XW.W.W.Q.U.Q.2X;X2X2XQ.Q.Q.<X<X,X<X>XW.<X<Xv.9.0.0.: 2 1 m.DXv.:XU.U.>X>X<X<XQ.<X,XtXtX7X7X7X<X<X7XzXzXgXmXmXmXVXmXVXVXmXMXVXxX7XzXxXzXtXtXtXtXlXvXQ.N.W.nXgXgXZXgXnXJXmX,XU.9.U.",
"8XmXzX6XnXnXuXgXnXBXNXNXCXCXvX,X<XU.4XxXxXNXiXnXxXNXNXxXxXxXxXxXxXxXmXmXbXxXxXxXtXyXyXxXxXxXxXxXxXxXiXiXiXrXiXiX>X~ ! h @ o 5 DXMXgXuX.XeXpXR.E.jXnXnXgXgXnXnXnXuX7X,XxXCXnX7X7X7XuXMXnXgXgXgXgXZXZXAXAXAXAXVXVXmX,X8XzXzXnXfXnXnXmXgXNXnXxXmX<X! 7.l = > S 0X1XQ.7XuX6X6X4X,XlX5XlXyXtXtXtXiXiXtXxXNXxXyXtX4X,X5X1X2XU.U.<X4X,X,X;XU.U.U.U.2XQ.Q.W.>X4XtX>XeXtXuX7XuXuXiXNXQ.C ~ , $   ! ;X9XlXxXeXbXtX<X,X<X2X<X2X<X>X>X4XyX3X4XlX5X>X<X<X,X,X4X,X,X4XlXlX4X,X>X<X,X,X<X<X<XT.N.Q.>X<XU.U.U.U.U.0.U.<X4X{ j j = O O ;X1X<X,X<X<X,X<X2X<X<XW.>X>X4X4X4X4XyXyXtXyXeXtXyXtX,X>X>X,X<XW.>X3XtXeXeX>XtXyXtX4XtXtX,X>X>XtXtXtXtXtXtX>X>XW.,XS S f X @ , qXwX7X7XgXgX7XW.W.uXMXnXgXfXnXnXnXmXmXmXmXmXiXuXtXeXtXtX7X>X<X2X<X<X2XU.U.;XQ.tXxXiXxXxXnXVXBXBXVXVXVXBXBXnXiX>XQ.S A 3 % O l :X1X2XQ.U.<XU.Q.Q.Q.Q.2X2X2X2XT.2X2X2X2X2X2X2X2X2X2X2XU.U.U.U.U.Q.Q.U.N.U.T.Q.<XW.W.W.<X<X2X2X2X2X2XU.U.U.U.U.U.9.0.0.7.& X A KXcXmXVXMXnXxXuXuX7X7X7XQ.7XVXLXLXLX7XZXVXAXfXuXmXcXzXtXuXnXnXfX7X.XiXuXuXzX>X>X,X<X2X<XU.Q.>XtXtXxXtXuXiXtXxX6Xv.v.0.A @ @ A 1X:X<X2XW.<X>X<X2XW.W.W.W.W.Q.U.U.U.2X,X,X<X<X4X<X>X>X>X>X>XW.<X<X<X<X<X2XQ.U.U.;X2X2XQ.Q.Q.W.<X<X3XW.>XW.<X<XU.9.0.0.O O o m.0Xv.2XQ.,XtX>X>X>X2X<X>XtXtX7X7X>X<XW.7XzXuXzXnXmXnXnXgXnXnXgXnXnXtXtXuXxXuXuXzXxXlXlXvX<XQ.tXVXnXnXBXgXnXmXzX<XU.0.U.",
"6XvXvXuXnXVXnXBXfXNXNXNXmXmXvX4X>XU.>XyXxXNXiXiXiXiXNXiXyXiXiXyXxXxXxXxXxXxXyXtXtXtXyXiXxXxXxXxXmXmXnXNXjXjXjXNX7X{ ! v o o v DXMXgXuXeXiXsX{.iXfXfXgXgXgXgXuXuX7X>X7XnXCXuX7X7XuXnXVXnXMXBXBXBXBXBXBXBXBXBXMXVXzX<X6X6X7XnXiXfXnXnXuXnXiXuXxX<X{ { l =   S DX1XQ.7X7X>X,X,X>X4X4XtXyXyXtXtXyXiXeXiXxXyX4X>X,X>XlX,XU.U.U.<X4X,X5X2XU.U.U.U.<XQ.T.W.>X4XeX3X4XtXnXnXnXiXjXNXW.{ S , $   ! ;X8XlXyXeXxXtX<X>X2X2X<X2X2X>X3XyXyX>X4X4X4X<X<X<X,X,X4X4X4X4XlXtX4X,X>X<X4X,XT.Q.<XT.U.U.<X<X<XU.N.U.U.U.U.2X<X{ j g = O O ;X1X1X,X>X<X>X<XW.<X<XW.>X>X3X3X>X3X4XyXtXtXeXeXtXtX4X4X4X4X<XW.>X4XtXtXtX>X3XtX>X>X>X>X>X>XtXtXyXtXtXtXtXtX>X>X5XE S h & @ , qXcX7X7XnXnX7XW.W.uXnXfXgXfXfXfXfXiXxXxXxXxXeXeX7X7XeX7X>X<XW.Q.Q.<X2XU.U.Q.Q.eXxXiXiXuXiXBXVXVXVXAXAXAXBXBXVXiX<XS S l % X b 1X1X2X2XU.>X<XQ.Q.T.Q.T.T.2X2XU.U.T.2X2X2X2X2X2X2XU.U.T.U.U.U.T.2X<XU.N.U.T.Q.<XW.T.T.T.2X2X2X2X2XT.U.U.U.U.U.U.9.v.0.S X > h KXmXMXZXVXBXnXpXnXuXuX7XQ.7XLXLXPXLX7XLXZXZXVXfXxXzXtXtXiXnXfXpX.XW.uXuXuXxX>X>X,X<XT.U.T.W.3XtXeXiX7XeXtXeXuX>XU.v.0.A + + A qX:X<X<X<X>X,X,X<XW.W.W.W.W.Q.T.U.T.Q.>X,X<X<X4X>X<X>X>X>X<XW.<X<X>X<XQ.Q.Q.U.U.Q.2X2XQ.T.T.T.W.>X>XT.<XW.<X<Xv.9.n.0.; + o m.9Xv.U.2X4X4XW.>X>XT.<X>XtXeX7X7X>XW.W.uXnXnXnXVXVXMXVXNXVXVXnXVXnXeX7XtXuXtXtXuXyXtX4XyX<XT.iXBXfXfXfXgXnXnXtX<XU.U.v.",
"6XzXzXuXnXNXNXBXjXNXNXNXCXNXbXyX3XD.>XiXNXCXsXjXsXNXNXsXiXsXiXyXbXbXbXNXNXbXiXyXyXyXiXbXbXbXbXxXxXxXNXjXsXsXsXsX3X{ { v $ o v DXMXuXuXeXyXsX{.sXNXjXfXgXnXnXiXiXeX7XtXNXCXNXuXuXuXgXBXnXnXBXBXBXVXZXZXAXAXAXZXZXnX>X6X7XeXnXfXfXNXNXiXjXiXiXxX<XE S f =   S 0X1X7XeX>XW.tXtX4XyXyXyXyXyXiXiXsXsXiXbXbXyX3X4X4X4XxX4XU.U.T.4X4X4X5X2XU.T.U.T.<XW.T.W.4XyXyXyXyXiXiXfXjXiXsXNXW.{ B $ $   ! ;X8X6XxXeXiXtX<X>X2X2X<X<X>X4X4XyXyX3X3X4X4X>XW.>X4XtXyXyXyXyXvXxXyXyX4X>X4XlX>X<X>XT.T.U.T.4X4XT.U.U.2XU.Q.<X4Xo.m B $ O + ;X1X1X,XW.<X4X>X<X>X<XW.>X3X3X3X3X4XeXyXyXyXyXyXyXyX4X4XyX4X>X>X3XtXyXyXyX3XtXyXtX4X4X3X>XtXyXyXiXyXyXyXiXtX>X4X4XE B h < X , qXcXwX7XgXfXiXeXeXuXfXfXfXBXfXfXfXfXnXnXnXNXiXyXtXyXiXtXeX>X<XW.Q.<X2X2XU.U.T.yXbXxXxXiXNXVXNXBXBXBXBXBXkXkXCXiX2XB D l ; O D 1X1X<X<XU.T.T.<X<XW.<XW.W.W.W.U.T.2X<X<X<X<XW.<X<X2X2X2X2X2X2X2X<XW.T.U.T.T.T.W.W.T.T.W.W.2X2X<XW.2XT.2X2XU.;X;X0.v.0.S $ . v IXmXMXZXVXNXfXpXfXpXuX7XQ.7XLXLXLXZX7XZXZXZXkXpXxXxXyXuXiXNXjXpX#XW.iXiXNXNXeXtX4X4XT.U.>XtXyXsXyXiXeXtXiXiXxXtXU.v.0.A : + A 1X2X,X>XW.W.>X>X<X>X>X>X>X<XT.Q.T.T.2X4X4X<X>X4X4X3X4X4X4X>X>X>X>X>XW.T.T.<XT.T.2XW.W.T.T.T.T.<X3X4X<X3X<X,X,XU.9.0.0.2 2 + :XqXv.<X<X4X4X>X<X>X>X>XtXiXtXeXeX7X>XQ.7XiXuXiXNXVXnXNXNXBXBXNXNXnX.XiXiXxXiXiXxXiXtXyXvX>XW.NXBXfXjXZXBXBXnXxXtXU.U.U.",
"lXvXxXtXW.W..XE.{.{.{.{.{.W.W.T.e. .M.W.W.{.R.{.{.{.{.E.W.W.W.W.W.W.W.3X3X{.W.T.T.T.T.W.W.W.W.W.>X>X3X{.{.].{.{.W.Z C h X o 5 DXMXnXtXR.R.R.M.D.#X.X.X.X.X#XW.W.T.N.N.E.iXeXW.D.K..X#X#X#X.XpX7XpXrXdXdX&XrXrXfXW.N.U.N.D.E.E.E..X.XE.#XE.W.W.8.C S 8 =   A 9X1X6XW.N.8.N.T.A.A.T.T.T.Y.R.R.R.R.W.W.K.N.N.N.T.T.T.e. .^ o.t.N.t.t.8.o.8.o.8.8.8.o.q.N.T.T.T.W.W.R.W.W.R.R.{.N.m n $ $   ! U.8X6X3XD.R.N.e.t.q.i.8.i.A.U.t.N.T.N.q.t.e.e.8.e.N.A.T.U.U.T.T.T.T.A.t.i.t.U.t.t.q.o.o.o.8.t.t.8.o.o.9.{ 8.8.t.V 9 9 = & & n.1X2X<XU.8.t.e.8.e.e.+.e.N.N.N.N.A.D.T.Y.T.T.T.T.U.t.t.U.U.t.e.t.N.N.N.N.N.T.R.T.N.N.N.N.N.N.T.T.T.T.T.R.T.N.T.T.c 9 9 $ @ , qXcX8X7XeX.XT.T.Q.W.W.E.E.#XE.E.E.E.E.E.#X#XR.R.K.W.W.T.N.N.t.q.8.8.8.o.o.} +.D.W.W.W.R.E.rX#X%X%X#X#X%X%X#XW.T.e.9 f f ; % l 1X,X2X2X8.8.8.8.8.8.8.X.8.8.8.o.o.o.8.8.8.8.8.8.8.8.8.8.8.8.8.o.8.8.o.o.o.X.8.8.8.8.8.8.8.8.8.8.o.o.o.o.o.o.o.9.B S S l & X v KXmXMXMXfX7XW.K.E.K.K.N.@.Q.nXMXNXrXN.rXfXjX#XI.E.W.T.K.W.E.W.K.d.d.R.W.W.>XN.N.N.t.o.{ t.T.T.R.R.W.T.R.W.R.W.U.{ ! ! l O + A :X,X<XT.t.8.N.N.N.e.e.e.e.8.X.o.o.o.o.e.t.8.8.t.N.t.N.N.N.t.e.e.e.e.8.8.8.8.8.o.o.8.8.o.o.o.X.q.t.A.e.t.e.t.t.{ B S A : + O :X:X9.<XN.t.T.N.8.e.N.e.N.T.N.N.M.N.N.+.N.W.W.W.eXeX.X.X.X.X.XW.eXW.M.W.W.W.W.W.W.R.T.T.T.e.M.{.#XE.%X%X.X.XW.W.T.{ o.{ ",
"zXzXxXeXD.D.K.C.C.C.D.D.D.M.r.r.^ e ^ 3.M.B.a.D.a.M.M.a.M.M.M.3.3.3.r.M.A.M.3.O.1.O.1.3.M.M.r.3.N.T.T.D.D.C.D.T.N.q m 9 X o v FXzXxXeXM.r.M.O.O.N.N.N.N.N.N.N.M.+. . .M.K.D.d.@.d.N.K.I.I.I..XI.K.I.E.I.I.I.E.E.N.^  . .@.d.d.d.s.C.d.C.N.d.e.{ c D * % - A 9X<X6XD. .^ O.+.) ) 1.1.1.2.3.4.3.3.M.3...^ ^  .+.8.o.U w y e I  . .E x w e x H U H t K | ..O.3.e.3.M.D.D.B.B.S.+.q g X $   ! ;X8X6XD.O.+. .I ^ I I H I X.X.) | X. .K I ^ K K ^ ) ) ........X.X. .} } I { o.{ W I e e x U } { H e 0 0 q N U o.0 - $ $ & + n.1X2X<XN.U ^ I K ^ K H ^ ) ) ) | ....X.1.1.1.1.+... . .X.X. .^  ...O..... .O.1.O..... ./  . ...O.+.O.+.1.+. .q.q.w = * # o , qXFXzX7XW.D.^  .+.M.N.N.a.a.s.s.s.s.N.N.C.D.3.1.1.1.1.+...)  .} I U H x w r H O.M.3.3.d.M.R.E.E.E.E.I.I.I.I.M.r.8.= = ; % O l 1X,X2X2Xo.U U H H H H H H H H w r w w x x x w x x G G x x x H x H H x x M U U U U H H H H H x x e r 0 w x z w n -   $ & O @ 4 KXMXVXMX7XK.D.M.K.M.d.@.^ M.uXpXiXW.SX.X$X#XL.s.N.M.+.O.3.M.a.O./ / @.M.N.N. .^  .I r r  . .) 1.e.M.+.3.e.+.+. .0 * f & X + A 1X1X<XU.X.^  .o. .^ ^ I J U M x e r x I } U U {  .{  . . .^ I I I { U U U H e w w M x x r e F I ^  .I { E { ^ 0 - & ; O + O :X1XU.,XX.I X. .U U ^ ^  .O. .) '  .' / @.M.N.N.K.R.K.K.K.K.K.K.R.K.@.@.a.M.3.3.3.3.+.1. .p ^ N.K.G.P.G.N.N.+.N.8.0 w 9 ",
"tXtXxXeXD.C.L.G.(.L.L.'.R.D.A.S.1.a ) r.D.F.Z.(.D.Z.Z.C.Z.Z.B.4.<.4.M.B.S.B.r.>.4.4.r.B.D.S.B.M.t.N.D.D.f.f.B.D.r.q z 9 X $ v FX6XuXeX3.:.B.:.] D.K.K.K.D.D.D.D.1.` O.M.L.K.a.d.,.s.I.I.I.I.I.I.E.#X#XOXOX X#XpXN. . .@.@.C.C.G.G.G.h.J.G.C.D.+.z g * * # S 9X<XxXW.e.+.e.2.O.1.r.r.r.B.B.C.C.B.D.4.../  .1.q.q.X.I e e H } X.q.o.G x G H I I I J | X.1.2.r.B.A.M.D.F.B.B.Y.q.z 9 X $ X ! ;X8XtXW.3.r.+.)  .I I I } 1.q.X.1.2.X.) X.X.|  .| X.X.1.1.2.3.r.2.X.| X. .X.X.} } } I e I  .X. .W H e z z E } o.0 6 f $ & & n.1X<X<Xt.^  . .) .. .) ..X.| ..:.1.1.1.r.t.r.t.r.1.X.X.q.q.X.X.-.q.3.2.2.1.3.r.3.1.:.X.` 1.1.3.4.4.4.r.r.X.K +.8.x 6 * # o , qXHXmXtXW.e.^ O.M.D.L.F.C.h.G.G.C.C.Z.G.H.L.4.4.<.4.r.r.1.-.X.X.X.} I L L J / <.B.B.B.M.D.].E.E.E.P.P.I.I.L.B.S.t.7 = % % - l 1X1X2X<X .H H I I I I I I I I G x x x G L G x G H L L I I P H L I W L U I } } o.W I U U U L L I L G F H U U U C = = & ; 2 + v HXMXZXVX.XK.D.N.E.D.a.O./ M.pXpXiXE.,.{.$X$XG.p.K.C.a.a.C.D.M.,.] [ a.D.D.D.O. .X.} e H 1.X.) M.M.D.4.N.A.M.M. .0 = 9 & O $ S 9X1X,XT.X.^  .o.} ..| | } I I L U x G } 8.} } X.X.X.X.X.X... . . .X. . .{ I M e x P P H F H I } X.X. .o. .o.o.w = # % % & o :X1X2XyXt.X.X. .^ ^ }  .1.3.1.O.O.:.:.^ O.a.M.N.K.L.K.L.L.P.I.K.E.L.,.3.N.D.N.4.4.M.M.e...p / L.{.I.OXI.G.K.3.N.8.q m j ",
"tX7XiXeXN.N.L.C.Z.Z.Z.F.Z.4.4.r.r.a K :.y.D.f.C.g.C.g.g.g.B.f.<.:.>.<.r.B.B.<.:.>.>.>.4.B.B.4.<.t.A.A.D.g.f.B.S.A.w V g # $ v FX>XxXeX+.| y.:.' a.N.C.C.N.M.B.D.' / _ 3.M.a.,.,.,.s.I.P. X XOX XP.].OXOXXX).OX$XN. .@.O.,.C.C.l.h.z.s.z.h.h.D.+.0 g = ; # S 1X<X>XT.3.O.2.:...2.2.1.2.4.f.B.a.a.B.<.` ) | 2.q.1.X.I e r u I X.q.W F r x F J I U J ) ..X.-.4.r.r.B.S.~.V.B.S.q.x 0   & o 7.:XlXuXR.,.3.O.) ) J J L I | ..| X.../ _ X.-.| ` ` | ` 1.1.1.2.2.1.| Y X.o.X.X.I I W T r J | o.} W L e w M ^ ^ o.6 = * % & & n.1X<X<Xt.K ) ) ) | | ) | X.....:.1.1.2.4.2.2.2.2.X.| ..1.1...| ..1.:.:.:.:.3.4.4.>.:...` :.1.2.1.1.1.2.<.1.) 1.q.x 6 6 X O , qXJXmXiXR.1. .:.M.B.D.C.Z.Z.Z.h.h.h.j.l.H.H.4.<.2.<.4.r.2.1...X.X.} I J P I a :.a.4.4.,.a.L.].].].P.P.P.J.L.a.S.t.7 = % % X l 1X,X2X<Xo.U I I I P I L L P L G x r r G G G x G F F H E E L F L P I H H L E W } I H e e x G H W L G G P L P U V = # = & & O 4 FXMXVXVX.XK.K.K.].D.a.] / a.eX#XsX{.,.].$X$XG.a.C.C.a.a.D.D.a.] [ ' 4.M.D.D.O. .-.} r H 1.| / B.4.M.4.B.D.N.B.+.z 0 j * O O A 1X,X4XT.1.| X.X. .| ) ) Y I I J U r e W X.} T o.X.| ..X... .| } | } } } I J e e x L G x e x U W o.| I } W o.o.0 # % ; ; $ X :X1X,X>Xt.X.| T  . .^ ) O.1.1...O.:.:.' ,.M.C.D.L.].L.L.L.L.G.G.].L.,.,.a.D.B.4.4.B.A.r.) t / F.].G._.C.C.K.O.3. .7 z g ",
"7XxXiXeX3.D.Z.^.Z.Z.Z.^.F.B.5.5.r.p a r.V.B.V.Z.Z.g.Z.Z.f.f.g.<.>.4.5.5.5.B.5.>.4.<.4.<.5.B.B.4.2.r.y.B.Z.F.F.S.r.w z 9 =   v HXvXtX3X..1.:.$.&.a.C.K.C.C.F.S.B.' d ' a.Z.a.,.,.p.G.P.P.P.OXOXP.OX#XOXXXXX).].+XL.'  .:.4.h.h.l.h.h.h.l.f.f.R.e.7 6 = * # S 1X<X4XY.+.O.1._ ` :.4.5.5.4.f.f.f.B.F..._ / 1.) -.q.| H r e F } X.X.I F e F P H J K T ) ..:.2.4.y.B.B.V.~.S.V.S.-.w 0   &   9.qX6XtXR.4.M.:.) ) I I I J o.| ) 1..._ ` 1.1...) _ _ ) -.4.2.:.1.:._ ) | X.-.} T P J H r L | o.X.W J H w z I M E w 9 X & & & n.1X<XT.e.) ) ..) _ ) K X..._ _ =.=.:.2.4.2.:.2.r...) -.w.-.| _ ..1.:.-.:.=.2.4.1.:.>.=.` >.>.2.<.4.4.4.4..._ w.i.w 6 f # $ , 9XHXJXbXN.| ` <.Z.F.Z.Z.Z.j.j.l./.^.k.k.H.H.g.4.4.4.4.4.y.r.2...| ..} P P T ` f.B.4.4.4.a.C.].].).P.P.P.P.P.D.t.T.7 - l % X l 1X1X<X<Xo.I J I L J J P I P J u r r F F r r F F F G H P P P H J I I P P e F } W L F e F G J P T H u F P I T E V = # = & O X h HXJXMXVX.XI.N.K.+XC.] / ' a.$XsXaX{.a.+X$X+XZ.p.H.g.<.g.C.B.C.` / :.<.F.B.S.:.` -.J r } -.` r.1.S.B.<.a.M.D.'.+.z z 9 * & X A 1X,X4X<X..X.| X.} ) ) ) Y R I J J F e P | -.X.| X.| | ..X...} } | } } } T I U u e L G r e F J I T } X.| X.} o.w # % % % & , ;XcXQ.<Xq.L } | K )  .K ..1.:...:.:.:.` a.C.f.G.L.L.^.G.J.J.G.G.L.Z.h.,.a.B.B.B.B.B.D.M.y a a.C.].+XL.G.K.4. .1.^ 7 M j ",
"6XxXiXpXa.D.Z.^.Z.Z.!.^.Z.B.5.4.r.p a 2.V.V.S.V.Z.g.Z.Z.f.f.g.<.>.4.5.5.5.5.4.:.>.>.>.>.4.B.B.5.-.1.4.f.g.j.V.B.r.e z f =   v HXxXtX3X..1.:.:.:.a.D.K.C.C.Z.Z.B.&./ ' f.F.f.*.,.p.G.).P.P.XXOX).].P.).XXoX_._.+XL.` O.<.f.H.j.l.j.h.h.H.h.C.R.+.7 6 = * # S 1X,X4XY.+.X.-._ $.:.5.5.5.f.g.f.g.B.V.` ` ` 2.) X.i.} u r e H } i.-.P u e F J J J K ) _ =.:.4.5.B.B.B.Z.F.S.V.S.-.e 0 # &   9.8X6XtXR.a.M.O.) ) I I I L X..._ 1.=._ ) -.1...) _ ` _ =.2.2.1.2.:._ ) } X.X.W I P J J r P W | X.W J H 0 w E x U 0 f % & : & ;X1X<XW.r.) ) | ) _ ) K X.=._ ` =.:.>.2.2.2.:.2.4..._ -.w..._ _ -.2.2.2.2.:.4.5.<.>.>.:.=.>.>.2.2.4.4.4.4.=._ w.q.w 6 f # $ , qXGXJXyXe./ ..4.D.Z.Z.Z.j.j.l.l./.^.k.j.^.^.g.B.5.5.4.4.2.2.:.| _ | | R R ) ` f.B.4.f.f.f.Z.).).).P.P.).P.L.B.r.t.= - ; % X l 1X,X<X<Xo.I L I J P P P P P J F e u G G u F G H F F F J J J F J P I P P u F | o.Q P J G J P T H u u F J J P I V $ # = & $ X h cXMXnXVX.XE.K.E.$XZ.:.' ' M.$XaXrX{.a.].+X[.j.p.^.h.<.g.C.f.B.` ' >.<.F.B.S.>...1.) J ..=.` B.B.S.B.<.4.4.D.'.1.w z 9 * & X A 1X<X4X3X..-.| X.} _ _ _ ) T I P J F F P X.-.-...-.| ....X.| ) } | |  .} W T J F e L G e u F J I W } -.| X.o.o.z = * ; % & & ;XcXU.W.q.J | ..I ) ) Y ..1...` ` =.` ' 4.f.f.Z.L.H.L.H.J.H.H.H.L.G.h.f.B.B.f.a.B.B.B.r.y s a.g.^.`.Z.H.Z.:./ 1.^ 7 m j ",
"tXxXxXtXM.D.F.^.!.Z.!.!.Z.g.4.4.4.a p =.B.S.Z.Z.Z.g.j.j.k.6.6.<.>.>.4.5.5.5.5.>.>.>.>.:.2.y.V.y...=.>.5.f.f.B.B.r.e z f = X v HXmXiXeXO.1.>.>.<.4.C.G.C.C.Z.Z.g.<.' ` f.L.f.,.,.p.G.).J.J.).XX).L.H.).XXoXoX[.+XB.' O.4.g.Z.h.j.j.h.h.H.j.Z.D. .- 6 = * - S 1X1XyX}.X.| X.) =.>.5.5.g.g.g.g.f.B.B...-.-.w.) | X.W F r e F W i.-.P u r F P I K R | ..-.2.4.y.B.V.V.Z.Z.V.u.S.q.x g # <   9.8X6XuXR.a.B.:.) ) I L I I i..._ 1..._ Y ..:.=._ ` .._ ..2.2.2.2.1._ ) T | | T P P P P H W | | -.X.I J e t ^ H L 0 9 * & : & ;X1X,X>Xt.) Y | ) _ ) K ;.;.` ..:.2.2.2.2.2.:.4.2..._ 1.2.| _ _ -.2.4.4.4.2.5.5.4.2.2.>.:.>.>.2.2.2.2.2.4.=._ r.q.w 6 9 # o , qXFXmX4X..a >.4.g.h.Z.H.H.l.^.^.`./.j.^./.H.g.V.B.g.4.4.2.2.1..._ ;...) Y Y ' 4.B.5.f.f.f.C.(.).).H.P.).P.J.B.r.t.7 - % % X l 1X1X<X<XX.I I P J J P R I P J F u F J H u F J P J F J P P P J J I P P P u F Q o.Q W P F F J R u u F J P J P W V = # & & $ O h cXMXnXBX.X XK.#XaXL.<.( ' M.$XaXaX{.a.].[.].G.f.^.Z.<.g.B.f.B.` _ <.<.S.f.S.<.:.1.| ) -.` _ 5.Z.S.B.4.4.>.B.'.3.w z 9 * & @ A 1X<X4X3X..-.} X.} _ _ _ ) T R P P F F P | -.-.| -...| ....| ) } | -.X.| } T I H u G F F F F H P W } X.} X.o.o.x = * ; $ & & n.cXU.T.q.K ..-.K ) ) Y ..:..._ _ ` ' / <.f.f.Z.^.H.H.H.J.H.H.H.H.Z.f.C.C.B.4.4.B.B.4.r.y K 4.g.^.H.g.^.B.' a +.{ 7 c j ",
"tXxXxXtXM.B.Z.^.!.!.!.!.Z.f.4.2.y.Y p _ y.F.Z.V.Z.f.g.g.6.<.6.&.&.>.4.5.5.B.5.>.>.>.:.:.>.5.B.5.=.:.<.f.g.f.g.V.r.e z f = X v HXGXxXeXO.1.2.>.<.4.C.G.C.C.Z.V.5.5.$.` g.L.f.*.*.h.G.P.H.J.).XXXX).H.J.XXoXoX+X+X4./ :.4.B.Z.h.h.H.j.h.H.h.D.D.I - 6 6 * - A 1X,XxX}...) .._ =.<.B.g.g.g.g.g.B.B.4...:.:.1.J I } W H e e e T X.X.H e r F T } _ _ ....:.<.5.B.B.B.Z.Z.Z.V.B.S.q.x g # *   9.6XtXiXR.a.B.:.) ) L L L I q.X._ -...) Y =.1.=.` =..._ _ :.1.2.2.:.) ) } X.| T P P I I I | | | -.-.T L H H  .I E 6 6 & : : : n.1X,X>XA.) Y _ ) _ ) K ..=.| ;.1.4.2.2.2.2.>.4.2...` 1.1._ _ ..=.2.4.4.4.2.5.5.5.2.2.>.>.2.2.2.2.2.2.2.2.=._ r.q.w 6 9 X o , qXFXcX>X .a 4.f.g.h.Z.^.^.H._./././.^././.Z.f.g.g.f.5.<.>.<.2.-.=.-.-.| Y K Y >.5.4.5.f.a.f.L.^.L.H.P.).P.G.B.t.t.6 - # % $ v 1X1X<X>XX.W T J J P I R R P J u u F G F u F J I J J R } } W T J I P P P F F Q Q Q T J u u F P F u F P R T T } E * * * & $ X h HXJXnXBX.XE.I.#XaX).a.( ' M.#XrXaX#Xa.OX+X+X^.H./.Z.<.g.g.f.B.` _ 2.<.S.y.B.<.:.-.| | =._ _ 4.B.Z.B.a.a.,.B.'.3.w z 9 * & @ A 1X<X4X3X..-.} ;.} _ _ _ ) Y R P P F u H W | | } | ..| ....| ) | X.q.-.o.} } T J F x x F F F u J R | X.W X.o.8.x 7 * & O & & ;XcXQ.<Xq.I | -.K Y ) Y ..-.` _ ` ` ' s ,.f.f.Z.^.H.H.G.H.H.l.H.H.h.<.f.C.f.4.4.B.B.4.3.i / f.Z.^.Z.g.(.a.s t +.{ 7 c g ",
"8XzXuXtXM.M.B.!.Z.!.!.!.!.f.4.4.u.;.J R y.F.S.g.!.g.g.j.6.6.6.&.>.4.5.5.5.B.5.>.4.4.>.:.>.5.5.5.2.>.4.f.g.f.f.V.r.e z f = X v HXGXxXeX..1.2.>.4.4.C.G.C.C.Z.g.5.V.:.&.B.Z.f.*.*.h.G.H.H.H.J.).).+X).)./././.[.+X4.' 3.B.C.H.h.j.H.Z.h.Z.h.F.D.I - 6 8 ; - A 9X2XxX3XX.| X._ >.4.B.g.g.g.g.B.B.B.4...1...X.u H I L F x e e I X.o.F e e P | -.-.....=.:.2.5.B.B.B.Z.C.Z.g.B.S.q.z g - &   9.6X7XiXW.M.B.1.) ) I U L I q.| Y -.| Y _ 1.2.1...=.;._ _ -.1.2.r.-.) ) | X.| T P P P P P W T W -.X.R H H H  . .} 6 * & : : : n.1X<X3Xt.) ) | ) | _ K | ;...;.2.w.2.2.2.2.>.4.2.` ..1.1._ | =.1.2.4.2.>.4.4.5.5.2.>.>.2.2.2.2.2.2.2.2.>.` _ r.q.w 6 9 X o , 9XHXmX>XX.) a.h.h.h.H./././._./././.^.).`.h.f.f.g.f.f.<.>.:.2.:...X.:.| ) K Y >.4.4.5.f.4.a.Z.L.P.J.P.).P.C.a.B.t.w = X & O v 1X1X>X>X+.} W K P P K I I P J u u F F F u G P I P R | X.| T T P P P P P F F Q W Q W P F F J W I H u J T } } } { 9 * ; ; % X f HXJXnXkXI.I.I.#XaX].a.' ' N.$XrXrX#Xa.#XOX+X_././.Z.<.g.B.f.B.` ) 1.4.S.y.A.>.:.-...1.1.$.:.4.f.B.Z.g.g.<.B.(.3.w j < & + o A qX<X4X3X..;.| ;.} _ ) ) ) Y I P J F u u T } } ) } ..| | ..| | ..1.w.q.X.| } T L H x x x F u u F I W | T X.o.8.x 7 * & O & , ;XcXQ.4Xt.R | ..a K ) Y | -.| _ =.:.` d :.f.g.H.^.H.H.H.z.H.z.H.H.f.*.a.B.f.4.r.B.r...O.p _ B.Z.^.h.g.(.4.a p 8.{ 7 c 0 ",
"8XvXyXtXe.M.B.Z.!.Z.!.!.!.g.4.4.S.w.R Y 2.F.V.V.~.j.!.!.f.k.k.<.5.5.5.5.5.5.4.>.4.4.>.:.>.5.5.2.5.>.>.f.g.6.6.B.r.w z f = X v HXGXxXeXO.1.2.>.<.<.h.Z.h.h.Z.g.5.g.>.:.Z.F.<.*.*.C.G.H.P.H.J.J.).$X].^.)././.[.+X,.( <.B.B.Z.h.h.Z.Z.h.Z.C.L.R. .= g 8 * - A 9X2XxX<XX.| 1...2.5.B.g.g.g.f.f.B.B.4.| X.| X.e F H x e x e e I X.o.u u u R -.w.2.-...=.:.2.5.B.B.B.Z.C.C.B.B.Y.q.z g - =   7.6X7XiXW.B.A.1.) } U U L I X.} I -.| K =.2.r.1...;.;.| | =.1.2.w.-.) _ } | | T J J J J P } } } -.-.T J H t  .o.8.g 6 ; : : + n.1X<X}.u.| } | ) | | J _ ;...;.2.w.2.2.2.2.>.4.>.` =.2.-._ ..:.1.2.4.>.:.5.4.2.2.2.>.>.2.2.2.2.2.2.2.>.>.` _ r.q.w 7 9 X o , 9XHXGX4Xq.X.a.h.G.G.H./././././././.H.).^.h.h.g.g.g.f.<.:.( :.:...:.1.X.| ) / 4.B.4.B.B.a.a.h.L.).H.L.).P.C.4.y.t.z *   $ O l 1X1X>X>X+. .} T R I K R I P P u F J J G G P W R Y T ..-.T P J P P P P P F F W W W W P F G I | T H u H Y } }  .{ f * ; ; % X f MXVXnXkXI.I.P.&XaX].a.[ ' N.rXrXrX#XN.#XOXOX_._.`.j.p.Z.Z.B.B.` ` 4.r.S.y.B.>.:.1.-.y.4.2.B.f.f.g.B.C.Z.a.C.(.:.w j < & + o A qX<X4X{...;.| ;.} _ ) ) R R K J J J F F T | } _ } | | | ..| | ..1.q.1.-...} T L L G x e e e u u J W W P X.o.8.x 6 3 2 & & , v.9XU.4Xt.I ;...p K ) R | -.| | -.:.` / >.f.g.H.(.^.H.H.H.H.H.^.H.f.*.a.C.B.4.4.M.1.)  .a ..B.F.F.f.f.(.4.K H q.} 7 V 0 ",
"8XzXzXtXe.a.f.!.Z.!.!.!.!.V.5.y.u.r.R a 1.S.V.V.!.g.!.!.f.k.f.<.2.5.5.2.5.5.2.>.2.2.2.>.2.y.5.2.y.:.&.6.g.k.6.f.r.w z f =   v HXGXxXtXO.1.<.>.<.a.C.Z.h.f.j.g.5.g.<.4.F.F.<.&.*.Z.G.H.).J.J.J.).+X).H.)./._._.[.<.` 4.B.a.Z.h.j.g.Z.Z.Z.C.D.Y.^ 7 g ; % X S 9X:XvX<XX.X.w.1.4.5.B.g.g.g.f.f.B.B.4.) ..| X.e e G x x G x r L W I F u J } w.y.2.....=.:.4.5.B.B.B.C.h.C.B.B.Y.q.w g - =   7.6XtXiX{.B.A.1.^ { U U I I o.I I 1.| K -.2.r.-.....;.| -.1.1.2.r.-.) | ) | | Y P P P P R | | | -.-.} T U e } o.8.z 8 ; : : : n.1X4X3XA...| ..} | | J ) ..| ;.1.w.2.2.2.>.>.4.:.` =.1.=.) =.1.2.4.4.4.>.y.4.2.2.2.>.1.5.4.4.4.2.2.2.2.1.` _ w.q.w 7 f o o , 9XHXGX,Xe.2.,.h.H.J./.J./.J./.J./.J.H.P.L.h.h.f.f.h.C.a.:.' O.:.:.:.+.O.X.` ` B.B.f.B.B.a.a.a.L.].L.G.P.P.C.f.B.q.m 9   & + 4 1X1X<X>X8. .| } T R K I I P P u J P J J P W | R Y ) ..| K J P P T P P P F F W W W W P F G P W I J u J Y T ) | { 9 * ; ; & O h cXMXnXBX XP.P.aXhX].M.[ ' K.iXiXjXrXN.&X#XOX).).^.j.p.Z.Z.B.B.` :.y.B.F.r.B.1.1.2.1.S.5.>.B.B.Z.g.h.g.Z.a.C.^.O.w w < & + @ A qX,X4X{...-.| ;.} _ _ ) ) R K P J R H F T | | } | | | | | ) ) | X.X.1.1.X.} I I I P G e e u u F J T T J X.o.8.x 6 3 2 + + 1 v.9XU.4Xe.I -.-.a K | ) ..;.| _ -.:.` / <.f.g.H.^.H.H./.J.H.H.).H.p.] a.B.B.,.>.4.1.) ) U O.B.L.L.a.f.F.4.) ^ t.o.7 S q ",
"zXzXzXyXM.r.B.~.Z.Z.!.~.~.V.f.B.y.u.R p =.V.V.Z.Z.g.g.j.6.6.6.>.:.>.2.2.5.y.5.2.>.2.>.>.4.y.y.4.y.=.$.6.g.g.5.B.r.w z f =   v HXGXxXtX+.4.<.4.4.f.C.Z.h.f.h.g.5.g.<.f.(.F.<.&.,.C.G.L.).P.H.H.P.].P.H.).XX_._.].a.:.B.B.f.H.Z.H.f.Z.Z.H.B.B.A.H 7 g * % X S DX2XlX<XX.X.r.1.4.5.B.g.g.g.g.f.B.B.2.) ....i.F x x G L L x r G L F H H P | w.y.1._ =.=.>.4.5.B.V.B.D.C.C.B.Z.Y.1.w j # *   9.8XyXxX{.B.A.1.^ } U U I I  .I I 1...K X.2.2.-._ ..=...-.2.2.2.y.=._ .._ | | } Y Y T T J } } | -.-.T Y H r U W } 6 = % : : + n.1X4X3XY.X.| ..} | | J ) ;.| ..1.2.2.2.2.2.>.2.:.` =.2.-.) -.2.4.4.5.5.>.y.y.2.4.2.>.2.y.4.4.4.2.2.2.>.>.` ) 2.q.w 6 f & o 1 qXHXmX>Xe.4.,.h.P.).)././.J.).J.).).J.L.L.h.h.f.a.h.Z.h.<.( :.>.1.:.X.X...` =.B.B.5.B.B.a.a.<.H.].L.G.P.P.G.B.B.1.z 9   2 + 4 1X1X<X>X8.| | | } Y I P P P P u J P J J P Q X.R K T | | P P T P T P P P F F W Q Q W P J J T W P J P R Y R )  .E 9 * ; ; & o v cXVXnXBX X XE.aXhX#XN.[ [ K.jXjXNXrXK.aX$XOX).).^.j.p.Z.F.B.B._ 2.A.B.F.r.B.<.4.:.-.S.2.` f.f.Z.h.g.f.h.a.C.L.O.w j < $ + @ A 1X<X4X{.X.-.| -.} _ _ _ ) Y R P P R H u R | | _ | | | | | ) ) ) | ..-.1.X.} I L I I H e e u F F J T R H X.o.8.x 6 ; ; O + 1 v.cX2X>Xq.J -.1.K K | ) ..;._ _ X...` / <.f.f.Z.L.H.G.H.l.z.H.H.G.p.[ <.B.a.:.:.4.4.| ) / 3.D.(.L.p.f.Z.5.` ) t.} 7 C g ",
"6XvXzXeXe.M.B.F.~.Z.Z.~.F.Z.B.B.A.w.| p ` ~.F.Z.Z.Z.~.!.g.<.<.4.:.:.:.>.5.B.5.4.:.4.>.$.>.4.4.5.2.1.4.g.g.5.5.B.e.M z 9 $   v HXMXmXeXM.1.5.4.$.:.Z.a.a.C.4.B.B.<.` M.Y.'.B.:.4.Z.L.^.H.^.).).J.P.J.H.J.).).C.,.( :.a.B.Z.H.H.Z.C.Z.Z.5.~.|.1.H 0 k * & X A 1X,X4XT.| 2.X.:.>.4.5.5.5.g.f.f.5.5.X.K -.u.W F L r E o.P e F I L H Y -.| ..2.1.<.>.>.<.4.4.f.f.B.D.M.B.Z.Z.V.S.+.w g % & O ! ,X>XiXW.M.B.)  .) } ) W J } I K 2.1.K / ` 2.2.=._ ` ` :.4.r.4.2.2.-.) | X.I I I J ) I J ) ..| | ..} H p J W } o.6 = % % O $ ;X,X,X3XN.1.X.-.) | | J T ..| ;.2.4.2.2.2.2.2.:.:.:.:.:.:.` :.2.2.2.4.5.5.5.4.4.2.2.2.4.4.4.4.4.>.>.>.:.$._ ) 1.X.x 6 f = & o DXKXtXW.r.3.f.h.G.).P.J.J.J.J.J.).).L._.).h.h.Z.Z.h.g.f.<.:.>.>.:.:...| ....:.5.B.4.4.B.f.<.p.G.P.G.z.H././.^.D.r.N f - & O v 1X<X<X4X+.| | X.) L J P I I L e e H L J W | T R K R ) T R P P R J J T J u u J W o.W I I H L o.T J J T } } } | } 6 * f & + @ 4 mXmXVXfX.XE.#XhXjX].3./ d E.#X#X&X#XI.$X$X).$X^.h.f.Z.^.B.g.5._ :.4.4.4.B.B.4.4.-.-..._ =.4.Z.Z.h.Z.f.h.a.N.L.a.w j < $ o @ A qX<XyXW.1._ ......-.` ) ) ) T I I I L H H I | | ) | ......| | ) ) ) -.-.| | Y H H T u F G F G P H T | K )  .o.z 6 f ; O $ , ;XcX2X>Xt.I | ;.Y ) | Y ..1..._ ..| / ) ` f.f.Z.`.H.H.H.H.H.H.P.L.f.*.,.F.<.>.2.4.S.../ ] f.L.L.G.h.f.~.4.) r.t.U w z q ",
"tXxXxXeXe.r.B.V.~.S.S.Z.Z.Z.B.B.y.w.;.a _ V.V.Z.Z.Z.Z.Z.V.5.<.4.$.$.&.>.5.B.5.4.:.4.>.$.4.5.4.4.1.1.4.5.g.f.B.S.e.M z 9 = X v HXmXnXeXM.1.5.2.` :.D.a.a.B.4.B.f.4...r.S.F.B.] <.L.^.L.H.H.).).).XX).P.P.].P.a.] ( :.a.B.C.Z.Z.Z.h.H.Z.Z.(.~.| H 6 j * $ O A 1X1X4XY.| 1...:.>.4.g.g.5.5.g.g.B.B.1.Y ..i.L e G r P Q P e H I L H ) 1.X.2.y.r.B.4.4.a.f.f.f.f.g.D.B.B.Z.Z.V.S.1.w g % : O ! 8X7XiXD.3.M. .1.X.| R T p T P J 1.X.a Y ` >.2.=._ _ ` =.2.r.4.1.:...) | X.Y I J J } I I | X.| | ..) H J K I W 8.6 6 % % O $ ;X,X<X4XN.1.-.1._ | | J T ....;.1.4.2.2.2.2.2.:.:.:.:.:.:.:.:.:.:.:.1.4.y.5.4.2.>.:.>.2.4.<.4.>.:.>.>.&._ ..| 1.o.x 6 8 * & & 0XHX>XR.M.4.C.C.H.).).P.J.J.J.J.).).L.).).h.f.g.g.g.g.f.<.$.:.:.:.:.-.-.X...1.y.V.y.4.B.B.<.p.G.).H.z.J.J.H.Z.B.e.M 9 # & O v 1X,X,X4X1.| | ..| T I I I P P G G L W T } X.} R R R } } R J J P J P T P u u F W } W I I H J } T J J I } } } | } 6 6 f , + @ 4 mXmXVXfX#XE.#XjXkX'.,.' ' {.#XrX&X].C.#X$X].$XL.g.f.Z.Z.Z.B.4.` &.4.4.<.B.B.4.4.1.:...` >.B.Z.B.g.Z.f.h.s.N.K.@.w j < & O @ A qX<XyXW.1._ ` ....-._ ) ) ) Y I L I L F F J } | ) | ......| | ) ) } -.X...| Y H J K e u G G P P H R | Y ) | X.z 6 f ; O $ , ;XcX2X4Xt.T | ;.K ) _ Y ..:.| ) | | ) ) ` B.f.Z.^.G.H.H.J.H.J.P.L.f.*.a.L.4.:.:.2.4./ / &.f.L.).L.C.f.<.( p ;.q.N w m q ",
"tXxXxXeXe.r.y.V.~.!.Z.~.F.Z.f.B.2.2.-.a / 5.B.Z.F.V.g.V.V.g.5.4.` %.:.4.g.B.B.5.>.4.:.:.4.5.4.2.1.1.:.4.5.5.B.S.e.M z 9 = X v HXmXnX>XM.2.5.2.' :.C.a.a.B.4.B.a.4...4.B.A.4.] <.L.^.L.G.G.^.).).XX).P.P.).P.a.] ' :.a.C.C.Z.Z.C.h.Z.Z.Z.!.>.Y H 6 j * & O A 1X1X4XY.) O.| :.2.4.B.g.g.g.B.B.B.B.1.T } | H e G e P o.W F J I H u Y 1...2.B.y.B.5.B.g.g.f.f.f.B.D.B.B.Z.Z.V.S.1.w g % : O ! 8X6XiXW.M.B. .1...) K T p R K K 1.| p K _ >.<.:._ _ ` ` >.4.4.:...| ) | -.} I I ) -.} I } ..| ..X.| J J H H I 8.6 6 % & O $ ;X<X<X4XA.1.1.1...| | P ) ....;.1.2.2.>.2.2.2.2.:.:.:.:.:.2.:.:.2.:.=.2.y.y.4.2.:.:.:.>.2.4.4.>.&.:.:.$._ :...1.o.w 6 8 % % & qX8XQ.Q.N.,.C.Z.^.).).).J.J.).J.).P.L.).).h.p.f.g.g.B.g.4.:.:.:.:.:.1.:.X.| 1.y.V.B.4.B.f.<.p.Z.).J.H.J.J.H.j.D.r.z 6 % ; @ v 1X1X,X4X+.) ) X...} T I P L P F x L W W } | ) R R ) | | Y P J P J P T P F u F W } I L I J H W T I J Y | | | X.o.6 6 f 2 + @ 4 HXJXVXfX#X.X#XfXkXR.O.[ @.#X#XjXrXP.C.OX@X+X+XZ.f.Z.Z.Z.^.B.:.&.:.4.4.4.B.B.4.4.r.1...` 4.Z.Z.f.h.Z.h.C.s.C.L.d.w j 9 & + @ A 8X,XvX{.1._ ` | | -._ ) ) ) Y I J L J F u J ) } Y | ......| | ) ) ..X.......K J ) J e F P P I I H R ..Y ) | X.z 6 f ; O & , ;XcX2X4XA.} ..| a Y _ ) -.:.| ) ..X.` ) ` a.f.Z.`.G.H.H.H.J.J.L.H.f.*.a.F.4.>.2.4.y.` / &.f.(._.).G.Z.5.$.a ;.q.M w w q ",
"tXxXiXeXe.M.B.V.~.~.~.~.~.Z.f.B.1.2.;.i Y 5.B.Z.Z.V.V.V.V.g.5.g.' ` :.4.B.B.B.5.>.4.:.:.5.B.4.>.2.1.:.>.<.4.r.A.r.x z 9 = X v HXGXnX>XM.4.y.2./ :.C.a.a.B.4.B.f.4...4.B.B.<.] a.L.^.L.G.G.L.)./.J.J.J.L.).].C.] ( ,.a.C.C.C.Z.C.Z.Z.g.Z.Z.( K I 0 B ; & X A 1X,X4XY.) X...2.5.5.5.g.g.g.B.B.5.y.-.| | } u e G L W o.} J P J u r K -.X.1.B.4.B.4.Z.C.g.f.f.f.B.Z.B.D.Z.Z.V.S.1.w f % : O 7.8X6XiXeXC.M./ ....| T T P ..| Y 1.X./ Y ` <.<.:._ _ ` ` :.r.4.-._ ) | ) -.} I T | w.X.H I ) | ..X.| I ) H F P 8.6 6 % & O $ ;X<X<X4XN.....1.| | | J T ;.| ;.1.2.2.>.2.2.2.2.:.:.:.:.>.4.:.:.4.2.:.2.B.y.4.2.:.:.:.2.4.4.>.:.$.$.:.` / =.| -.o.r 6 8 % O & 9X6XQ.W.D.,.C.Z.L.).P.).J.J.).J.).J.L._.).h.f.g.C.B.B.Z.B.4.<.>.:.:.1.1.-...:.5.B.B.f.f.f.a.p.h.H.H.H.J.J.H.h.S.N.w 6 % ; . v 1X1XtX4X1.) ) ....| } I J L L x r H W W T W Y I R _ ..-.) K P P J P T P F u u T W L J I J H I } T Y ) ..X.-.X.o.6 9 h 2 + @ 4 HXJXZXfX#X#XpXfXjX].O./ @.rX&XhXrXP.G.OX$XOX).C.f.Z.Z.Z.`.B.&.:.>.f.f.5.B.B.4.<.r.2...` <.B.Z.g.Z.H.C.G.K.K.E.M.t m 9 , + @ S 9X,XvX{.2._ ` | | X._ ) ) ) I L J I J H u J T ) ) | | ....| | ) ) -.X.......K J | Y F J E I I I H R ;.Y ) } X.x 6 f ; O & , m.cX<XtXT.| -...J ) ....1.1.X.| X.1.:.) ` a.f.Z.`.G.H.H.H.H.H.H.G.p.*.a.D.4.>.2.y.y.$./ &.f.(._.).H.Z.Z.4./ 1.q.H w z q ",
"6XxXiXyXr.B.B.F.~.!.!.~.~.B.f.4.1.2.| i a B.V.~.Z.Z.Z.Z.V.f.g.V.' ` :.5.B.B.B.5.>.4.:.:.5.B.>.>.y.2.>.>.<.4.r.A.r.x z 9 = X v HXmXnX>XM.2.5.2.' >.C.4.a.M.4.B.a.4...4.B.B.<.] f.F.H.L.G.H.^.H.H.z.H.G.G.).].C.] ' ,.f.C.f.f.g.f.K.Z.<.~.~.( Y ) z S 3 & X b 1X,X4XY.) X.=.4.V.B.5.5.V.V.B.5.<.>.....X.T e r F L W o.Q L I J e r Y 1.1.r.A.B.B.g.B.C.g.f.f.g.V.F.B.D.F.Z.V.S.1.z f % : O 7.8X6XxXW.a.4./ X.1.1.-.T R w.1.) 1.1...) :.4.4.>.` ` ` ` 1.r.r.:._ ) | ) X.T J K ) -.| p J I ) | X.| I | ^ I } 8.6 6 8 & O $ ;X<X<X4XN.) _ ;._ | | J Y ..| ..:.2.2.>.2.2.2.2.2.:.1.1.1.2.:.2.4.5.2.2.y.y.4.2.>.>.>.2.4.4.2.=.` =.:.` / _ ) X.o.w 6 8 % $ 3 0XqXQ.eXW.4.f.Z.H.J.J.).).J.J.J.J.J.P.].).f.Z.Z.C.g.B.Z.Z.B.B.<.:.:.:.1.:.-.:.4.y.5.5.f.f.f.h.G.H.H.H.H.J.H.f.B.e.w 6 = ; . v 1X1XtXyXq.| ) | ....} T J L L G r H o.} W W T P Y _ ;.-.} R K P P P T P J F u T W I L T L H I | } ) } ..-.1.q.o.0 9 h 2 + o 4 HXLXZXfX%X#XrXdXaX$X,.a [ jXrX$XrXL.P.$X+X).G.C.f.Z.B.Z.`.B.&.:.>.f.f.4.B.f.>.:.r.4.:.` :.4.B.Z.Z.L.Z.G.G.G.E.N.m B f , + @ S 9X,XxX{.1.` ..| | X._ ) ) ) I L J I L H u J T ) ) | | ....| | ) ) 1.-.......K J | | P J P P P I J ) -.R ) W o.x 6 f ; $ & , m.cX<XyXT.| -.;.Y | 1.-.1.1.X.| X.1.1.) _ a.a.C.`.G.H.l.H.J.H.G.C.a.] B.B.5.:.=.2.=./ ` >.B.L.).G.C.f.5.&.s ;.q.U M m q ",
"6XxXiXyXr.B.S.~.!.S.Z.!.Z.f.<.<.1.2...i a B.S.Z.Z.Z.~.~.V.5.5.B.` $.>.5.B.B.B.5.>.4.:.$.4.5.>.2.A.r.2.4.5.f.B.A.r.x z 9 =   v HXMXnXeXM.1.5.4.$.4.Z.4.a.M.4.B.4.4...4.B.M.,.&.B.Z.H.L.H.H.^.H.G.G.J.H.G.L.L.a.( ' :.a.a.a.a.a.a.a.f.*.~.~./ Y I z B 3 $   b 1X1X3XY./ X.=.B.V.V.5.5.g.V.g.4.:.=.| X.| L r y r H W | T L I K p u ) r.2.r.B.B.V.B.g.g.g.g.f.B.Z.F.D.D.F.Z.V.S.1.z f % : O 7.8X7XnXW.M.M.' 1.2.1.;.Y Y w.w.| 2.2.1.` >.4.4.:.` ` ....1.r.r.1._ ) | ..-.T I I K | ) J J K ) | | ) K | ^ J } 8.6 6 * ; O & ;X<X,X4XA.) ) | R | | J P ..| ..=.2.2.>.2.2.2.2.2.2.1.1.:.=.:.2.2.2.2.4.4.4.4.4.2.2.2.4.4.4.>.=.` =.:.=./ _ ) X.o.w 6 8 % O , qX1XQ.eXW.3.C.G.H.G.G.J.XXJ.J.J.J.J.P.].(.p.g.B.g.f.f.Z.V.B.B.4.>.:.:.:.1.:.:.2.5.B.f.f.f.f.^.).).).J.H.H.H.<.<.+.0 6 = ; @ v 1X1XtXyXe.| | | | ..) I L L P L r H o.| I T } P Y ) ..-.} R I P P P P P J F u T } T I T L H T | | } ) | -.1.-.8.0 f l 2 O o 4 mXLXZXfX#X#XrXrXhXaX,.t [ kXrX#XrXG.E.$XOXP.h.C.f.f.f.Z.(.B.:.<.:.4.4.<.5.4.` ` 1.1.1.` ` :.f.Z.Z.H.Z.G.G.G.E.M.M Z f , o @ S 9X<XxX{.1.....| | -._ ) ) ) Y I J I I J F H Y ) ) | | ....| | | ) 1.1.X.....I J | -.T P P P P I J R 1.) ) T o.x 0 f ; $ & $ m.cX,XxXT.| -.-.) -.1.-.-.-...` ` X.:.) _ a.a.C.`.G.H.z.H.J.H.G.C.p.] B.a.f.:.=.4.=._ >.4.Z.L.G.C.p.<.>.$.a ..q.U M z 9 ",
"6XxXiXpXr.B.V.~.~.!.Z.!.Z.g.<.<.=.r.1.p a 5.V.Z.Z.Z.!.~.Z.5.4.4.:.>.4.5.B.B.5.5.>.5.>.$.4.4.>.4.A.r.2.4.f.g.B.S.t.x z 9 $   v HXMXnXeXM.1.4.5.:.4.Z.a.a.M.a.B.4.3.` 4.B.r.<.&.C.F.H.H.G.G.H.H.H.H.).L.G.L.L.a./ ' :.B.f.4.<.4.a.<.f.( V.V.a Y I z B * $   A 9XlX3XY.) X.=.B.V.5.5.5.5.5.5.4.>.:...X.T F e e u I W } I J I K H H | r.4.r.B.4.B.B.g.g.B.g.B.B.Z.S.D.Z.F.Z.V.S.1.M f % : O 7.8X7XnXE.C.D.` :.-.;...Y J 2.w.-.r.t.2.=.<.y.4.:._ _ ` =.:.r.r.1._ ) | 1.-.T } T J | | I J I } ..X.} I | H e I 8.6 = % ; % & ;X<X,X4XA.| _ | ) ....p J ..| ..=.1.2.>.2.2.2.2.2.2.2.1.:.:.4.4.:.:.4.4.2.2.2.2.2.2.4.4.4.4.2.=.` :.2.=.) ..) -.o.r 6 8 % O o :X<XQ.eXW.4.H.^.L.z.h.J.).J.J.J.J.J.P.).H.,.f.B.B.g.B.V.B.5.4.<.1.>.:.:.:.:.2.4.B.B.B.a.f.f.L.L.).).).J.J.H.p.<.@.w f % & O v 1X,X6XyXe.X...-.-...) Y P L L G r F } } L I W R Y _ ..X.W I P P P P P P P J F T } } W } L J ) X...| ) | -.1.X.8.w g l 3 + o 4 mXJXZXfX#X%XpXpXjXaX] y ] kX&X#X&Xs.L.OX+X].h.C.<.*.<.Z.F.B.f.<.&.4.4.<.5.4.$.` ..1.1.:.` :.f.g.Z.H.Z.G.G.G.E.M.M B 9 , o @ S qX<XvX{.3.` ......-._ ) ) ) T I L I L H u p I ) ) ) | ....| | | | -.w.-.| | Y J Y -.R P P P P I J Y 1._ ) ) 8.x 6 f ; $ & & n.cX,XbXT.) ;.1._ -.1.-.-.-..._ ) | ../ _ 4.a.C.`.G.H.G.H.J.J.G.C.a.] B.4.B.:.>.B.:.:.>.5.C.G.G.C.f.f.<.>.Y =.w.I t w 9 ",
"tXxXiXpXe.M.B.Z.~.!.!.(.~.g.<.<.=.y.y.a a 4.5.Z.Z.Z.Z.Z.Z.g.>.:.>.>.4.5.5.5.5.5.>.5.>.$.>.4.>.5.y.2.:.<.5.g.B.A.t.x z 9 $   v HXMXCXpXM.:.4.y.<.f.F.a.a.B.a.B.4.1.` 4.B.r.<.&.C.L.^.G.C.j.H.H.H.H.).P.G.L.'.a./ _ 3.C.D.f.a.f.f.B.F.` 5.>.i _ X.z B * $   A 1X8X3XY.) X.=.B.B.4.B.5.5.5.4.>.2.2...| H r u J I } } | T J K J p p -.B.r.B.B.f.Z.Z.g.Z.Z.Z.B.B.V.Z.D.Z.F.Z.V.S.q.M f % : O 7.8X6XnX{.C.B./ ..X.2.w.) J -.w.2.A.B.1.:.<.4.<.=.) _ ` :.:.4.r.1._ ) ) -.| J T T H } ..I J I | -.-...) ..a e I 8.6 6 % ; % & ;X<X,X4XT.X.| .._ -.;.p u ..| ..-.1.2.>.4.2.2.2.2.2.2.>.:.2.B.y.:.=.4.y.2.:.>.>.2.2.2.2.2.4.2.=...=.2.:._ 1...1.o.r 6 8 * 3 & 1X1XQ.pX{.B.(.].).z.h.J.).J./.J.P.P.L.).Z.&.a.g.Z.Z.Z.Z.B.4.>.>.1.>.:.=.:.:.5.B.V.Z.B.a.a.f.h.C.J.).).J.J.H.Z.4.1.M j # & X v 1X,X,XeXe.X.-.2.1.X.) Y I L L L r F } } J I } T T | ..| T P J P P P J P P J F T } | } } L J } X.X.| } | 1.1.-.8.w g l 3 + o 4 mXJXZXfX#X%XpXpXjX#X' y ] jX#X&X&Xa.G.{.$XOXh.C.,.' <.^.Z.Z.Z.4.&.4.4.4.B.5.:.:.| :.1.:.:.<.4.f.Z.^.H.L.L.L.E.N.M B 9 , o   S qX<XyX{.3.` ....X.-.` ) ) | T I I L L H u u K ) ) ) | ......| | | -.w.1.| } Y J I ..I J P P P I J Y 1._ | } X.x 6 f ; $ & $ v.FX,XbXT.T ..-._ -.-.1.=.-.X.| ) | ../ _ 4.a.C.^.G.H.H.J.P.J.H.G.a.*.D.4.B.:.:.y.` $.:.<.B.D.G.G.C.Z.>.&.Y -.r.^ M j 9 ",
"uXxXxX3XN.M.Z.Z.V.!.~.!.Z.Z.Z.Z.4.1.y.2.p >.V.V.Z.Z.Z.~.~.g.<.:.:.B.4.>.V.V.4.5.B.4.:.>.>.4.5.B.y.4.:.:.<.g.B.A.t.w z 9 # X A FXGXCXW.M.r.5.4.4.B.B.a.a.a.M.B.4.1.) 4.r.1.,.4.Z.L.G.Z.C.Z.G.H.H.H.G.H.H.L.].B./ O.:.<.4.4.4.4.a.a.4.$.>.%.s =.t.z B < & X A 1X8X3XA.) 2.4.B.B.V.5.5.4.>.2.2.1.1.| I F r u I | | ) ) } K p J I u ..4.B.4.f.f.f.g.g.f.f.f.B.Z.F.F.F.D.Z.Z.Z.B.+.w f % % O 7.8X6XiX#XN.M.O.| 4.2.2.Y J -.w.2.r.4.r.:.4.4.<.<.` ` 1.4.:.1.r.1.) ) ....| T ) | I I X.I K I T | X.X...) ) U H 8.g = * % & $ v.,X,X4XT._ ..| ..-.} J u | ....` =.2.4.>.2.2.2.2.2.2.:.:.:.y.y.2.:.4.2.=.:.:.:.>.2.4.4.4.2.4.-._ -.-.| ..:.1.-.X.6 g 8 % $ 4 ;X:XQ.bXR.D.(.(.L.G.G.J.J.J.J.J.).).).L.f.*.B.B.B.V.Z.B.<.:.<.4.<.:.:.:.:.` 4.B.g.F.F.B.Z.f.C.Z.J.H.P.J.J.J.^.F.r.t 0 = 3 O v 1X<X>X4XN.r.4.1..._ -.X.T J L F e u } } P } T P R | ;.| T P J R R T T P P I W T o.X.} K I Y I Y ) | | 1...) ..8.z g l 2 + o 4 cXMXZXBX#X#XpX%XrXaXd a @.rXjX$X$Xd.K.&X$X).C.f.*.' f.`.B.Z.F.:.:.4.B.f.>.4.4.` ` r.2.` :.5.B.C.Z.H.Z.).L.L.E.N.M m j $ , . ! qX<X3X{.1.=.) :...1.-.) Y | ) L I I I J u u H I ) ) | ....| | ) } X.1...1.) | K I } J J P W P J I =._ =./ | X.L g l ; @ $ < v.0X8XxXT.) ;.;...Y 1.1._ 1.:.X...) ..) _ 4.a.h.^.G.H.H.J.J.J.G.h.<.*.B.B.f.<.:.` _ ' 4.<.B.C.p.G.H.<.( $.=.1.r.{ q q 9 ",
"uXiXxXeXN.a.Z.Z.Z.!.!.Z.Z.Z.Z.D.2.1.-.:.a :.F.Z.Z.Z.Z.~.~.V.5.4.>.B.5.>.V.V.5.5.B.4.:.>.>.>.4.B.y.r.>.>.<.f.B.A.t.w z 9 # X A FXGXCX>XM.r.y.4.<.B.B.f.a.a.B.B.4.` ) B.S.4.>.:.B.Z.Z.Z.G.G.H.H.H.H.G.G.G.L.(.B./ ,.<.4.a.f.f.f.f.B.f.&.$./ a _ 1.z B < &   A 1X,X4XD./ 3.<.f.B.B.5.5.4.>.>.:.:.X.X.W F r u T | | | | ..) J K Y p :.B.B.5.f.f.f.B.f.f.g.B.Z.Z.S.S.S.D.Z.Z.V.S.+.w f % % O 7.8X6XiX#XN.a.O.) 1.1.-.Y J -.1.:.y.r.B.<.y.4.4.<.=.` 2.y.1.1.r.2._ ) ..X.X.| } | } ) X.I I T } X.X...| ) ) I U 8.g = ; % & $ v.,X,X4XT._ .._ | ;.} J u | ...._ =.2.4.>.4.4.2.2.4.2.2.:.4.y.y.4.4.4.2.:.2.>.>.2.4.4.4.2.1.1.=._ | | _ ..-.-.X.o.6 g 8 % O < ;X:XQ.iXK.C.].].).G.G.J.J.J.J.J.).).).L.f.,.B.B.B.B.B.B.4.>.4.5.4.:.:.:.:.:.4.V.B.Z.Z.f.C.a.G.Z.G.H.P.P.J.G.^.Z.e.t 9 # & O v 1X,X>XtXN.3.2.:.` ` 1.-.) I I F u e W W P | } P Y T | | } R J I T } } T P P I I } o.} T ) T J ) | | | X.| Y } o.w g l 2 + o 4 mXmXZXkX#X#XrXrXaXaXd t ] pXjX$X#Xd.L.$X@X].C.h.*.' <.^.Z.F.(.<.<.B.B.4.4.f.>._ | 4.4...:.>.<.f.Z.H.Z.).L.L.E.M.t m n $ , . ! 0X<X3X{.3.:._ 1.:.-...) ) | ) L T I I L H u H Y | } | ....| ) ) } -.q.X.q.| ..I Y | Y P T W P P R ;.=.=.) | i.P z l ; X $ < v.0X8XbXY.} -...| K ..1...1.-.....) ` ) _ a.a.C.^.G.H.H.J.J.J.G.h.<.*.a.B.B.4.:.` ` :.5.4.S.K.p.C.Z.*./ :.>.2.r.E q j 9 ",
"uXiXxXeXN.a.Z.Z.!.!.!.Z.Z.Z.j.f.1.1.Y =.a ` ~.Z.Z.V.Z.!.~.V.B.g.5.V.5.4.B.B.5.B.B.4.:.:.>.>.4.5.y.r.>.>.<.f.B.A.t.w z 9 # X A FXGXVX>XN.B.y.2.>.B.B.B.a.a.a.4.:.) ) A.Y.4.:.&.f.D.Z.Z.G.H.H.H./.H.G.Z.Z.(.L.4./ 4.r.B.B.B.f.f.B.B.B.:.%.Y a | X.z B < $   b 1X,X4XD.) 4.<.f.B.B.5.5.4.<.>.:...| X.P r r u I ) } X.-.1.| K K K p :.B.B.4.f.f.f.Z.g.g.Z.Z.Z.Z.V.B.D.B.C.Z.V.Z.+.z f % % O 7.8X6XfXeXC.M.O./ :.-..._ R -.....B.B.B.4.B.B.4.<.=.` 2.y.1.1.r.4..._ ....-.| T | | | ..J J I | X.X.| ) )  .} U 8.g = 8 % & $ v.,X,X4XT.| .._ _ ;._ J p | | | ` -.2.4.2.4.4.4.4.4.2.2.:.4.4.4.y.4.2.2.4.y.5.4.>.2.2.2.2.1.2.| ) _ _ ) | ..X.X.o.6 g g * % , ;X:XQ.iXK.B.Z.G.G.h.G.H.J.J.J.J.).).).H.f.,.Z.B.B.B.B.B.f.4.B.B.4.:.&.:.:.:.4.V.g.Z.Z.f.g.p.L.G.G.H.).).J.h.H.C.e.w 9 # & X v 1X,X>XtXM.1.1.:.` ..1.1.| T I J H r L W L } } P P K T | | T P P T X.X.W P P P I } | } } | ) J | -.....1.X.) | o.w j k 2 + o 4 HXVXZXkX#X#XfXjXhXaXd y [ rXhX&XOXd.L.$XOXOXG.h.*.' <.Z.Z.F.F.<.<.Z.5.>.B.B.>.` / :.1.:.>.:.,.g.Z.H.Z.).L.K.E.M.M Z n $ , . ! 0X<X3X3X<.:.` 4.2....._ ) | ) J T W T I H p H Y ..| ......| ) ) ) 1.w.-.w.....Y Y | Y I T I J J K -.-.1._ ..q.E z g ; O $ < v.0XlXxXT.} ;..._ a | 1.-.2..._ ..Y )  .` B.f.Z.).G.J.H.J.J.J.G.h.p.,.4.B.B.4.:.=.:.4.5.5.(.(.h.C.C.*.d >.4.r.q.U q m 9 ",
"uXiXbXeXN.a.Z.Z.!.!.Z.j.Z.Z.g.<.1.2.a :./ ' ~.Z.Z.V.V.Z.Z.V.B.B.V.V.y.5.B.B.B.B.B.4.:.:.>.:.>.4.r.2.:.:.<.5.B.A.t.w z 9 # X A FXGXCX>XN.B.y.>.:.B.B.B.a.a.4.:.( .._ A.S.4.:.:.B.D.Z.G.H.H.^.H.H.G.H.Z.C.(.F.,./ <.4.5.f.f.5.f.f.4.D.>.` Y Y 1.X.w B * $   b 1X,X3XD.` M.4.B.B.B.V.g.5.5.4.:...| 8.P r r H I T ) 2.2.r.1.K K K p ` 4.4.<.f.f.g.Z.j.j.Z.Z.S.Z.V.B.B.B.B.Z.V.Z.1.z f % % O 7.cXtXNXrXR.D.:.) >.-._ -...2.;...A.B.r.4.B.y.4.<.` _ =.4.>.1.4.r.-.| | | -.| K T | | } H J I } X.X.| ) ) )  .L 8.c - 8 % & $ v.,X,X4XT...;._ _ ;.} J J ......=.=.2.2.2.4.4.4.2.2.2.:.:.y.1.2.y.y.:.:.4.B.5.4.>.2.2.2.2.w.2.| _ ..} Y ) ..-.-.X.6 g 8 % $ < ;X1X<XxXK.C.C.C.h.h.G.J.J.).J.J.J.J.).H.f.*.B.B.B.B.B.B.B.4.B.f.4.>.:.:.:.$.<.B.g.Z.Z.f.Z.f.H.G.G.L.P.P.G.C.Z.B.3.w 9 # & X b qX,X>XtXM.1.:.:.$.:.1.2...T I I P r H W P } } K K Y ) | | } T J } -.-.| T T I I | X.| | | ) K ) X.X...1.-.| X.} 0 j k 2 + @ 4 HXJXZXBX#X#XfXjXjXaX/ y [ aXhX&X#Xa.P.$XOXOXG.h.,.&.<.Z.Z.Z.f.` $.V.4.:.B.B.:.>./ ..:.>.>.$.:.Z.Z.H.Z.).L.K.E.M.N C Z $ , . ! qX>X4X3X<.>.` 4.2...-.| ) | I J W } W I L H H Y ........| | } ) ) -.w.1.r...X.I K | ) } | Q I P K -.=.2.| ..q.P z g ; O $ , v.0XlXyXA.) -.;...K ..-.-.2.| ) ../ / ` ` B.B.Z./.G.G.H.J.J.J.G.h.p.,.a.B.B.4.2.:.2.5.>.4.(.).h.C.C.*.d >.y.y.r.U q m f ",
"iXxXNXeXB.4.V.V.~.!.j.j.Z.Z.g.<.1.y.J :._ ' S.V.Z.V.V.Z.Z.V.B.g.V.B.B.B.B.B.B.B.B.4.>.:.>.:.>.4.2.1.:.:.>.5.B.S.r.w z 9 $ X A FXmXNX>XN.M.5.>.:.f.f.a.a.a.4.,.] :._ B.S.M.<.,.f.Z.Z.G.H.H.H.G.G.G.^.h.f.L.D.:.' >.<.4.5.5.f.g.B.4.B.:.( Y _ 2.q.w B < $   b 1X,X{.D...B.B.B.B.B.V.5.5.5.4.=.....i.P r F I ) ) | 2.2.r.1.K a K a ` 4.4.4.f.g.g.Z.Z.Z.Z.Z.Z.Z.Z.Z.B.B.B.Z.Z.S.1.x f % : O 7.cXuXNXrX].R.,.` 1.-.| ..| 2.;...A.B.4.4.B.B.y.4.:.) ` 2.:.:.2.2.-.| _ ) X.| J Y | | T I I I ) | ..| ) ) ) | G o.c - ; % & & v.1X,X4XT.X.-._ _ ;._ P J ......=.1.2.2.2.4.4.2.2.2.2.:.:.y.:.:.y.4.:.:.4.5.4.>.>.>.2.2.2.y.1._ } -.} J J ) ..-.8.w c g % $ , ;X1X<XxXD.C.(.L.H.J.H.H.J.J.J.J.J.J.L.G.a.*.B.4.<.4.4.f.5.4.f.B.5.4.4.4.:.` <.V.g.~.Z.f.Z.g.Z.L.).).L.J.G.G.Z.B.3.w 9 # & X v qX,X>XeXM.2.>.:.:.:.1.2...T L L I r F } W } } R Y ) } } } } } P | -.-.| W W T I ..-.| ) ) ) Y Y | _ ) | .._ | } 0 j k 2 + @ 4 mXmXLXVXpX%XfXfXjXaX] t ] jXaX&X].s.].$X].OXL.h.<.<.f.Z.Z.Z.4./ ' B.4.:.B.B.:.>...2.2.>.:.` &.g.Z.H.Z.).L.K.P.d.U { S , 1 . ! 8X6XeX3X3.:.` 4.>.1.1.| ) ) I L } } W T I p u J | ......| | | ) ) X.1.1.r...-.K K X.-.-.q.i.X.} R :.:.4.` | X.U z l f % & , v.0XlXxXT.T -.;...K ......1.| _ ..) ) ` ..B.C.Z.).Z.G.H.J.J.J.G.h.p.,.D.B.f.4.2.2.2.2.>.<.(.).h.h.h.&.d >.5.y.A.^ q j g ",
"iXxXNXeXB.a.Z.V.!.!.!.j.Z.Z.g.4.1.A.) =._ %.5.V.Z.V.V.Z.Z.V.g.g.B.4.5.V.5.B.V.5.B.4.>.>.>.>.>.4.2.1.:.:.>.5.B.S.r.w z 9 #   A cXmXnXW.M.r.4.>.:.f.f.a.a.a.M.B.4.` / B.F.B.a.,.a.Z.Z.G.H.H.G.G.G.H.^.f.a.F.B.` _ >.<.4.B.B.B.B.B.4.B.:.' Y Y 1.X.0 B < $   b 1X,X3XY.O.D.B.B.B.B.V.5.2.5.4.=...X.8.G r H } | ) ) 1.1.4.1.K a Y / :.f.B.g.j.g.h.Z.Z.Z.Z.Z.S.Z.S.S.A.B.C.Z.Z.S.1.x f % : O 7.9XtXnXrX].R.,.) 1.=._ ) Y ;.....B.B.r.4.B.B.B.B.:._ ` :...:.1.1..._ _ | -.| K ) ..| T | } ) } | | | ) | ) | x o.V - * % $ & n.1X6X4XA.-.-..._ ;._ J H | _ ..1.2.4.2.2.4.2.2.1.2.2.>.:.y.2.2.y.4.:.:.4.4.>.>.>.2.4.2.2.y.1.T ) X.T p p Y _ X.i.z c g % O & ;X1X<XiXD.B.L.G.G.H.J.H.J.J.J.J.J.H.G.C.<.] B.4.4.4.f.B.B.B.B.B.B.B.B.B.<.&.5.Z.Z.^.Z.f.C.f.C.L.).).L.G.J.L.Z.g.3.w 0 # & X b qX,X>XeXM.2.>.:.:.:.1.1.-.) I L W r e o.o.} | R ) | | | } } | I | -.X.| X.| T J | -.| Y Y Y K ) -...) | X._ | o.0 g h 2 + @ < cXmXLXZXrX%XrXrXhXaX,.a O.kXrXrX].C.OX$X].OXL.f.f.Z.Z.Z.^.^.f.&.' B.B.<.5.4.&.` ..2.2.:.>.:.<.Z.Z.H.Z.L.L.G.P.d.U { ! , $ . ! 8XtXeX{.:.:.` <.:.2.1._ Y ) I I } } W T I H e p ) ....| | ..| | ) ..1.-.r.-.-.K J ..-.w.w.i.i.;.| =.:.4.` | X.H 0 l f % & , v.0XlXxXT.} -.;.| K ...._ -...| | ) ..` ..B.B.Z.^.Z.G.H.J.J.J.G.h.<.*.D.B.4.4.4.4.2.>.4.f.(.).h.h.f.' / >.2.u.A. .w j f ",
"iXnXNXeXB.a.Z.V.!.!.!.Z.Z.Z.g.4.2.A.-.` s :.4.Z.Z.V.V.Z.F.V.B.B.5.:.4.V.5.B.V.5.5.4.>.>.>.>.>.4.r.4.2.>.<.4.B.S.t.w z 9 #   v 0XmXnXW.3.1.2.>.>.f.a.a.d.4.M.B.f./ / r.F.B.4.,.B.C.Z.Z.G.G.G.G.G.H.).f.<.F.a._ ` 2.4.y.B.B.B.B.B.4.M.` ' Y Y -.q.0 B < $   A 8X6XeX'.>.S.B.B.5.B.B.>.>.5.4.1.-.1.X.G r I -...) ) 1.1.r.1.K p Y ) :.B.Z.B.Z.Z.h.Z.Z.Z.Z.F.F.F.S.Z.S.D.Z.Z.Z.F.1.M f % : O 7.8X6XiXpX].'.,.' 1.-._ ) a ) _ ..B.B.B.r.B.4.4.4.:._ ..` ..:.1.1...| | | X.} I | ..} ) | } ) ) | | | ) ..I o.x 8.E - % % $ & v.1X6X4XA.-.-.| _ ..T p u R Y _ 1.r.4.2.4.4.2.2.2.2.2.2.2.y.4.2.4.2.:.:.>.>.>.>.>.2.4.2.2.r.1._ ) } K H I ..1.1.q.x c g = O & ;X1X>XiXD.B.f.p.p.h.H.H.J.XX).J.J.H.G.h.,.( f.4.4.4.B.B.B.B.B.B.B.f.B.B.4.:.5.Z.Z.^.Z.a.C.f.C.H.).).P.L.L.L.Z.C.3.w 9 # < X b qX,X>X3XM.4.<.:.:.:.>.1.1...} } o.r r o.o.} | R R ) | | | | | T X.-.X.X.-.| P H } -.X.| | Y J _ 1.1.| 1.2.1.X.o.0 9 f 2 + o < mXmXLXBXpX#XrXrXaXaXa.a [ kXrXrX#XK.#X$X).+XL.p.Z.`.^.Z.F.^.B.4.` 4.B.5.5.f.>./ K :.1.:.<.f.B.Z.Z.H.Z.L.L.K.P.d.N { ! , $ . ! qXlX4X'.:.>.:.4.O.1.-.) Y | } I } } } } } H r u Y ..| | ......| ) | -.1.t.-.-.I J | -.-.q.i.i.-.;.:.2.5...| X.H 0 l f & & & v.0XvXxXT.T | | | K ..-.) ..-.X.| K O.` ` B.f.C.^.Z.J.G.H.J.P.H.h.<.*.B.B.B.5.y.4.4.2.B.f.(.(.h.h.p.' d :.4.A.A. .w j f ",
"xXxXNXeXB.a.Z.V.!.!.!.Z.Z.Z.j.f.2.A.2./ a :.>.Z.Z.V.V.!.~.Z.V.V.4.$.4.V.5.5.V.5.5.>.>.>.>.>.>.4.y.y.4.<.<.4.B.S.t.w z 9 #   v 0XmXnXW.+.:.2.>.<.B.f.a.,.,.4.4.4.) / 4.B.>.:.4.(.B.h.C.Z.G.G.H.H.H.].a.,.Z.4./ ` <.4.y.f.5.5.5.f.M.r.` ` ( R 2.r.0 B < $   A 8XtXiX}.1.D.f.5.5.B.B.>.>.5.y.2.2.r.i.L F o.t.w.X...r.4.y.1.K p K ) ` f.B.B.Z.Z.j.Z.Z.Z.^.(.(.F.S.B.S.D.Z.Z.Z.F.1.M f % : O 7.qX7XiXpX].].,._ 2.1.....J ) _ ..r.r.B.B.B.<.>.>.` _ =.` ..>.2.1...` | | ..T I | | ) ) I K I T | | | ) X.) X.x 8.E - % # $ $ v.,X4X4XA.X.-.| _ | Y u e p J R 1.y.4.4.4.4.2.2.2.2.4.4.4.y.4.2.>.:.=.=.=.>.>.>.2.4.4.2.2.w.1.| _ ) J P ..r.r.t.q.z c g = O , ;XqX7XiXD.B.h.h.h.G.H.H.J.).).).J.G.C.f.*.( <.>.>.>.4.5.4.4.B.f.4.4.4.f.4.:.<.Z.V.F.Z.a.C.f.Z.G.L.).).P.L.H.Z.C.3.w q = < o b 1X<XW.3XM.4.4.:.:.:.>.2.2.-...-.q.e r W } T } R Y Y _ X.-.| } T X.-.X.-.-.Q J H ) -.1.1.1.) J ) -.-.| 1.r.2.2.o.0 6 3 2 & o < mXVXLXVX#X#XrXrXhXaXN.a [ kX&XhX#XG.$X$X).+XL.p.^.[.^.f.C.S.B.f.&.>.f.B.B.V.4./ K 1.2.:.<.B.B.g.Z.G.D.L.L.K.P.M.N { ! , $   ! 8XzX3XR.:.3.1.r.:.-...) ) ..| T } | } | } J r e I | | | ..X...| ) | -.-.u.1.1.Y K ..-.q.1.i.i.2.2.1.2.y.:.| X.H 0 l l & & , v.0XcXyXA.K | | | Y 1.1.R ..1.1._ K :.` ` a.f.h.^.G.H.G.J.P.P.L.h.<.] a.B.B.B.5.4.4.5.g.f.H.(.C.G.h.( s :.5.S.A. .w m h ",
"xXxXxXpXD.A.S.V.Z.(.`.!.Z.Z.Z.B.y.y.y.=.Y ' 5.g.Z.Z.Z.!.~.!.Z.V.4.$.>.B.4.4.f.B.B.>.` ` :.<.4.B.5.B.g.<.<.5.V.A.t.x z 9 =   < qXmXeXT.O.=.2.%.$.5.f.B.,.:.4.B.>.i :.F.B.:.' :.L.C.C.Z.G.G.J.H.G.Z.C.a.f.B.>._ :.B.4.4.f.f.f.f.B.4.A.>.' s $.S.q.w B < $ X A 1X,XtX{.M.B.B.4.B.5.4.>.>.4.2.4.r.1.| u U 1.r.2.4.r.A.y.1._ K p Y ..<.B.F.F.Z.F.^.L.F.Z.Z.'.'.S.B.F.S.F.F.Z.!.~.1.w f X ; . 9.0X7XuXaXL.'.B.` X.;.| } | -.K K S.F.4.B.2.` ` ` ` ` ` ` :.>.<.:.=...` _ | ) J _ ..J ) | p Y Y | -.T 1...2.T U o.V = * $ $ $ U.8XtX3XN.) ..-._ X.) y e r p ) -.2.4.<.<.4.2.2.:.2.2.4.4.>.4.y.4.:.:.:.:.:.:.>.2.4.r.y.y.2.-._ ) _ _ ) ) ` ` 2.t.x c g % & 3 n.qXzXNXR.a.p.s.h.h.l.l.H./._.)._.H.a.f.a.d >.:...:.<.4.4.<.f.4.5.f.4.<.<.4.f.p.g.H.Z.h.Z.).Z.G.H._._.).H.H.H.L.r.w 0 * & X b qX,X>X4Xr.2.2.4.<.<.4.2.1.X.| ..-.H y L | } } R J ) -.-.| | | } | -.-.-.X.X.| Y Y ..1.1.2.1.) ) 1.2.-.1.1.1.q.X.0 9 f < o @ 4 cXIXZXZX.X.XpXrXkXpX@.t d.kXjXaXL.s.$XOXOX@Xs.J.H.H.H.C.C.D.S.:.( :.f.f.B.B.4.=.) =.2.:.:.4.B.C.Z.C.Z.(.C.C.{.M.N ~ { < o   ! cX6XtXW...1.1.r.1.1.X.| ) ) ) } } | } } } I e r H I ) ....| | _ ) ) ) X.2.2.| ) ) ....-.-.-.1.>.>.:.:.y.1...X.M w k l % $ , v.8X,XyXA.p -.| ) ) -.-.-...1.w.| K ) ` ` a.p.h.).H.H.P.L.].P.L.h.] p.f.f.g.f.<.:.<.5.*.Z.^.).^.C.g.( s =.S.S.Y.X.q m j ",
"yXuXxXeXD.B.S.V.Z.(.(.Z.Z.Z.Z.B.y.2.2.=.Y ' 5.F.V.Z.Z.~.~.Z.V.g.f.:.<.B.B.f.B.B.4.:.:.<.4.5.B.B.B.V.g.6.>.6.B.B.r.x z 9 =   h 0XmXuXW.:.2.5.$.>.B.B.B.,.:.4.B.2.a / 2.~.}.B.:.a.D.C.Z.G.J.J.H.J.L.F.B.B.B.:._ :.a.4.4.f.f.f.f.f.M.A.>.' s $.Y.t.w B * $   b 1X<XtX{.M.M.B.4.V.B.4.<.4.4.:.4.r.1.T e J 1.r.4.r.B.B.B.4...K p Y ..<.B.F.S.Z.F.F.F.F.Z.S.'.'.F.V.F.S.S.F.Z.Z.~.2.w f X ; . 9.0X7XuXrXL.(.a.` X...| | J Y Y ) 4.4.a.B.2.` ` ` _ _ _ _ :.>.<.2.:.` ` ..1.X.K | -.K K ..I Y Y | X.} ..| 1.I e E V = * $ $ o U.8XtX3XA.) ..-.| -.} y u u J | 1.2.4.<.<.2.2.:.:.:.2.2.2.=.4.5.4.>.>.>.:.:.:.:.2.r.r.y.r.r.-._ ) _ ) R Y / / -.t.x c g % & 3 n.9XzXNXR.a.p.s.h.h.l.l.H.^./.^.^.`.Z.B.,._ :.:.:.:.>.<.>.>.f.4.4.4.<.>.>.<.C.f.f.Z.Z.g.h.Z.G.G.H._._.^.H.H.Z.L.r.w 0 * & @ b qX,X>X3Xe.2.1.4.2.2.2.2.1.-...-.-.J y J | } } R P T -...X.-.| W } | X.| | | | ) ) -.2.1.:.X.Y ) 1.:...:.1.1.q.X.0 9 f < o X 4 cXLXZXZX.X.XrXrXsX#X@.t d.kXaXrXI.s.$XOXOX@Xs.P.J.l.H.C.M.C.B.:.' ,.g.C.B.S.B.r.` :.:.:.>.B.Z.Z.Z.Z.D.L.C.C.{.M.N ~ { < o . ! 0X6XyXW...1.1.r.1.1.X.| ) ) ) } } | ) } } J r r u Y | ....| | | ) ) | :.2.1.` ) ) -.-.-.1.1.>.>.:.:.1.y.1.....M w k f % $ , v.qX,XyXN.p 1.;.) R -.X.X.| -.q.| ) ` _ ` 4.p.h./.G.H.).J.P.P.).C.*.<.f.f.f.f.<.&.>.5.<.^.).].(.Z.g.$.s :.S.S.Y.+.w m j ",
"tXtXxX3XD.B.S.V.!.(.(.Z.V.Z.Z.B.y.1.1.:./ / >.g.V.Z.Z.~.~.Z.B.4.B.>.<.B.B.B.V.B.<.>.4.S.F.B.B.V.V.V.V.6.6.6.5.y.w.w w 9 = $ v cXJXiXW.3.4.V.>.>.V.B.B.,.] 4.B.4.` / :.|.NX'.<.4.D.C.G.G.J.J.J.J.^.K.B.B.B.O.' >.4.4.4.f.B.f.p.f.M.B.:./ s $.Y.r.w B * $   b 1X<XtX{.r.M.y.<.V.B.4.<.4.>...:.2.-.J e J 1.r.4.y.B.B.B.y.1.) K ) -.4.B.Z.S.Z.F.F.F.~.F.F.'.'.F.Z.F.S.F.Z.Z.Z.F.2.w f X : . 9.0X7XuX&XL.L.a.` | | ....J K Y ) 4.4.a.B.<.:...` _ _ ` _ =.<.4.<.>.=...-.2.1.K | 1.K K | ) p J } | -.| ) 1.I r x c 6 * $ o o U.lXtX3XA.| X.-.| 1.) r p J Y ..2.4.4.<.<.2.1.:.:.:.:.:.>.=.4.5.5.4.>.>.&.:.:.:.2.y.y.r.2.r.-._ _ | _ ) ) / / -.t.x c g % & 3 n.9XzXNXL.a.s.s.h.h.h.l.H.^.).^.^.`.(.:./ / =.:.:.:.:.:.>.>.4.4.<.<.>.:.:.<.Z.f.<.g.j.g.f.h.H.H.^._._.^.G.H.Z.F.r.w 0 * & X b qX,X<X3Xe.1.1.2.2.2.2.2.1.1.X.1.1.K r H ) } } R I T } } -.-.| } } | X.| | | | ) ) X.2.1.X...) ) -.X.| -.1.:.q.8.0 9 h < O X 4 cXLXZXZX.X#XrXsXiX#X@.t a.jXaXrXI.C.@XOXOXOXG.XXJ./.J.C.B.C.B.4.' ,.f.f.B.V.A.B.=.:.:.$.>.B.Z.C.K.Z.D.L.N.N.].N.N C ! , o . ! 0X6XyXW...1.1.r.1.1.-.| ) ) ) } } | } } } I e r e T | ....| | ..| ) ..1.4.1.` ) _ -.-.-.1.1.>.:.&.:.2.A.2...X.M z k f % $ , v.qX,XvXr.p 1.-.) Y -.| | | -.q...) O._ ` a.p.C.^.G.J._.L.P.P.].L.*.p.f.f.f.f.<.:.<.f.4.).).].L.C.g.$.( >.S.Y.Y.+.q m k ",
"tXuXxX3XA.M.B.B.!.(.(.Z.g.Z.Z.B.y.-.2.B.2.$.:.<.V.Z.Z.~.~.Z.5.>.B.>.>.f.B.B.B.5.4.<.B.'.'.B.4.B.V.V.g.6.6.6.5.y.w.e w 9 = $ b FXmXiXW.3.2.V.:.$.Z.B.B.,.] 4.B.2.` =.y.|.}.4.:.Z.D.Z.G.J.J.J.J.J.L.D.B.D.B.] / >.4.4.4.B.B.f.5.f.M.r.` / s $.S.r.w B * $ X A 1X,XtX{.M.M.B.4.Z.B.<.>.4.:._ ` :.| J u Y 2.w.2.4.r.B.B.B.4.../ ..4.4.B.V.Z.Z.Z.F.F.~.F.~.'.(.F.S.F.F.S.Z.Z.Z.~.2.w g # ; . 9.8X7XeX&XP.L.4...| _ -.| Y R p K B.B.<.B.4.<.<.2.:.=.:.` :.<.4.4.<.:.:...1.-.K _ ..K -.1.w.J J T } q.Y ) 1.} e w g 8 * $ o o U.8XtX3XA.| ..-...1.| r H ) | -.4.r.4.2.1.2.1.:.:.:.:.:.>.2.5.g.5.<.>.:.$.:.:.:.4.y.y.r.1.2..._ ..-...| ` ` _ 1.t.G c g % & 3 n.0XzXNXL.f.h.s.h.h.h.l.H.H.^.).H.Z.Z._ i a _ ..:.:.:.:.>.<.4.<.>.<.>.:.>.<.B.a.a.g.Z.h.f.f.Z.Z.H._._.^.G.G.Z.F.r.w 0 * & X v qX,X<X3Xe.2.2.1.>.1.2.2.2.1.1.2.1.) e u T } } T Y T T T -.1.} | | -.-.-...X.| K a ) 1.1.1.1.-.| X...| 1.1.1.q.8.0 9 h 3 o o 4 cXIXZXZXeX#XpXsXjX#X,.a d.jXaXaXK.I.&X@XOXOXG.XXJ./.H.C.C.B.M.C.( ,.f.f.B.S.A.r.` :.:.:.<.B.Z.g.L.Z.D.L.a.a.E.N.N C ! , o . ! 0X6XyXW.O.1.:.r.1.1.-..._ | | } } X.| | | T H e e Y | ....| | ....) ..2.r.1...) ) ..-.-.1.1.:.=.:.:.2.S.2...X.H z k l % $ , v.qX,XbXr.u 1.-.R Y 1.} X.X.-.w.-.| :._ ` f.f.Z.).G.H.OX).OX].+XL.,.p.C.C.g.g.4.<.5.Z.<.(.).).G.h.g.$.$.>.S.Y.Y.@.q q j ",
"xXxXbXeXN.4.B.g.!.(.^.j.g.Z.Z.B.2.;.r.}.}.V.B.V.V.V.Z.~.~.V.4.:.B.>.>.4.5.B.B.4.B.4.B.(.F.B.5.B.V.5.5.6.6.f.g.B.r.x z 9 = X v cXmXiXW.3.1.5.$.$.V.B.f.,.] 4.B.:.a 2.S.y.:./ &.L.D.Z.G.H.J.J.J.J.L.Z.Z.L.D.` / :.4.4.B.B.B.f.5.f.M.4._ / / =.S.w.w B * $ X A 9X8XtX{.A.D.S.B.Z.B.<.>.>.:.) ` X.| u p ) 2.2.2.r.4.B.B.B.4.:.` 2.A.f.B.B.Z.Z.S.S.F.~.~.(.'.~.S.S.F.F.F.Z.Z.Z.~.e.x g % ; . 9.8X7XeXrX].L.a.>.X.) -.-.Y Y p K 4.B.<.<.<.4.B.B.<.>.>.1.<.<.4.4.4.<.2...| ..) _ ) Y S.}.}...) ) ) -.J ) q.i.L r g 8 * $ o o U.lXtX3XA.| | ....1.) r J ..X.2.4.r.2.2.1.2.2.:.:.:.:.>.2.5.y.5.4.>.>.>.:.:.:.2.y.y.y.r.1.2.` _ ;.-..._ ..` ` 4.A.L B g % $ 3 ;X0XzXNXL.f.h.h.f.h.C.G.H.H.H.].F.B.f._ a / _ ..1.1.:.:.:.<.2.>.>.<.<.>.<.f.f.f.h.Z.Z.h.f.f.h.h.G.).).^.G.G.Z.F.e.w 9 = & X v qX,X>X3Xe.2.r.1.>.>.2.2.2.2.1.2.1.| H e I | T } T ) T R | -.} | | -.-.-.X.| ..J i K -.1.1.2.2.:.1.| | 1.2.1.r.8.0 9 j 3 O @ 4 MXLXZXZXeXeXrXjXjX#XO.a d.jXaXhXa.G.@X&XOXOXI.P./.oXH.h.D.a.3.B.:.<.f.C.F.'.D.4.` :.4.4.4.B.Z.C.G.G.D.K.a.a.E.N.N C ! , 1   ! 0X6XyX{.O.1.:.r.1.2.1..._ ) ) | ) X...| | W J u e I | X...| | ..X.K _ 1.r.1...) K | ..-.1.1.:.>.>.:.2.A.2.X.X.H z k l % & , v.8X,XbXN.u -.;.) ) 1.| -.-.1.w.1...1.` &.f.f.Z.`.G.).OX].$XOX).C.*.f.C.C.g.g.5.<.f.Z.<.^.^.).J.C.C.*.>.6.V.S.Y. .q m j ",
"xXnXmXeXN.4.B.g.S.~.^.Z.g.Z.Z.B.2.-.y.}.'.V.B.B.Z.Z.Z.!.~.Z.4.:.B.4.4.f.f.B.S.B.f.4.4.B.B.B.B.S.B.5.6.6.f.f.B.B.t.x z 9 = X h 0XmXnX3X3.:.5.:.$.V.B.B.,.:.4.4.$.a 2.B.:._ _ <.Z.D.Z.G.J.J.J.H.J.^.L.L.(.F.( / >.<.<.5.B.f.4.5.B.4.3./ ' ( >.Y.r.w B * $   b 1X,XyX{.D.D.F.B.Z.B.4.<.4.>.` =.1.X.y p ..r.2.4.B.B.B.B.B.y.2.1.y.F.B.B.B.Z.S.S.S.F.F.(.'.(.F.Z.S.F.F.F.Z.Z.Z.~.r.M j % ; . 9.8X7XeXrXE.F.a.4.1.) 1.A.Y R _ ..<.4.D.:.1.r.B.B.<.>.1.4.4.<.<.4.4.4.2...X.X.) | ) ) Y.}.Y...) ) ) | Y | q.q.E r 6 6 * $ o o U.lXtX3XA...| ....1.| r K ..-.2.4.4.<.2.2.2.1.:.=.=.:.2.4.5.y.5.>.>.4.<.>.:.>.4.y.y.y.r.2.2..._ -.-._ R ) ` _ 4.A.L c g % % 3 ;XcXzXNXL.f.C.h.p.f.C.G.H.H.[.[.'.Z.<.) K / ` :.1.1.:.=.=.:.:.:.2.4.4.4.4.B.f.C.Z.L.Z.C.f.p.p.f.Z.)./.H.G.G.Z.F.e.w 9 * & X v qX1X>X3Xe.2.r.2.>.>.>.2.2.2.2.2.1.X.K e K | T | ) } T R } X.} } | ....| | | | Y e p X.2.1.2.2.2.1.` _ 1.1.-.q.8.w f h 3 O o 4 FXLXZXZXpXrXrXjXkX{.[ t d.jXrXaX] N.OX$XOXOXP.P./.XXh.p.C.,._ ,.:.a.g.C.F.(.A.1.=.4.B.5.f.Z.Z.Z.G.G.G.L.a.a.E.M.C Z ~ , , . ! cX6XyX{.O.1.:.r.1.w.1...| _ _ | ) X.| | } W I F e J ) X...| | ....K _ 1.4.2.:.) K ) | -.1.:.=.:.>.>.2.y.1.X.X.H w k l % & , v.qX,XbXA.u ..=._ _ 1.| 1.1.1.2.1.:.<.` &.B.f.h.^.H.).].].$X).G.p.[ p.f.f.f.f.<.<.5.Z.f.).).).H.G.H.<.<.5.S.S.Y. .q m j ",
"xXnXmXeXM.<.B.g.Z.~.(.Z.V.Z.Z.B.y.2.r.y.:.` <.g.Z.Z.Z.Z.~.Z.5.:.B.4.f.B.5.B.S.B.f.5.4.<.4.B.Z.B.B.5.5.f.g.g.V.A.r.x z 9 =   h 9XzXnXeX3.` >.$.>.B.B.B.4.,.f.4.` a 2.y.:.` :.4.Z.C.C.G.G.J.J.H.J.H.Z.Z.L.D._ / 4.>.<.4.4.4.<.<.f.:...s / %.2.Y.r.w B * $   b 1X,XyX3XD.D.S.B.V.B.4.<.4.>.:.1.4.X.e J 1.y.4.r.B.B.f.f.B.B.y.4.B.S.V.g.B.Z.F.Z.Z.F.F.(.(.^.Z.Z.Z.F.F.Z.Z.j.Z.~.r.M k % ; . 9.8XwXuX#XL.B.4.A.M._ 1.Y...-.4.4.4.4.S.:.<.B.B.r.>.>.<.4.4.<.4.4.4.<.1...2.2./ _ ..) r.1.) Y K T | } | ..X.X.E r 6 8 * & O o U.lXtX3XA.X.` X.X.q.) e Y ..-.2.2.4.<.<.<.2.1.=.` ` :.2.5.5.y.5.4.4.4.<.>.:.4.y.B.y.y.y.y.r.=._ =.1._ R ) &.] r.A.L B g % O 3 ;XcXzXjXL.h.C.h.p.f.C.G.H.Z.].Z.S.F.1.K K ) ` =.1.1.:.-...X.1.:.2.4.5.4.4.B.B.B.Z.F.L.Z.f.<.f.f.Z.).).L.G.Z.Z.F.e.w 0 * & X b 8X8X>X3X3.1.2.<.>.>.>.2.2.2.1.2.1.1.Y e J ..) } Y } } R T | -.} | | ..| | | ..| i p X.2.1.1.-.2.-.) ) -.X.| 1.8.w f j 3 O o 4 FXLXAXZXrXrXiXjXNXE.' t a.jXrX&X] C.P.OXOX].].P././.h.a.S.3.) 3.:.a.Z.h.D.F.B.4.2.4.5.4.5.Z.Z.C.G.G.G.L.a.d.L.M.N Z C , ,   ! cX6XyX3XO.1.:.r.2.r.1.X.| | _ ) ) ..| | } } T H e p ) X.X.| | ....) ..1.2.4.2...Y ) ..-.2.1.=.:.>.>.:.y.1.X.X.H 0 k l % & , v.qX,XxXA.H ..;..._ .._ -.1.-.2.1.:.<.` &.f.a.f.H.G.).+X).OXP.G.p.] p.f.f.f.f.<.<.5.Z.f.).).P.J.G.H.<.<.5.S.S.T. .q ~ j ",
"xXxXNXeXM.<.B.B.Z.~.(.Z.V.Z.C.f.2.1.2.=.a s 5.`.Z.Z.V.Z.~.Z.5.>.B.4.B.B.4.B.S.B.B.B.4.>.<.B.V.4.S.5.5.f.g.g.V.A.w.x z 9 =   h qXzXnXeXO._ :.$.>.B.B.D.a.4.B.4._ a :.4.=._ ` <.Z.C.C.C.G.J.J.H.J.C.f.a.C.a.' ' B.>.>.<.<.>.:.>.5.) / a s ( >.Y.r.w B * $ X S 9XlXxXpXD.D.A.a.V.B.4.>.>.>.:.4.4...i ) r.A.4.4.B.5.f.f.B.B.B.B.B.B.Z.g.B.Z.F.Z.Z.F.F.(.(.F.Z.Z.Z.F.F.Z.Z.j.Z.~.r.M j % ; . 9.8XuXuX{.K.a.4.F.B._ 2.u.1.y.4.2.B.B.4.<.4.B.B.4.>.>.4.4.4.<.4.4.4.>.-.=.B.r.K ) 1.) ) ) u I I } ..K X.-.| } E c 6 8 * & O o ;XlXtX3XA.:.` X.-.w.| e ) ..-.2.2.2.2.<.<.2.=.` _ ` =.2.5.y.B.B.5.4.4.>.$.:.4.B.V.y.4.y.B.r.=.` 2.w.;._ ` <.:.B.Y.U c g % O 3 ;XcXzXsXL.h.D.C.a.f.C.K.H.Z.a.' :.S.>.a ) 1.) ` ..:.:.-.X.X.1.1.4.y.B.4.4.f.B.f.f.B.L.^.C.p.f.h.G.).).H.C.C.Z.F.e.w 0 * & X b 9XlX>XW.+.X.1.<.>.>.>.2.2.2.1.1.1.1.) e J X.) } I T | T R | -.| -.-.-.X.X.-.-...i i ..2.1.-.X.2...Y Y X.| ) ..8.w 9 j 3 & o 4 FXLXAXZXrXrXfXjXNXE.' t N.NXrX$Xa.L.].OXOX).OXJ././.p.p.'.4.` 4.:.C.^.H.C.Z.F.S.4.4.>.&.<.Z.Z.f.G.G.G.L.a.d.L.M.N Z S , ,   ! cX6XyX3XO.1.:.r.2.r.2.X.| | _ ) ) ....| | | } J e u Y X.-.| | | ..| -.1.1.r.r.1.) | X.2.2.1.=.=.:.>.:.2.-.X.X.H 0 k l % & , v.8X,XtXT.J -.-.-.| ) ) -.-.-.1.:.:.<.( ] a.<.p.Z.Z.).$X].].L.L.h.*.h.h.f.f.f.<.<.g.Z.f.).L.L.G.C.Z.<.<.5.S.Y.T. .w { n ",
"xXxXmXyXM.4.V.g.Z.~.(.Z.V.Z.C.f.2.2.1.2.Y a <.~.V.Z.Z.Z.Z.Z.5.:.5.B.B.B.B.V.S.V.B.B.4.>.4.S.B.<.4.B.5.<.6.f.5.B.r.M c 9 #   h qXzXnXeXO.` 5.>.$.V.B.4.B.M.4.B.` Y 2.B.$.s ` a.C.B.C.G.H.J.J.H.J.G.f.a.L.a./ ` :.>.>.4.5.<.:.<.B./ / s s %.S.Y.q.w n 9 X $ b 9XlXyX3XB.B.S.B.F.f.4.4.4.4.4.2.:.) K -.t.y.B.B.4.B.5.Z.~.(.S.B.B.V.Z.Z.Z.Z.Z.Z.Z.Z.Z.^.`.`.^.Z.Z.Z.F.D.Z.Z.Z.F.e.N g % O @ 7.cX7XuXR.d.D.4.f.S.=.=.A.=.2.y.y.<.:.B.4.B.r.4.y.>.:.4.2.<.<.4.4.<.:.` 1.r.1._ | | ) | | I ) | I I } | H } I x L 6 8 % % $ $ U.cX>XyXA.X.:.` -.r._ p Y 1.2.w.4.4.<.<.4.4.=./ _ ` =.:.2.5.y.5.5.5.4.:.&.>.5.B.5.5.5.y.y.1.:.=.2.r.2.2.4.>.:.r.A.H c g # $ , ;XHXxXjXR.a.a.C.a.a.C.Z.Z.(.L.a.B.B.../ X.1.a / -.1.1.-.X.X...-.1.r.4.<.4.f.B.f.a.B.Z.Z.f.<.<.C.G.H.).H.C.H.L.B.r.q 6 * & X v 9XlX>XW.e.2.1.>.>.:.>.<.<.1.1.1.1.-.) K K K I | T R R T } | | -.-.| | | -.-.-.Y K p ) 4.2.X.2.1.| Y Y | -.X. .o.w g j 3 O o < FXLXMXAXpXfXjXjXsXD.a.,.C.kXL.&Xs.].$X+XOXOX].H././.H.C.B.4.:.:.] <.Z.^.).].L.B.2.4.>.<.4.C.Z.Z.).H.C.L.C.d.N.M.C Z ! , , . ! cX6XyX3X1.:.` 2.r.r.1.X.| ..X.....| -...) T | ) H e | ..) -.-.| X...X.1.4.1.2.1.) | ..-.1.1.>.:.:.>.:.4.1.X...e 0 k f O o $ v.1X2XyXT.K -.w.-.K ) ) -.2.1.:.` :.B.( ` 4.C.C.H.L.G.+X).@X).G.C.,.p.Z.a.f.f.<.<.g.g.p.).).z.H.H.h.<.&.V.Z.S.N.^ t { n ",
"xXxXCXiXN.4.V.g.V.!.(.!.V.Z.Z.f.2.2.1.1.Y s 5.~.V.Z.Z.Z.F.Z.5.:.5.B.B.f.B.V.S.V.B.B.4.>.4.B.B.<.2.B.5.<.6.k.5.B.r.M c 9 =   h qXzXxXeXO.` 5.>.>.V.B.4.M.a.4.B.` Y 2.y.=.Y ' 4.Z.C.C.G.L.J.J.H.H.).C.h.^.<./ >.f.>.>.<.4.>.:.>.B./ K a s %.V.Y.w.w n 9 X $ b cXlXxXpXA.B.S.B.F.B.4.4.4.>.2.1.../ Y 1.y.y.B.f.4.B.B.Z.F.S.Z.B.S.F.F.Z.Z.Z.Z.Z.Z.Z.^.(.(.(.F.Z.Z.F.F.D.Z.Z.!.F.r.M j & & O 7.mX8XuXE.N.F.3.4.Z.$.=.B.:.4.y.4.<.:.B.4.y.4.y.B.<.:.<.<.<.<.4.4.2.:.` 1.r.1._ | | ) | ) K Y | T T } ) H ) I x L 6 8 % % & $ U.cX>XyXA.X.:...-.r.) u K -.1.2.2.<.<.<.<.4.-._ _ ` =.:.>.2.4.5.5.5.>.>.:.4.5.B.B.y.B.B.y.1.:.:.1.2.1.1.>.:.:.B.A.H c g # $ & ;XHXxXjXL.p.C.C.4.<.h.D.C.L.[.D.B.4./ a X.2.K / -.1.1.-.X.-.....1.4.y.4.4.f.Z.f.f.B.Z.F.C.a.<.C.C.H._.).G.G.Z.B.r.q 6 * & X v 9XlX>X3Xe.2.1.>.>.>.>.<.<.1.:.:.1.1.| ) K K Y } T R R T } | | -.X...| | X.X...| Y a ) 1.1.X.1.1._ K K ) _ _ ) o.0 g j 3 O o < cXLXVXZXrXfXjXrXaXD.3.d.C.kX{.OXd.].$X].OXOXP.P././.H.C.B.4.O.O.` p.H.^.).].F.B.<.4.>.>.4.C.Z.h.^.^.G.L.C.a.G.M.^ C ! < , . ! cX8XyX4X1.1...2.r.t.2.1.-.1.1.1.1.| -...) } | ) J r ) ..| -.X.| ..X.X.2.4.2.4.1._ ) ..-.1.2.>.:.:.>.:.4.1.X.X.e 0 D l $ & , v.8X<XyXW.K ..2.-.Y | ..:.1.1.4.:.] 4.:.&.<.f.f.h.^.P.+X].@XL.C.h.*.,.Z.a.f.f.<.<.g.g.f.).).G.H.H.h.<.>.V.Z.S.N.^ t { j ",
"zXuXNXyXM.4.B.5.5.!.(.!.Z.Z.Z.f.2.r.1.:.Y s B.Z.V.Z.Z.Z.~.Z.f.>.5.B.B.5.B.B.S.Z.B.B.4.>.4.B.B.<.>.5.5.>.6.6.5.B.r.x c 9 =   h qXzXxXeXO...B.6.>.V.B.4.a.4.4.B.$.Y :.y.:./ ' 4.F.C.C.G.L.J.J.H.J.).G.h.^.<.d :.f.<.:.>.<.>.$.:.4.) K a a ( V.Y.r.w n 9 X $ b cXlXbXpXD.D.F.Z.~.B.4.4.4.>.<.>.) a ` r.B.B.B.f.5.B.F.Z.Z.B.B.Z.F.~.F.Z.Z.C.Z.Z.Z.F.(.`.(.^.Z.Z.Z.F.F.Z.Z.Z.!.~.r.M g % & O 7.cX7XpX{.K.'.,.:.D.:.:.B.2.y.4.<.4.:.4.<.r.r.B.B.<.:.<.4.<.<.<.<.>.:...1.2.:._ | | ) | Y J K ) ) ) } I p ) W G L 6 8 % % & & ;XmX,XyXA...:...:.r.) e K 1.1.2.2.<.>.<.<.4.-._ ` =.:.:.>.>.4.5.5.4.>.:.>.4.5.V.B.B.B.V.B.:.:.:.:.-...=.:.<.<.B.A.G z g # $ , ;XHXxXjXL.p.C.C.,.,.C.D.C.Z.[.D.B.1.a p ..3.) ` 1.1.1.-.-.-..._ X.4.B.f.f.f.S.B.4.f.Z.Z.C.a.<.f.h.G.[.].G.G.Z.B.r.w 6 * & X b 9XlX>X3Xe.2.2.>.:.>.>.<.<.2.1.-.1.2.1.) K K Y T T Y T } | | | X.X.| | | | | | X.) a K -.1.X.1.1.) K p K ) ) ) { 0 g j , O o 4 cXLXVXZXiXfXjXrXsXD.O.M.C.hX$XG.[ ].@X).@XOXJ.)././.Z.B.B.4.` ` ` a.L.).).].F.a.5.5.<.>.4.Z.Z.h.G.).J.J.h.s.L.a.^ C ! < , . ! cX8XxX4X1.1...3.e.2.1.-...X.-.-.-.X.1.1...| | Y p y ) X...X...| -.-.-.2.r.2.4.1.` ) ..-.2.1.>.:.:.>.=.2.1.X.X.e 0 D l & , , v.qX,XyXY.K | 2.-._ -.:.:.:.1.B.4.:.:.:.:.a.f.p.h.^.).].].@XG.p.p.*.*.C.a.f.g.4.5.V.B.f.).).G.J.J.p.<.<.Z.S.S.N.^ q ~ j ",
"6XtXbXpXr.>.f.<.6.!.`.!.Z.Z.Z.f.1.r.1.=.Y / B.Z.V.Z.Z.!.~.Z.g.>.5.5.4.4.B.B.S.S.B.B.f.>.<.B.B.4.:.5.5.<.6.6.5.S.w.x c 9 =   4 qXzXxX3XO...B.>.>.V.B.4.a.4.4.B.=._ >.y.4.=.` <.Z.C.Z.L.L.J.J.J.J.H.G.Z.).a.d ` :.<.:.:.>.>.:.:.4.` s a s ( V.Y.r.w m 9 X $ b FXvXbXeXD.D.S.Z.~.B.4.4.<.>.2.1.) a ..r.B.f.B.B.f.Z.^.Z.B.g.B.F.F.F.F.Z.Z.Z.Z.Z.Z.F.(.(.(.^.F.Z.Z.F.Z.Z.Z.Z.Z.F.r.N f % O O 7.0X7XuX#XE.].,.&.Z.>.4.5.4.y.>.:.<...:.2.4.4.B.B.4.:.<.4.4.4.4.4.<.:...-.2.-._ ..| ) | T H J Y ) | | I p ) W G L 6 8 % % & & ;XFX,XyXA.` =...1.r.Y i Y 1.1.2.<.1.>.>.<.2.=._ ` :.>.>.4.2.5.B.B.4.:.:.>.4.5.B.B.B.V.V.B.:.:.2.:.=._ =.>.<.4.S.Y.x z g # $ , ;XHXiXsXL.p.D.C.<.<.D.K.Z.Z.L.f.B.<.a a | :.` :.1.2.1.-.-.-...| | 1.B.B.f.4.Z.f.<.4.B.Z.f.<.<.f.p.C.[.[.L.L.Z.B.r.w 6 * & X v 8X8X,X3Xe.2.2.>.>.>.>.2.<.2.1.:.1.2.1.| K K ) T T T T } | -.-.| X.X.-.| | | } -.) a K X.1.X.1.2.| K p a Y ) | } 0 9 f & O o 4 cXLXVXZXiXfXjXrXjXD.' M.C.hXrX,.d ].+XP.$X).h._././.Z.a.r.1.' ' *.h.).).).).K.a.B.B.4.<.f.Z.Z.j.h.^.G.C.s.C.P.3.N Z S 1 o . A 0X8XyX4X1.2...2.1.2.:...` | | ` | 1.2.w.-...| K p r I ....| | ..1.X.X.2.r.2.4.1.` ) ..-.2.1.:.:.:.>.=.r.1.X.X.e 0 k l % & , v.6X<XtXY.J | 2.1._ -.2.2.:.<.B.B.>.>.` &.f.Z.h.Z.L.L.).].@XC.p.h.p.p.C.<.f.g.5.5.V.B.h.).).J.P.J.p.<.6.Z.S.S.D.^ t ~ j ",
">X7XxXeXe.:.5.<.5.!.`.^.Z.Z.C.4.2.r.1.$.s Y B.V.V.Z.!.!.~.Z.g.>.f.4.<.4.B.B.S.S.B.Z.B.>.>.4.B.4.>.5.5.<.6.f.B.S.w.x z 9 = X h qXzXiX3XO...y.>.$.V.B.a.a.4.<.B.=.=.<.y.y.<.>.<.f.C.Z.L.L.J.J.J.J.).Z.h.).g.( :.,.4.:...1.<.>.:.<.O.s a s %.5.S.q.w m 9 X $ A FXcXbXeXD.D.S.B.F.g.4.4.4.>.<.>.) a =.y.B.f.B.Z.Z.F.^.Z.g.B.Z.F.F.F.Z.Z.Z.Z.Z.Z.Z.Z.^.^.^.`.^.^.Z.Z.B.S.^.Z.g.Z.r.U j = & + 9.cX7XnX#XE.].,.&.Z.5.g.<.>.5.:.:.<.` ` 2.4.<.4.B.4.>.<.<.r.B.B.B.4.:.....2.-._ ....) | ) J J K I | | I e W W G L 6 8 % O + & n.cX<XyXu.' ` ` 1.r.) p _ 1.1.2.<.2.>.>.>.4.-.` ` :.2.>.2.2.5.B.B.4.>.<.4.4.5.g.g.B.V.B.5.$.:.2.2.=.` :.4.<.4.S.Y.F z g # $ , :XGXiXiXL.p.C.C.<.p.G.L.Z.Z.C.a.B.4.s a ..:.:.>.1.2.1.-.X.X.X.| | 1.4.f.4.<.S.a.>.<.B.B.f.,.a.f.a.C.].[.P.L.Z.f.r.w 6 * & X v qX8X,X3X3.1.1.>.<.<.>.>.>.2.2.1.1.1.1.| K Y | ) T T T T } ..-.| | X.-.X.| | | ..) p K -.2.-.1.4.X.) K a K ) | { 0 9 f , O o 4 FXPXVXZXrXfXjXaXNXC.d 3.C.hX+X' d ].+XL.$X).h.)./.`.C.4.r.1.' ' ,.Z.].).).).L.B.B.y.4.<.f.Z.Z.j.h.).H.G.h.G.].3.N Z S , + . A 0X6XyX3X1.2...1.+.r.2.1.=...` _ _ -.1.2.1.X.| Y J e K | ..| | 1.2.....1.4.1.2.1.) ) ..1.2.1.>.>.>.:.:.r.1.-.X.e 0 k f O o $ v.6X2X4XT.K | 2.2._ -.:.>.:.<.B.f.<.4.` &.a.C.C.Z.).).).).$XG.h.G.h.Z.C.<.4.f.5.g.V.B.h.).).J.P.H.s.p.f.Z.Z.F.T.@.N ~ n ",
">XtXNXpXe.:.B.5.6.!.`.^.Z.Z.B.4.2.r.1.=.a s 5.V.V.Z.Z.!.~.Z.f.>.f.<.>.4.B.B.S.F.B.Z.B.>.:.4.B.f.>.5.6.<.f.g.V.S.w.x c 9 = X 4 qXzXiXW.O...5.>.%.B.B.a.B.4.<.B.=.=.4.B.5.<.<.4.a.C.C.G.L.J.J.H.H.).h.p.H.a.( <.B.4.:...1.4.2.:.>.O.a a / >.B.A.q.w m 9   $ A FXcXbXpXD.C.S.B.F.5.4.4.4.>.1.=.) a =.4.B.f.B.Z.Z.^.Z.Z.Z.Z.F.^.F.Z.Z.Z.Z.Z.Z.Z.Z.Z.^.^.^.`.`.^.Z.C.B.F.F.g.f.Z.r.U j % O O 7.0X7XBX#XR.].,.:.F.5.V.:.:.5.>.:.2.` ` <.<.1.<.B.4.>.4.4.B.S.S.B.4.:.....1.X.) ...._ | ) J J K I } | I e T W G L = 8 % O O & ;XcX>XyXu.) ` ` 2.r.Y p X.1.1.2.<.<.>.>.>.y.1.` =.:.>.>.2.>.4.5.5.5.4.5.g.4.5.f.5.y.B.y.4.` =.1.2.2.:.2.f.4.4.S.Y.H z g # $ < :XGXxXiXL.f.h.h.p.p.G.H.h.h.Z.f.f.>.a a ..:.:.:.:.2.1.-.X.| X.| ) -.<.4.<.<.F.f.,.<.B.Z.f.,.a.f.a.C.].].L.L.Z.f.r.w 6 * & X v 1X1X,X3X1.X.1.<.<.<.<.>.>.2.<.4.1.1.1.| Y Y | T T R K P R } | } } } | | ..| | ..) p K -.2.1.1.2.-.) K K K )  .} 0 9 f , O o 4 FXPXAXAXpXrXjXsXNXB./ ] a.sXD.a d K.+X).+X).h.H._.`.C.4.B.3.` _ ,.H.[.).L.).).D.4.5.5.<.f.h.j.h.G.).L.L.G.P.].a.U Z ! < ,   ! cX6XyX3X1.3...1.X.r.4.2.:..._ ) ) | X.1.1.-...| ) p J | -.| X.w.2.....1.4.1.2.1.) ) ..2.2.1.=.>.>.:.:.r.2.1.X.e 0 k l O $ , v.6X<X4XY.K | 2.2...-.:.>.:.>.B.5.<.f.:.&.<.a.f.Z.[.+X).P.@XP.G.G.C.).Z.a.4.f.5.g.Z.Z.Z./.).J.P.H.s.p.g.Z.B.D.W.@.N ~ n ",
"7XtXbXeX3.:.B.5.g.!.`.^.Z.Z.B.4.2.2.-.=.a i >.Z.V.Z.Z.Z.F.Z.5.:.B.<.:.4.B.B.Z.F.B.Z.B.>.:.4.B.B.>.5.>.&.f.g.V.A.q.x c f = X h qXzXiX3XO.=.V.>.$.B.B.a.B.4.<.B.=._ 4.B.>.` :.f.B.C.C.G.L.J.J.H.H.H.h.p.H.p.( ,.B.B.:...1.4.2.=.` ..a a ( 4.V.S.q.w m 9   $ A FXcXbXeXD.C.S.B.F.5.<.5.5.>.=.` / a :.y.B.f.Z.Z.Z.^.Z.Z.Z.Z.Z.F.F.F.Z.Z.Z.Z.Z.Z.Z.Z.`.^.^.^.^.^.Z.Z.Z.Z.B.<.5.F.r.M j # O X 7.qX7XBX$XL.'.4.<.Z.4.V.:.$.4.4.<.<.` ` <.<.:.:.4.<.>.4.4.B.S.S.B.4.>.=...1.X._ ...._ | ) K K I I } | K e I W G L 6 8 % O & & ;XcX,XyXA.` ` ` 1.1.a p -.1.1.4.<.<.>.>.<.y.1.` ` :.2.4.4.4.4.5.5.4.4.4.4.5.f.f.5.y.B.5.4.` $.>.4.4.2.4.f.f.4.D.Y.H c g # $ < :XGXuXiXL.f.h.C.h.h.L.G.f.f.Z.a.f.:.a K :.1.$.:.:.1.1.X.o.} X.| ) ..:.>.<.<.S.a.:.<.B.D.a.:.4.f.h.Z.].].K.K.Z.f.r.w 9 * & X b qX8X6X3X+.X.1.<.<.<.<.>.>.1.<.4.:.:.1.1.) ) ) ) ) T R P I T } T T T } | | -.-.-.) p p ..2.1.1.1.-.| ) Y ) ) ..{ 9 9 f , O o 4 FXPXZXZXrXrXfXrXNXD.O.' a.sX3.d d C.].].+X).G.G._.`.g.4.r.4...` :.G.+X).L.).P.C.4.f.B.f.f.h.Z.j.H.).H.).L.P.].M.^ C ! < , . ! cX6XyX3X3.r.:.1.X.2.2.1.-.` / ) ) | X.1.1.-...| | p p | 1.-.1.r.1.X.X.2.4.1.2.1._ ) ..2.2.1.=.>.>.:.:.r.2.1.X.e 0 D l $ & , v.6X<XyX3XY | 1.w.-.1.:.:.:.<.B.f.,.<.4.:.,.a.f.L.[.].OXP.@X].G.C.f.^.^.f.f.f.5.g.F.Z.H./.).J.P.H.h.f.j.Z.B.F.W.@.N ~ n ",
">X7XxX3X1.O.5.5.g.~.`.!.Z.Z.g.4.<.2.=.:.a i :.F.V.Z.Z.Z.Z.Z.5.:.B.>.:.<.B.B.Z.F.B.Z.B.>.:.<.B.B.>.4.&.&.f.Z.V.B.q.x c f * X h qXzXiX{.O.:.V.4.>.g.B.f.D.4.<.B.` Y <.B.=.d ` B.Z.f.C.G.H.H.H.H.H./.G.H.+Xh.( :.4.B.1...1.r.1.` / | i p ` 5.F.S.e.w B f X $ A FXcXbXpXD.D.S.B.Z.5.<.5.5.>.` ) K p :.f.B.f.Z.Z.Z.Z.Z.Z.Z.Z.Z.Z.F.F.Z.Z.Z.Z.Z.Z.^.^._.`.^.^.^.^.Z.Z.F.Z.f.>.5.~.r.z B = O o 7.8XzXZXrXK.L.a.4.Z.<.V.:.` 4.y.4.4.` ..4.4.=...<.2.>.5.4.B.A.A.B.<.>.:.| 1..._ ...._ | Y I Y Y Y } | J r I W G L = 8 % & & & ;XFX,XvXA.` ....1.1.a e X.1.2.4.<.<.<.<.<.4.=._ ` :.4.y.V.B.y.5.5.4.>.>.:.f.B.g.g.B.B.5.2.` $.:.4.4.4.4.5.f.<.B.S.U V g # & , :XGXuXiXL.h.C.L.G.G.).H.f.f.f.<.4.,./ _ 4.1.` $.:.1.1.X.| } o.} ) _ =.:.>.4.D.4.:.>.f.B.4.] <.f.Z.L.[.].G.C.C.a.r.w 9 * & @ A 8X8XtX4X+.X.1.<.<.<.<.>.:.2.<.4.:.:.2.2...) ) _ } | _ Y R T ) R R R T } | -.-.1.| p u _ 2.1.1.1.1.-.| ) ) | ..{ 0 9 h 3 O o 4 wXLXAXZXdXfXfXrXNXR.a.] a.hX:.( d a.].+X].].).C.^.^.f.<.4.1.` ' ] Z.+X).H.).L.a.4.B.Z.B.g.Z.H.H.^.).J.).P.L.).M.N Z ! , , @ ! cXlXyX3X3.r.:.1.X.1.1.1.-.` ) ) ) X.-.1.1.-.| ) ) p u | r.1.2.r.-.X.-.2.r.2.4.1._ ) ..2.w.1.=.>.2.:.:.y.2.1.X.x 0 k l o $ 1 v.6X<XxX3X) _ 1.4.:.4.>.:.:.<.V.B.:.:.<.:.<.f.Z.(.].L.@XP.+XOXH.p.<.L.).C.f.g.f.B.F.H.H.XX).J.P.H.h.h.j.Z.f.D.R.@.N ~ q ",
">XtXxXW.3.:.4.<.5.!.`.(.Z.g.f.f.4.:.>.=.K K -.B.B.Z.Z.Z.Z.B.4.>.B.B.:.4.B.5.F.S.f.B.B.<.:.>.f.Z.y.B.g.f.f.g.V.V.r.e c f # X l :XxXNX{.M.4.f.4.<.4.Z.f.4.<.:.B.4.>.<.5.a.:.` ,.C.Z.L.).H.H.H.J.H.j.H.H.).f.&.4.,.B.S.` =.4.:.1.) -.p i &.f.B.B.t.c B 8 *   A cXvXNX{.D.B.S.Z.B.5.B.:.5.2._ K u _ 4.B.S.Z.Z.Z.Z.Z.Z.Z.Z.Z.Z.^.Z.Z.Z.Z.Z.Z.F.^.^.^.^.(.(.(.(.F.Z.Z.Z.4.:.&.5.'.t.M j   3 > ! qX7XVX&X).f.,.<.f.g.<.5.4.4.4.2.1.1.1.r.t.:.` :.>.:.>.:.B.F.V.B.5.<.:.| -.1...| | | | Y K T | ) | | I r o.W L c 6 = ; O + o v.cX>XvXA.| | X.2.:.p a -.2.4.4.4.>.>.4.5.>.$.$.&.>.>.4.5.5.5.5.5.4.4.>.>.V.g.B.B.B.y.>.` ` =.:.>.>.>.4.5.6.f.V.S.L B f % & , qXmXnXjX].C.Z.Z.Z.Z.Z.Z.B.4.B.:.B.B.a 1.1.O.:.>.>.:.:.1.| K K | X...| ..:.1.B.a.*.:.D.B.>.&.f.B.f.C.]._.H.G.C.f.r.w 6 * & O v 8XlX6X4Xe.1.2.1.1.2.2.:.:.>.4.>.>.>.:.:.=.| Y _ _ ....) K P Y Y J P R } | -.w.1.....p Y r.X.1.w.1...) ) ) ..X.{ w j l ; : O 4 MXLXAXZXdXdXjXsXNXL.' a.,.'.*.4.' <.].].+X].C.G.^.^.Z.B.r.r.1.] ( Z.^.G._._.G.Z.f.4.f.f.f.Z.^.Z.h.H.G.).).).OXM.N C ~ $ + @ A 9X8XtX3XM.1.1.` 1.2.2.1.:.=......._ X.1.2.1...| ) J 7 | r.1.r.w.w.2.-.1.4.1.1.1...Y =.r.r.2.2.1.>.:.:.2.4.w.| x 6 g l $ $ < v.7X>XyX{./ _ >.5.>.4.,.&.>.r.y.y.2._ 2.:.] 4.C.Z.].$X].@XOXXX@X*.p.^.^.h.f.p.<.f.K.Z.z.J.).).).C.p.h.h.G.J.C.E.d.t { n ",
">XtXxXW.3.:.4.5.5.!.`.(.Z.V.B.g.f.*.>.:.Y J -.A.B.Z.Z.Z.Z.Z.5.<.B.f.:.4.B.5.F.S.B.V.B.<.:.>.B.Z.y.y.5.f.g.g.Z.Z.r.e c f # O l :XzXsX{.M.a.M.4.<.f.Z.4.4.<.<.B.4.<.a.f.4.&.&.a.Z.Z.^.).H.H.H.J.H.H.H.H.^.p.[ 4.<.B.Z.` :.r.1.1.) -.K K <.C.D.D.A.c V 8 *   A cXzXNX3XS.B.S.V.B.4.B.>.y.2...Y H X.4.f.Z.Z.Z.Z.Z.Z.Z.Z.Z.Z.Z.Z.Z.Z.Z.Z.Z.Z.Z.F.(.(.^.^.(.(.(.F.Z.Z.Z.f.<.:.5.Y.t.V k   <   9.cX8XnX#XP.p.,.a.C.V.5.5.4.2.2.1.:.-.1.2.r.-.) =.:.>.<.` 4.F.Z.4.>.:.:.| -.-.| ) | | ..| K I } | ..| J e X.Q L x = % ; $ & o v.FX<XvXT.X.X.1.w.X.p a -.2.<.4.<.>.>.4.5.>.:.$.:.>.>.4.5.5.5.5.5.4.4.4.<.B.g.g.B.B.5.:.` _ =.:.>.>.>.5.f.k.g.V.S.U B f % & , qXcXnXNX].C.Z.Z.F.F.(.(.F.Z.B.>.A.4./ 1.1.:.:.:.>.>.1.1.| Y J Y | | ) ) | :.D.C.:.] 5.B.4.<.a.g.g.G.[.XXH.z.Z.B.N.w 9 * & X v 8XlX,X3Xe.1.2.1.2.2.2.:.:.>.4.>.>.2.>.1.1...R ) ) _ _ ) Y Y _ T R R ) } } X.w.1.X...H I w.-.1.r.1.| ) ) | X.1.{ 0 j l ; : O 4 MXLXAXAXdXdXjXiXaXC.d 4.,.L.<.B.' 4.].].[.].C.G././.H.f.r.r.1.O.( Z.^.H._./.Z.C.f.4.f.f.f.Z.^.Z.G.H.J.).P.).OXN.^ C ! , + @ ! 9X8XtX3XM.1.1.` :.4.4.2.1.=.` ..` ) ..1.1.-...) ) I y } q.X.q.1.2.1.X.1.4.1.2.2.` / :.y.y.2.2.-.1.=.:.>.4.w...M 6 k v & $ < v.7X>XiX{./ _ :.<.:.,.4.:.>.4.y.B.4._ 4.:.:.4.D.K.).OX].OXOXXX$X*.f.^.^.h.f.p.p.h.K.G.z.J.P.).).C.p.h.G.J.P.G.R.3.t { n ",
">XtXxX3Xr.:.4.5.5.!.`.(.!.Z.Z.Z.g.*.>.2.) J ..S.B.Z.Z.Z.F.Z.B.4.f.f.:.4.B.B.F.V.Z.Z.B.<.>.<.B.V.B.y.5.5.g.g.V.B.r.e c f # o l 1XuXsX{.M.M.B.a.<.Z.Z.<.<.4.4.B.4.,.B.f.:.( :.f.Z.Z.^.^.H.H.H.J.H.^.^.Z.Z.<.[ f.f.f.B.:.:.r.2.:.) ) K / 4.B.B.B.N.V V 8 *   A FXcXbX3XS.A.S.V.5.4.5.>.y.2.| Y K 1.5.g.Z.Z.Z.Z.Z.Z.Z.Z.Z.Z.Z.Z.Z.Z.~.Z.Z.Z.Z.F.(.`.^.(.(.(.^.F.Z.Z.Z.f.<.>.4.S.t.V B   &   9.HX7XuX#XL.f.p.f.C.B.5.5.2.:.:.:.X.X.-.1.2...) ..>.>.4.` <.Z.F.4.&.` 1...-.-.| ) | ......K J ) | ..) H H X.W x c 6 * 3 & & , ;XFX,XxXA.X.X.1.w.| a K :.2.<.4.>.>.>.<.4.>.>.:.:.:.:.4.B.B.5.5.4.4.4.4.4.B.B.B.V.V.5.:.` _ =.>.>.>.>.f.j.g.g.S.S.U c f & & , qXmXgXjX{.C.g.B.B.B.F.(.L.Z.4.<.B.:...:.>.<.:.:.>.>.2.1.X.) I ) | | ) ) | :.B.D.4.&.4.V.B.4.4.g.C.G.+XXXH.z.^.S.A.m 9 * $ @ v 8X8X,X3X1.1.2.1.2.2.2.:.:.>.4.>.4.4.4.2.2.-.) _ _ _ ....| ..;.| T ) } ) T | w.q.-.X.J J -.-.1.w.1...| | ..1.1.^ q f l ; : O 4 HXLXBXZXdXdXjXiXrXD.' a.4.F.f.F.` f.].].[.].h.G././.H.f.4.4.1.O.] Z./.^././.Z.f.f.4.f.f.f.Z.^.Z.H.).J.P.P.P.OXN.^ C ! , 1 @ ! 0X,XtX3Xr.1.<.` 1.4.2.1.:.=.......) | -.1.1.X...| T r Y -...-.1.1.X.| :.4.2.2.<.:.` <.B.y.w.2.2.1.:.:.2.4.r.X.L 0 k l $ o < v.:X>XyX3X/ _ :.<.:.,.a.:.>.4.y.B.4.` 4.:.&.a.F.K.).OXOXOXOX).+X*.h.).^.g.f.f.p.h.K.G.z.J.).).).C.p.h.P.XX).G.L.@.t { n ",
"6XtXxX3XM.>.4.f.g.!.(.(.!.Z.Z.C.g.&.:.4.) p | S.B.Z.Z.Z.F.Z.B.f.f.f.>.B.B.B.S.B.S.Z.B.<.>.<.B.B.S.y.5.f.g.g.g.B.r.e c f # O l 1XzXsX{.M.M.B.4.<.Z.C.&.*.4.f.B.,.:.B.4._ / :.C.Z.Z.^.^.H.H.H.H.H.).^.Z.Z.,.[ f.f.4.B.<.:.r.r.=._ J K ` 4.f.f.B.r.V V 8 *   S FXmXbX3XD.D.S.B.5.2.>.>.5.2._ K Y 1.f.g.Z.Z.Z.Z.Z.Z.Z.Z.Z.Z.Z.Z.Z.Z.~.Z.Z.Z.F.~.(.(.^.(.(.(.^.F.Z.Z.Z.f.<.>.2.A.q.V k   &   9.GX7X.X#XL.h.p.f.g.f.4.y.2.:.1.-.| | -.1.2.-.` :.<.>.4.` >.B.F.B.&.` 2.-.-.-.| ) | ......K K Y ) | ) p J X.E c c 6 * f $ & , ;XFX,XvXA...| 1.2.) K ) 1.2.<.2.>.<.<.4.4.>.>.>.:.:.:.>.B.B.5.5.4.4.4.5.5.B.g.B.V.B.4.=._ ` :.2.4.>.<.g.Z.j.j.Z.S.H c g & & , qXmXgXjX{.C.f.B.f.4.B.F.Z.B.4.4.4./ 1.` :.B.:.*.:.:.1.1.1.| | | | ..| | ..:.<.D.f.,.5.S.B.>.4.g.C.H.+XXXH.z.^.F.D.M 9 * & @ v 8X8X>X3X1.1.1.1.2.2.1.:.:.>.4.4.4.4.4.r.2.-._ .._ _ -.-.-...| | _ _ | T I } w.1.-.X.I J | 1.1.1.1.-...| ..1.2.I 0 f l ; : O 4 HXLXBXAXdXdXjXiXsXL.' a.4.B.B.(.&.f.[.].[.].C.J././.Z.f.4.4.1.:.>.Z././././.Z.f.f.4.f.f.p.h.H.Z.H.J.J.).P.).OXN.^ ~ ! , , @ ! 9X,XtX3Xr.1.<...1.1.:.:.:.:.:.-...) | -.2.2.1.1.-.} u I X...X.-.-.| ) -.4.2.4.<.:.$.<.B.y.w.2.2.1.2.2.4.r.r.X.L 0 g l o @ 1 v.:X>XtX3X) _ :.4.>.4.f.,.<.y.y.y.y.:.2.` _ 4.Z.K.L.).OXOXXX).).*.Z.).H.f.f.f.a.C.K.G.J.XX).).).D.p.C.).OX).G.L.@.t { n ",
"6XtXxXeXN.3.4.f.Z.~.(.!.Z.Z.C.g.g.&.:.2.Y u | S.B.Z.Z.Z.Z.Z.B.B.B.B.>.B.B.B.S.B.S.Z.B.>.:.<.B.B.S.5.<.f.g.g.g.B.r.x c g # O l :XvXNX{.M.M.M.<.:.Z.B.` &.4.5.B.>.:.B.4.' / <.Z.H.Z.^.).H.J.H.H.H.H.H.H.H.<.] f.f.4.B.4.:.r.y.-._ p ) <.C.g.C.S.M.M B 8 *   S GXmXbX3XD.B.B.B.5.4.>.4.2.2._ K | 2.B.B.B.Z.Z.Z.Z.Z.Z.Z.Z.Z.Z.Z.Z.Z.Z.Z.^.^.(.(.^.^.^.^.(.(.^.F.Z.Z.C.a.<.>.>.t.1.V k   ,   9.HX7X7X#XJ.f.a.f.g.5.4.B.2.:.1.-._ | -.1.r.1.=.2.<.>.>.$.:.5.Z.B.:.:.:.-.1.-.| | ......| Y ) | ) ) ) J J q.E x c = * f O + & ;XFX,XyXA.X.| 1.1.K p _ 1.4.<.2.>.<.<.4.4.>.:.:.:.:.:.>.B.B.5.5.4.4.5.5.g.5.5.g.B.5.2.=._ =.2.4.4.4.4.g.Z.j.j.Z.S.H c g & & , qXmXnXjXE.h.Z.F.Z.f.B.S.D.4.<.4.:.s >._ >.B.4.:.:.` :.:.1.-.| ) ) | ) ) ) | <.D.f.,.4.Z.B.<.4.g.Z.H.+XXXH.H.^.Z.A.t 9 * & X v qX8X>X3X1.1.1.1.1.1.:.:.:.>.>.>.4.4.4.4.2.-._ _ ) _ -.-.| Y K | T T | } K W w.1.1.-.} H Y q.1...1.2.1._ ) -.r.{ 9 9 l ; : + 4 HXLXBXZXdXdXjXiXaXK.' a.<.,.f.L.,.Z.$X].+X].C.L././.H.B.r.r.r.3.4.C.^./././.H.a.f.4.a.f.<.h.^.G.h.H.J.).).OX@XN.^ ~ ! , , @ S 9X<XtX3X4.1.4.O.3.1.:.:.:.:.:.-.....X.1.2.2.1.-...} J J X.1.X.-.-.| _ -.2.2.4.4.:.` >.y.y.w.2.2.1.4.4.5.B.t.X.L 6 g l o o , b.7X6XiXyX| ` 2.B.4.a.4.<.f.B.4.5.B.y.4.` _ <.Z.L.L.P.OX).XX).^.*.^.).Z.f.a.f.a.C.K.G.).XXXX).).D.f.G.).XXP.G.L.@.t { n ",
"tXtXxXeXA.<.4.g.Z.~.(.!.Z.Z.C.f.f.*.:.:.J e | S.S.Z.Z.Z.Z.Z.B.B.B.B.>.B.B.B.F.V.S.S.B.>.:.<.B.B.B.4.<.f.j.g.Z.F.r.x c f # O l :XvXNX{.N.M.a.<.&.B.f.` :.<.4.B.>.:.B.f.] ` 4.H.L.Z.^.).H.H.H.H.H.H.H.H.^.a.*.f.a.f.B.B.:.4.B.=._ p ) B.F.h.H.F.M.c B 6 *   S GXmXbX{.D.B.B.B.5.5.>.5.2.2...Y -.2.B.B.B.B.Z.Z.Z.Z.Z.Z.Z.Z.Z.H.H.H.Z.~.^.`.`.(.^.F.^.^.(.(.^.F.Z.Z.B.<.<.>.2.t.X.M k # <   9.JXzXuXE.C.p.p.f.B.B.5.B.2.:.2.1._ ) X.2.t.2.:.4.<.>.>.` :.4.B.4.:.:.:.-.1.X...| ......| | ....) ) | ) J q.W x c = * l O O + ;XFX,XyXA.+.X.2.1.p p | -.4.<.2.>.4.4.5.4.>.:.:.>.>.>.4.5.B.5.5.5.5.5.5.f.g.g.B.B.B.4.:.=.2.2.4.4.4.5.g.Z.j.j.Z.S.H c g & & , 0XHXnXjXE.a.Z.L.F.B.B.Z.B.>.<.4./ s :.` <.B.B.<.&.&.:.:.:.1...) ) _ | ) ) _ B.D.a.&.4.V.B.B.4.h.Z.H._.XXJ.J.H.D.N.w 9 * & X v qX8X,X3Xe.1.1.1.1.1.:.:.>.>.>.>.2.2.2.2.4.2..._ _ | -.-.| Y K ) Y Y ..} P R -.1.1.1.X.p J w.1...1.r.1.| _ -.e. .0 9 l ; : + 4 HXLXBXZXdXdXjXiXrXK.' a.f.*.D.(.<.Z.+X[.[.].C.L././.^.Z.B.B.M.r.4.f.^._././.^.f.f.4.f.f.p.Z./.H.h.H.J.XXOXOX@XN.^ ~ ! , 1 @ S 9X2X4X3X4.>.4.:.3.4.2.:.:.:.:...) 1.:.1.1.-...) ) | I H ..w.-.1.1.X.| :.2.1.4.4.>.' :.4.y.r.w.2.-.4.4.5.B.r.X.L 6 k l $ o < v.8XzXNXiX..` 2.B.4.<.<.<.5.B.4.5.A.B.B.:.` 4.F.L.L.I.OXP.OX).H.*.).).Z.p.a.f.a.C.L.G.).XX).P.L.C.f.G.).).J.s.P.d.t { n ",
"tXtXiXpXD.<.4.g.!.~.(.^.!.Z.Z.C.f.*.>...p e ..S.S.Z.Z.Z.Z.Z.B.B.B.B.>.f.B.B.F.Z.S.S.B.<.:.>.B.S.V.5.5.g.g.f.g.F.t.M V g = $ l :XlXbX{.M.M.a.,.:.f.f.:.>.<.<.B.<.>.f.B.<.:.a.Z.Z.Z.^.).L.H.H.H.H.H.H.^.).f.*.f.f.B.B.S.:.1.B..._ p ..B.Z.h.H.L.r.z c 6 * - S GXmXbX{.S.B.B.f.5.5.4.V.2.1...Y -.2.B.B.B.B.Z.Z.Z.Z.Z.Z.Z.^.^.^.^.^.~.^.^.`.`.(.(.^.^.^.(.(.(.F.Z.Z.B.<.:.>.4.y.X.M j   <   0.LXzXuXE.s.,.<.f.f.f.5.B.2.:.2.1.) ) ..w.t.2...1.<.>.<.' :.f.5.<.:.:.:.X.X.X.| | ....| | | ..X.) ) ..) p 2.| U c - = l O + & ;XFX,XyXA.X.| 2.:.i p 1.1.r.4.4.4.5.5.5.5.>.:.:.>.4.4.4.5.B.B.B.5.5.5.5.5.B.V.V.V.B.5.4.2.2.2.2.4.5.B.V.Z.g.j.S.S.U c g & & 2 0XHXmXjXL.a.f.S.D.a.a.D.B.:.<.<.a ' :.>.4.f.Z.f.<.<.2.:.:.1.1.| ) | ..) ) ` D.C.<.*.f.Z.B.Z.a.C.Z.H._.XXJ.).H.Z.A.t 9 * & X v 8XlXtX4Xe.1.1.1.1.1.:.>.>.>.>.>.2.2.2.2.r.2.=...| ..-.1.;.| _ ) K Y -.-.R K | -.1.1.1.p p w.-.-.2.2.2.-...-.2.o.0 6 l ; : + 5 HXLXBXZXdXdXjXiXrXK.' a.D.*.Z.(.<.Z.+X].].].C.H././.).Z.B.M.r.4.a.<.H./.^./.).h.f.4.f.f.f.H._.).J./.P.OXOXOX$XN.^ ~ ! , + @ S 9X<X4X3X3.>.r.:.3.4.2.:.:.:.:.` ) 1.1.:.:.-...) Y | ) u } w.X.2.2.1.X.:.2.1.4.4.>.' :.r.y.y.r.2.-.1.>.4.r.r.X.V 6 l v & o < v.8XuXNXyX` _ 2.B.<.:.<.:.>.4.5.B.V.5.B.:._ <.F.).).P.OXP.OXXXG.*.).^.j.p.p.f.a.C.L.G.).XX).P.L.D.h.L._.P.G.s.E.M.t { n ",
"tXtXiXyXD.4.4.g.!.~.(.^.~.^.L.Z.f.<.>.` u u ..S.S.Z.Z.Z.Z.Z.B.5.B.B.>.f.B.f.F.S.S.F.S.4.:.>.B.F.F.B.g.g.g.6.6.B.t.M V g = $ l 1XtXiX{.M.M.M.<.:.4.g.>.<.<.<.B.<.:.4.f.4.<.4.h.Z.Z.^.).L.H.H.H.H.H.).^.).f.*.B.f.B.D.S.:.1.A.` ` p ..F.Z.j.^.'.r.w c 6 * - S FXmXbX{.S.B.B.5.5.B.4.B.=.:.| Y -.1.B.B.f.B.Z.Z.Z.Z.Z.Z.Z.^.^.^.`.`.^.^.(.^.(.(.(.(.^.(.(.(.(.F.Z.Z.B.<.:.<.5.A.X.c g   & . 0.IXzX7X{.C.<.<.f.a.5.4.y.>.:.2.1.) ) | w.r.1.` :.<.<.4./ <.V.f.>.:.<.4.......| | ..| ) | ) | ..) ) | ) p 2.X.P z - = l O + , ;XGX,XyXA. .) 2.X.p K r.r.y.4.4.4.5.f.5.5.>.:.:.4.5.5.5.5.B.B.B.y.5.5.5.5.5.f.g.f.5.2.2.:.2.2.>.<.5.V.Z.Z.g.g.S.S.U c f & & 2 DXJXmXjXL.<.a.Z.D.a.B.S.B.:.<.,.a :.:.4.B.4.Z.f.<.4.4.1.:.1.2.| ) | ..) ) ` C.f.<.4.S.F.B.B.f.Z.Z.G._.).J.XX^.S.A.m 9 * & @ v 8XlXtXtXe.1.1.2.1.:.:.>.>.>.>.>.>.2.2.2.y.r.1._ _ _ ;.-.;.;.=.} K R -.-.Y P T X.1.1.w.p i w.-.2.2.2.2.1.1.:.1.+.0 6 l ; : O v HXLXBXZXdXdXjXsXpXC.d ,.C.( Z.Z.<.Z.+X)._.).h.J././.(.D.M.r.4.1.a.<.Z./.^./.[.C.f.f.B.g.g.^.+X+XXX+X).OXOXOX$XC.^ C ! , + . A 9X<X4X3X3.>.B.1.3.4.1.:.:.1.:...) 1.:.-.1.1.-.| ) | ) r Y 1...w.r.2.:.1.2.1.2.4.1._ :.y.u.y.y.2.=.=.=.:.4.r.X.V 0 l l o X , v.qX7XxXeX/ / >.Z.4.:.<.` $.<.5.V.V.2.4._ / :.Z.].].OXOXP.OXOXG.*.).^.h.p.p.f.a.C.L.G.XXXXXXP.).G.Z.).XXP.G.s.{.N.t ~ n ",
"tXtXxXeXA.4.f.g.Z.~.(.(.(.^.L.Z.f.<.4.:.p e | S.F.Z.Z.Z.^.F.B.4.B.B.>.B.F.B.F.F.V.S.F.B.:.<.B.V.F.B.5.f.6.<.<.B.r.H V g = $ 4 ;XtXyXeXM.M.3.a.:.<.V.4.>.:.>.B.>.<.4.<.&.] <.g.Z.h.G.G.G.H.^.H.G.H.H.Z.p.,.<.B.Z.D.a.S.:./ 4.2.) a :.f.H.^.Z.L.r.w c 8 * - S HXmXbXpXA.B.B.4.S.V.>.>.>.1.Y Y w.1.f.g.B.B.f.g.Z.Z.^.!.Z.Z.^.`.^.^.^.^.F.F.^.F.Z.Z.Z.Z.^.'.`.Z.Z.Z.B.<.<.B.B.r.X.L g = &   v.HXzXuX#Xa.a.<.4.B.4.2.B.4.1.r.) J | K -.r.2.=.:.:.>.4.:.:.B.F.>.:.1..._ w.q.| Y K I ..Y | | ) ) | ) J a 1.1.I 6 - 8 ; : 2 $ :XcXlXyXA.) 1.2.) y ..-.2.r.4.4.4.4.4.<.<.>.>.4.5.B.B.B.B.5.5.5.5.5.5.5.f.B.g.B.f.y.4.:.` 1.2.4.5.B.V.Z.Z.j.!.F.A.H V g % & 2 0XHXnXfXE.D.f.F.F.a.4.D.B.,.f./ / ,.f.f.B.B.B.B.B.B.f.4.1.-.1.1.| ) ) | ` / B.C.a.f.F.Z.f.B.4.g.Z.L.).XX/.H.^.(.N.M j * & O v 1X<X,XyXr.1.1.1.=.=.` =.:.>.>.4.4.4.4.r.2.1.-.2...) _ -.-...R _ Y J Y | -.) J | 1.1.| ) | 1.1.r.r.r.B.y.2.1.1.o.w g l ; : + 4 HXLXgXZX&XdXjXpX#XL.,.,.<.<.Z.Z.f.<.^.+X+X).p.h.l.H.[.C.4.B.1.1.,.a.Z./._./.^.Z.B.f.f.a.p.H.+X_./.+X).OX].).OXN.^ ~ ! , + . A :X2X>X3X3.` <.4.4.4.2.1.:.:.:.1.:.1.1.1.1.1.-.| ) T J e H ..1.2.u.X.X.=.1.<.4.<.>._ _ =.2.y.w.2.=.:.:.:.1.w.X.P 6 k l < @ 1 v.7XuXNX{.` ` y.4.4.:.<.a.4.<.5.5.5.V.B.&._ 4.L.L.L.).XXP.).@XH.p.H.).f.f.f.p.a.C.K.P.@XXXJ.OX].C.p.)._.H.G.G.E.M.N { n ",
"yXuXxXeXN.<.f.g.Z.~.(.^.Z.Z.g.f.f.<.4.:.p r ) A.S.Z.Z.Z.^.F.B.4.B.B.>.B.F.V.F.F.V.S.F.B.:.<.Z.S.F.B.5.g.g.6.6.B.r.M V g = $ 4 ;X6XyXeXM.M.3.B.:.<.V.4.>.>.2.B.>.>.4.4.&.` :.f.C.C.G.G.H.H.^.H.G.L.^.Z.<.*.*.<.<.B.a.S.>.` r.2.) a >.f.Z.H.Z.F.e.w c 6 * - S FXmXbXpXA.B.B.4.V.5.5.5.2.2.Y K w.1.B.g.B.B.g.B.Z.Z.Z.Z.Z.Z.^.^.^.H.^.F.F.~.^.^.Z.Z.F.Z.^.`.(.Z.Z.F.f.<.4.V.V.t.X.V g # &   v.JXMXnX$XC.f.a.<.f.4.2.B.1...2.| K ) e 1.r.2...:.:.>.4.:.&.f.B.` ` >.` | 1.-.) ) ) ) ..| | | ) | | | ) / 4.2.} 0 = 8 ; : ; o :XcXtXyXN.) 1.r.| y ..1.4.r.4.4.4.4.<.<.>.4.4.4.5.5.B.B.5.5.5.5.5.5.5.5.f.5.f.f.5.4.>.=.` 2.4.y.B.B.V.Z.Z.j.!.F.A.H c g % O + 9XHXnXfXL.a.4.B.D.a.4.a.4.,.a.' ' 4.B.B.B.f.g.B.B.B.f.<.:.-.1.1...) ) _ _ / B.C.f.f.S.V.f.B.f.C.Z.L._.XX).J.H.F.r.w j = & O h 1X<X,XtXr.1.1.1.1.=.=.` $.:.>.4.>.2.4.r.2.2.-.2...) _ -.1.;.) } Y K Y | -.| T Y X.1.-._ _ X.1.t.r.r.y.r.2.1.1.o.w g l ; : + 4 HXLXgXZXdXdXjXpX$XL.,.,.a.<.Z.Z.f.p.^.+X+X).s.h.H.^.[.C.r.A.1.:.4.a.j.^._./.^.H.g.5.f.a.p.H.+X[./.+X).OX].).OXN.^ ~ ! , + . A :X2X<X3X3.` <.3.4.4.2.:.:.:.:.1.1.1.1.1.1.1.-.| ) T J r p ..1.1.r.1.X.-.:.4.4.<.2.` ' _ -.w.w.2.=.:.:.:.>.q.X.U 6 k l , @ 1 v.7XzXCX{.` ` y.4.4.:.:.4.4.4.5.5.4.B.V.:.&.f.L.L.P.OXOXXX).@XH.p.H.).f.f.p.p.p.C.L.P.@XXXJ.OX+XC.f.)._.H.h.G.E.N.N { n ",
"zXuXxX3XM.3.5.g.S.~.(.!.Z.Z.f.<.<.<.4.:.p r ) A.S.B.Z.Z.^.F.B.4.B.Z.>.f.F.Z.F.F.S.Z.F.B.:.<.B.S.Y.B.g.g.g.f.g.F.t.M V g # $ l ;X,XeXeXM.M.4.B.] <.B.4.>.>.<.B.1.:.a.f.:.` :.f.C.C.H.H.H.H.^.J.G.).^.Z.<.*.*.*.*.B.4.S.4.1.B.1.) K <.f.j.j.Z.L.r.w c * %   S FXmXbXpXA.B.B.4.B.5.B.5.y.4.R Y r.2.B.B.g.B.Z.Z.Z.Z.Z.Z.Z.Z.^.^.^.H.Z.Z.^.~.F.L.Z.Z.F.F.^.`.(.Z.Z.L.f.<.f.Z.S.t.X.M f # &   v.JXMXnX#Xs.C.a.<.f.4.4.=.2.r.r.) u I K 1.r.2...:.:.>.4.<.:.f.B.` ` 1.=...1...Y | | | -.-.| ) | | | | | / 4.3. .r - 8 ; O : O ;XcX4X4Xt.| X.t.X.y ..r.4.4.4.4.4.<.<.>.>.4.4.4.4.5.5.5.5.5.5.5.5.5.5.5.f.f.g.B.B.4.>.:.:.4.y.B.V.V.V.Z.Z.g.j.F.A.H c f % X + qXHXmXfXK.p.B.B.S.B.4.4.4.4.<._ ` f.B.B.B.f.g.B.Z.B.B.4.1.-.-.-..._ ) _ ) / B.D.f.a.Z.B.5.f.f.C.Z.L._.XXXXJ.Z.F.e.w 0 # & O h :X<X>X4Xe.-.1.-.2.1.=.` ` :.>.>.>.>.2.2.2.2.2.2.-._ _ -.2.-.| _ R Y R ) | | | K ) 1.w.-.) ` 1.r.4.4.r.4.2.2.r.o.w g l ; : + 4 MXZXgXZXdXdXjXpX$XL.,.a.f.a.Z.h.f.p.^.+X[.).s.h././.[.D.M.A.1.:.a.a.f.j.)./.^.H.B.4.a.a.p.H.[.[.).+X).OX].).OXN.^ C ! , + . A 1XU.W.W.3...<.1.3.4.2.:.:.:.:.1.:.1.1.1.1.1.1.X...) J r u | 1.1.w.1.1.X.:.2.4.<.<.` / Y _ -.2.2.1.:.:.:.:.2.X.L 6 g f & @ 1 v.qXzXCX{.` ` y.4.4.:.` <.4.4.B.5.4.V.V.<.<.C.(.L.).OXOXXX).@XG.p.H.).f.f.p.p.a.C.K.P.oXXXJ.OX+XZ.h.).+XG.h.G.{.N.N { n ",
"zXuXxX3XM.3.4.5.Z.~.(.(.~.F.Z.C.<.*.4.:.a e | S.S.Z.Z.Z.^.(.B.4.B.S.<.5.F.V.F.S.S.Z.F.B.>.<.Z.F.F.V.B.g.g.g.Z.F.t.M V g # $ l ;X>XeXeXM.M.3.4.' :.B.4.>.>.<.B.1.:.B.D.<.` :.f.Z.Z.H.H.H.H.^.J.H.H.H.H.f.*.*.,.<.B.a.A.4.2.y.=.K / 4.g.j.j.H.'.M.w c 6 * - S FXmXbX3XB.B.B.4.5.4.5.5.5.5._ ) A.A.Z.B.g.B.Z.Z.Z.Z.Z.Z.Z.^.^.`.^.^.Z.Z.F.Z.Z.Z.Z.Z.Z.Z.^.(.^.F.Z.F.a.<.f.Z.V.t.X.z g # & . v.HXzXuXK.d.C.a.4.f.2.4._ r.y.r.Y e I ) 1.r.2...:.:.:.4.4.>.B.B.:.&.<.=...-.| Y ) | | -.-.| ) ....| | 1._ a.r. .x - * ; O : X ;XlX,X4Xr.X...u...y | B.4.4.4.4.4.<.<.>.>.>.>.>.4.5.5.5.5.B.5.5.5.5.5.5.g.g.g.V.B.4.:.:.2.4.y.V.V.F.Z.Z.Z.g.j.F.A.F z f % O 1 0XHXVXNXL.p.D.B.A.A.4.>.<.B.] ' :.B.B.B.C.f.g.g.Z.Z.B.4.1.:.-.-.X...` _ / / B.D.f.a.V.B.5.5.4.g.Z.H._.XXXX/.^.F.r.w 0 # & O h :X2X>X4Xe.:.1.1.1.1.=.` ` :.>.>.>.2.2.2.2.w.w.2.1.;...-.1.1.-.| } T Y Y T } ;.Y Y ..w.1.) ) X.2.2.2.4.4.4.r.M.o.w g l ; : + 4 MXZXgXZXdXdXjXpXOXL.,.a.C.f.Z.Z.g.f.).+X_.P.s.l./.^.).D.B.A.:.O.a.<.p.h.H./.).^.C.4.f.f.p.Z._._.).oX).OX].].@XN.^ C ! , 1 @ A 1X2XW.W.1...<.1.3.4.2.:.=.:.:.1.1.2.1.1.1.1.1.1.-.| I e u | 1.1.2.1.1...-.>.<.<.<.` Y a Y ;.2.2.1.:.:.=.:.1.X.L 6 f 3 & @ 1 v.8XmXCXW.` ` B.4.4.<.` <.4.4.B.5.5.V.V.4.f.Z.^.L.).OXOXXX).OXG.p.H.^.g.f.p.p.f.C.K.P.XX/.J.OX+XG.h.).+Xz.s.G.{.N.N { n ",
"tXuXxXeXA.<.4.4.V.!.(.(.(.^.F.Z.p.<.f.4.K u | A.F.F.Z.Z.F.F.B.<.B.S.<.4.S.Z.F.S.S.B.S.B.>.<.V.F.S.V.V.g.g.g.g.Z.t.M V g # $ l ;X>XeXeXe.r.3.>.s $.f.<.2.1.2.B.:.:.B.S.<.` :.f.Z.Z.H.H.H.H.^.H.G.Z.^.^.f.*.*.<.f.B.f.B.>.2.4./ a / a.g.j.l.^.].M.w c 8 * X S GXmXbX{.M.B.B.4.B.5.5.5.5.5._ _ Y.Y.S.B.f.g.Z.Z.Z.Z.^.Z.^.^.`.`.^.^.Z.Z.^.Z.Z.g.f.f.f.Z.^.`.(.^.Z.Z.f.4.B.Z.B.r.X.c 9 # & . v.HXzXuXN.O.a.h.a.f.:.:.1.2.| _ ) K I H 1.r.2.=.:.:.:.<.<.:.f.B.:.&.>.` | -.| I Y ) | X...| | ....| | X.` a.B.e.L = % ; O : + :XcX4X4Xt.X.| t.) e | y.4.4.4.4.4.<.>.>.>.>.>.>.4.5.B.B.B.B.B.5.5.5.5.B.g.5.5.B.f.>.$.=.2.4.y.B.V.F.Z.Z.Z.g.!.~.A.x z f % & , 0XHXmXjXE.C.B.M.B.B.<.` :.4.' ' >.B.B.B.Z.f.g.g.Z.Z.B.4.2.:.:.:.:.-..._ ) / D.F.B.a.B.Z.f.f.4.g.Z.H.).XXXXJ.`.'.N.m g = $ X v 1X<X>XeXe.1.1.2.-.=.` =.=.:.>.4.4.4.4.2.2.2.2.1.2.2.-.....-.2.1.-.| | T I } -...) ) 1.2.| / _ 2.4.4.4.2.4.r.t.o.w j l ; : + 4 MXAXgXZXdXfXjXeXP.G.,.s.h.a.Z.H.Z.h.)._._.H.s.G./.^.).Z.B.B.O...a.<.,.k.H./.).^.F.B.f.f.p.h.^.).).XX).OX].].@XC.^ C ! , 1 @ A 1X<XT.T.O.` 3.1.4.4.1.:.:.:.:.1.1.1.1.1.1.1.1.1.1...) u u | q.2.2.2.1.....:.2.<.<.` Y a K | -.2.1.:.:.:.:.1.X.L 6 f 3 & @ 1 ;X8XmXmXW.) =.V.4.4.<.&.<.4.4.g.f.B.F.V.f.f.Z.^.L.).XX).XX).OXh.,.H.^.j.p.<.f.C.D.L.).XXXX)._.].G.C.).+Xz.s.G.#XN.t { m ",
"tXyXxXyXD.4.4.4.Z.!.(.^.~.~.Z.B.g.f.B.4.K u | A.F.^.^.Z.Z.(.B.>.f.S.<.4.S.Z.F.V.S.B.Z.B.>.>.B.~.S.V.V.g.g.f.g.B.t.M V f # $ l :X>XeXeX3.3.1.:.a ` 4.4.4.4.4.M.O.` B.B.:.' :.f.Z.Z.H.L.H.H.H.H.G.G.^.^.f.*.] <.f.D.a.4.:.4.1.a a / 4.f.h.l.^.(.3.w B 8 ; X S GXmXbX{.r.B.S.4.B.5.5.5.y.4.) ) A.S.B.B.B.B.C.Z.Z.Z.Z.Z.Z.Z.^.^.^.Z.Z.F.^.Z.Z.f.4.4.4.Z.^.(.(.^.Z.g.a.f.B.V.y.r.X.z 9 X &   v.JXMXiXN.O.a.B.a.a.=._ -.2.) K K p J K -.r.r.:.:.:.:.<.<.:.B.Z.>.:.>._ | -.| Y Y ) ) ..| | ..X...| | ` ` a.B.r.P - # % : : O :XcXtXeXM.X.X.r.p a X.r.4.4.4.4.4.<.>.>.>.>.>.>.4.5.y.B.B.B.B.5.5.5.5.B.g.g.f.g.g.2.$.:.4.4.y.B.V.V.Z.Z.Z.g.!.~.S.x z f % & , 0XHXnXiXE.D.B.B.r.r.>.` :.4./ ( 4.B.a.B.Z.f.g.g.B.B.f.4.2.:.1.1.:.:..._ ) ) D.K.C.a.B.F.B.B.4.g.Z.G.).XXXXJ.`.'.N.M j * & X v 1X<X>XeXe.1.1.2.-...` =.:.:.>.>.>.4.4.2.2.2.2.1.2.r.1..._ ..1.2.-...| R J K | 1.) ) X.1...) ) 2.r.B.r.2.2.2.2.o.w j l ; : + 4 MXAXgXAXdXdXiX#XG.C.p.s.f.<.Z.^.H.Z._.+X).G.s.G./.^.].Z.B.r...O.4.<.<.k.H./.).`.(.B.f.f.p.f.H.H.).XX).OX].].$XC.^ C ! , , @ A 1X<XW.D.O.` 1.1.4.2.1.:.:.1.1.1.1.2.1.1.1.1.1.1.1.X.| J H | q.2.w.2.1...-.:.2.<.>.:./ s Y _ ;.1.1.:.:.:.:.2.X.L 6 f 3 & @ 1 v.8XnXmXW.) :.S.5.4.<.:.<.4.4.B.B.B.F.V.f.f.C.H.L.).).).XX).XXh.p.^.^.Z.f.p.f.C.Z.K.).XXXXJ.).].G.C.)._.h.h.I.#XM.t { m ",
"tXuXxXyXD.4.f.g.Z.!.(.^.!.Z.Z.g.g.f.B.y.Y p | A.S.^.^.Z.Z.(.V.>.4.S.<.4.Z.S.F.V.S.B.B.B.>.>.B.~.S.S.V.g.g.f.f.5.t.M V f # $ l :X<XeX3X3.3.1.:.a _ 4.r.y.r.r.B.O.` B.B.] ( ,.B.Z.Z.L.^.H.H.).H.G.H.H.Z.p.*.*.<.4.B.4.>.$.r.1.p p / f.h.j.l.^.L.O.w c 8 * - S GXmXCX}.r.B.S.4.B.y.B.5.y.2.Y Y A.S.B.B.B.B.g.g.B.Z.Z.Z.Z.Z.^.^.Z.Z.Z.^.(.^.Z.f.f.f.5.Z.^.^.(.(.F.Z.4.f.Z.F.B.r. .w 9   $   v.JXMXxXN.] 4.a.a.a.=._ ) y...K p r H ) -.r.r.:.1.:.:.:.4.>.B.Z.<.>.>._ | ..} I | | | | | X.-...| ....` ] a.4.r.L - # : : : + :XcXtXeXM.X.1.2.e ) 1.2.4.r.4.5.4.4.<.<.>.5.4.4.4.5.5.B.5.B.B.B.5.5.y.y.B.V.g.g.B.4.:.:.y.y.y.V.V.V.V.V.Z.g.!.~.S.x z f $ O , DXHXzXrXL.F.A.A.r.4.>.:.:.,.( :.f.B.4.f.C.f.g.g.g.f.4.<.2.1.1.1.:.:.` / / _ C.K.C.a.V.F.Z.B.f.C.Z.H.).XX).J.H.L.M.M j * & @ v 1X<X>X4Xe.X.-.2.1.=.=.` $.:.>.$.:.2.4.2.2.2.2.2.w.w.1..._ | ..-.| } ) J u u R -._ ) ..1.-._ ) 1.r.B.y.4.<.2.1.o.w g l ; : + 4 MXAXgXAXrXdXpXE.C.C.p.h.p.*.j.`.^.H.+X+X).G.p.G./.H.).Z.M.4...:.4.<.p.h.H./.).).(.B.f.f.p.f.H.H./.XX).OX].].$XC.^ C ! , , @ A 1X,XW.D.O.` <.:.4.2.1.1.2.2.2.1.1.1.1.1.1.1.1.1.-.X...I H ) 1.2.r.2.1.:.1.2.4.<.<.:.' Y ) | ;.-.1.=.:.:.:.q.X.P 0 g f , @ , v.7XzXNXW.| 2.F.4.<.:.<.a.4.f.Z.Z.B.V.V.f.4.f.H.L.).).).OX).XXh.p.).).^.g.p.h.Z.Z.K.).oXXX).P.).G.C.).).h.G.P.#Xd.t { m ",
"uXuXxXeXD.4.B.V.V.!.(.^.~.~.Z.V.<.<.B.r.Y H -.S.S.F.F.Z.F.(.Z.<.4.S.<.4.Z.S.F.B.Z.B.B.B.>.>.B.~.S.F.V.g.f.f.5.4.t.M V f # $ l :X<X4X3X+.3.2.>.a _ r.M.B.B.B.B.=.:.B.B.] ' <.Z.Z.Z.H.L.H.H.P.H.G.).H.h.<.<.<.f.4.f.<.>.=.y.2.i i / B.Z.l.^.^.K...w c 8 % - S HXmXCX3Xr.B.V.4.y.y.5.y.y.2.K Y A.A.B.B.V.B.g.f.g.Z.Z.Z.Z.Z.^.^.Z.Z.Z.^.`.(.Z.g.f.g.f.Z.^.^.^.(.(.F.<.a.F.~.V.t. .0 9 X $   v.HXzXuXN.] ,.4.4.B.1.....r.) J I H J J ..r.r.1.2.>.&.:.<.:.5.B.:.:.:./ ....T K ..-.| | ..1.1...| ....| >.f.B.t.E - % ; O : o ;XcX,XeXM.X.4.1.y | 1.1.4.r.4.5.5.4.4.2.4.B.5.5.4.5.5.5.5.B.B.B.5.5.y.y.B.V.5.4.5.2.=.:.4.B.S.V.V.V.V.V.Z.j.!.~.S.F z f = O 2 DXJXnXiXL.K.B.B.4.:.....:...:.<.D.B.<.a.C.f.g.g.f.f.4.<.2.>.1.:.:.-.` / / _ C.L.C.a.Z.^.S.B.B.Z.Z.H.).XXXXP.h.Z.e.t j * $ X v 1X<X<X3X3.X.X.2.2.2.-.` ` $.>.` $.>.2.2.1.2.2.r.2.2.-.;.| _ ) -.| _ } P u u R | _ _ X.1.-..._ | 2.B.B.4.4.4.1.o.q g l ; : + 4 MXAXgXAX%XrXpXE.N.C.p.f.,.] h.^.`.H.+X+X^.C.p.G./.H.).Z.4.3.` :.,.<.f.h.H.^.).].L.f.f.f.f.f.H.).).XX).OX].OX$XD.^ C ! , , @ A qX,XW.T.:...4.1.1.2.1.2.4.4.4.1.1.1.1.1.1.2.2.1.-...X.Y H ) -.2.r.2.2.1.1.4.4.4.<.:.` / ) | ;.-.1.=.:.:.:.q.X.P 0 k l , @ 1 v.7XzXCXW...<.F.4.:.&.<.a.a.f.^.~.g.g.V.f.<.f.G.).).).).OXXXOXh.f.[.[.`.h.a.h.G.G.G.).OXoX).L.).G.C.).P.h.G.OX#Xd.t { n ",
"7XzXuXyXM.B.5.V.Z.!.^.(.(.~.Z.g.<.*.4.y.) p _ A.F.F.Z.g.Z.F.B.<.` B.f.>.B.F.Z.F.Z.S.B.B.>.>.F.F.S.V.V.Z.f.6.6.f.t.e C 9 $ X A :X2XtXyXM.1.r.S.p _ B.M.4.<.<.B.>...A.M.] ] a.C.K.H.J.J.H.H.J.J.L.L.(.Z.,.*.f.B.a.<.A.4.) | ) e y ` p.h.H.^./.].3.w B f * - ! HXmXCX{.M.4.B.5.5.y.y.w.y.w.a a B.B.B.B.B.B.g.g.g.B.F.Z.F.^.~.F.F.Z.Z.^.^.^.H.Z.j.h.Z.^.`.(.(.(.~.V.>.f.Z.Z.F.A. .w * O ,   0.HXcXyXN./ <.>.:.B.) K ) 1.) H H H I J -.2.4.2.1.2.1.:.:.>.B.B.>.=.:...) -.) Y ..| ) -.-.1.1...} } } ) <.B.4.Y.x - - ; & + + ;XcXtX3XT.1.w._ y ..2.y.2.4.2.>.>.4.4.4.2.B.5.4.4.5.B.5.5.B.5.5.5.5.5.B.B.V.B.y.S.y.-.:.y.S.S.F.F.Z.Z.Z.Z.^.!.'.A.L z g % X 2 9XJXmXiX{.D.4.B.1.` 4.4.` ) :.B.S.f.<.f.h.h.h.Z.B.<.<.B.f.:.:.:.1.2.-.) _ O.S.D.D.B.B.Z.Z.g.g.Z.^.)._.OX).P.Z.L.N.M j # $ X v 1X,X<X>X1.| | 2.:.:.1.:.....:...1.4.2.2.4.r.2.2.<.4.1...) ) ) | ..| } I L u r | ..) | 2.1.2.) _ 1.r.y.r.y.4.1.O.q 0 f ; O O 4 MXMXgXZXdXhX#XN.3.a.C.L.p.p.).C.^.).].+X].f.a.^.).^.L.Z.4.:.` _ <.B.f.a.C.L.P.+X[.Z.<.4.f.C.H._./.XX/.XX).OX#XD.~ C ! , 1 . A qX<XT.A.1.1.2.| 2.2.2.2.2.2.2.2.:.:.:.1.1.1.1.1.1.1.| X.e K B.:.4.2.2.2.>.4.B.B.4.] ` :.X._ ;.1..._ ` >.:.1.q.U 0 l l & $ , v.cX7XxX{.:.V.B.f.<.:.f.,.<.Z.`.Z.g.g.j.p.<.f.G.H.P.).XXP.OX).s.z.XX_./.f.p.Z.G.h.G.OXOXoXOX).Z.L.[.].OXh.z.P.%XN.t { n ",
"7XzXuXyXr.y.5.V.Z.Z.!.`.(.~.!.Z.f.<.B.B.| J ..S.F.F.Z.g.Z.F.B.<.:.Z.B.<.B.F.V.F.V.S.B.B.2.>.F.F.S.V.V.Z.g.p.f.B.t.w C 9 $ X A :XU.W.W.r.w.r.Y.a ) M.M.4.,.4.V.2.1.S.r./ ' 4.D.Z.G.J.J.H.J.J.L.L.Z.L.B.:.:.4.B.<.3.B.1.) | K y y :.f.h.^.H.^.L.@.w B 8 ; - ! HXmXJX3XB.4.f.5.5.y.y.w.u.w.a Y f.B.B.B.B.B.B.g.B.C.Z.F.F.^.^.^.F.F.H.^.`.).^.^.^.^.^.^.(.(.'.'.~.V.<.g.!.F.F.y.} 0 < X 2   v.HXmXxXr.K 1.1.:.r./ a ` r.) J U H W W 1.4.r.2.1.2.2.-.2.4.B.B.1...=.` _ -.) Y ..| ) -.-.-...} } | | ) <.B.w.T.L = # ; & + o ;XcXtX3XT.X.-.Y e ` 4.5.4.5.4.2.2.4.4.r.4.V.B.5.5.5.B.y.5.y.5.5.5.5.5.B.B.y.V.S.y.1.=.1.r.B.V.S.Z.Z.j.Z.!.^.!.~.y.U 0 g # O < 9XJXmXiX{.C.4.5.=.=.B.r.X.` 4.B.S.f.a.f.h.h.C.B.f.f.f.f.4.>.>.:.:.1.1.| ) ` D.D.C.f.g.g.g.f.g.Z.H.L.).OXOX).H.^.B.M w $ $ O b 8X8X>XW.+.) _ 1.:.:.1.1.-...-...:.1.:.:.2.4.2.2.1.:.=.X..._ ) | | | } I H F e | -.) | 1.2.r.) _ 1.y.y.r.r.4.3.O.w 0 f ; & O 4 MXMXuXZXdXdX#Xa.M.C.K.L.<.,.^.C.L.).].+X].f.a.L.].).(.Z.f.:.` _ :.4.f.a.K.P.P.].L.g.a.B.B.C.G.).).XXXXXXXXOX#XD.~ C ! , 1 @ A qX2XT.D.1.1.r.X.q.2.2.2.2.2.2.2.>.:.:.:.:.:.:.:.1.q...-.u K B.:.4.>.<.>.>.4.B.B.r.,.:.:.-.| -.w.1._ _ >.:.1.q.U 0 l l & + , v.cX6XxX{.:.B.B.f.<.,.f.,.<.Z.^.Z.g.g.j.p.<.f.G.J.P.P.XXP.OX).s.h._.)._.h.p.G.P.G.J.XXXX/._.).Z.L.[.].OXz.z.P.%XN.t { B ",
"7XzXuXyXr.y.5.V.V.Z.!.^.(.~.!.Z.p.<.B.B.) J -.S.S.Z.Z.f.Z.F.S.5.<.F.B.<.V.F.Z.S.B.S.B.B.<.>.F.F.S.V.V.Z.j.f.f.B.t.w C f = X A :X2X>XW.t.r.1.w.i / 4.4.3.>.<.B.:.r.Y.r.a s 4.Z.C.G.J.J.H.J.J.L.L.Z.(.Z.<.<.B.B.<.1.B.1.` ..) p a 4.h.j.^.H.H.L.@.w B 8 ; X ! HXmXJX3XB.4.5.5.5.4.w.y.u.-.J _ B.f.B.B.B.B.g.B.C.Z.Z.F.F.^.F.F.F.F.Z.^.`.).).`.`.`.^.^.^.~.'.'.F.g.<.g.Z.Z.S.t.I 6 * X &   v.HXmXxXA.) 1.>.O.4.` / | t...J U L o.X.w.r.r.2.1.1.:.:.2.4.B.B.1.=.:.` ` -.| ) ....| -.1...} T | X...) <.y.w.A.E 6 - * & + o ;XcXlX3XT.X.| a J ..y.4.y.5.5.4.4.2.4.r.y.S.B.5.5.5.B.B.5.B.5.5.5.5.5.B.B.y.F.F.4.-.=.r.y.y.B.V.V.V.Z.!.^.^.Z.~.r.H 0 g # O 4 0XJXVXiX{.C.<.:._ :.B.4.` ` M.D.S.B.f.h.h.h.C.f.f.B.B.4.<.4.<.>.:.:.1...) ) B.D.C.f.f.f.f.<.f.h.Z.G.^.].OXOXH.^.N.t q # $ O v 9XlX,XW...) _ :.:.:.2.2.:.......-.:...-.1.4.r.4.:.=...-.-...| | } | | I e e J | 1.| | -.2.t.| ) 1.y.B.r.r.r.r.+.w q f ; : O 4 HXVXgXZXdXrXE.,.a.D.K.K.*.*.L.G.H.).].[.).a.<.Z.].).(.Z.B.<.:.` _ <.4.B.L.].P.P.f.a.a.D.D.D.D.)./.XX/.XX).OX$XD.~ C ! , 1 @ A 9X2XT.A...X.r.-.2.2.2.2.2.2.2.2.>.:.:.:.:.:.:.:.1.w.-.-.p K 4.>.4.<.<.<.<.4.B.B.B.<.:.=...) ..1.=._ _ >.:.1.8.V 9 l l & + , v.cX6XiXW...B.5.f.<.,.f.<.a.Z.^.Z.Z.Z.j.p.<.f.G.J.P.P.P.P.OX).s.h.).^./.f.p.G.).H.J.)././.).L.C.L.+X[._.z.G.P.#XN.t { B ",
"7XzXuXyXr.5.5.V.V.Z.Z.^.(.!.!.g.<.*.4.4.Y J -.Y.B.Z.g.g.Z.(.(.B.<.F.B.>.B.F.Z.S.B.V.B.B.<.1.F.S.S.V.V.Z.j.f.g.S.t.w V f = X A :X,X7XW.N.r._ -.a a 1.3.,.:.:.4.` r.Y.2.t a a.K.h.G.J.J.H.J.J.L.L.L.(.Z.<.4.B.B.4.1.r.1...1.) K / f.h.h.^.H.H.R.3.w D ; * X ! HXmXCX3XB.4.5.f.5.5.w.y.S.;.Y 2.B.f.Z.Z.B.B.g.B.Z.Z.Z.F.F.F.F.F.F.F.Z.L.^.`.^.^.`.`.^.^.~.~.'.'.S.4.<.B.Z.S.V.r.I 7 < X &   v.HXmXyXY.| :.:.` <.:.:.| A.X.J H L X.-.w.r.r.4.1.1.:.:.1.1.y.B.4.>.>.:...-...| ....X.1.1.-.| ) } X.X.| 1.4.2.t.o.6 - % & + o ;XcXtX3XT..._ p ` =.B.4.y.5.5.y.4.2.2.y.B.V.B.4.4.5.B.B.5.B.5.5.5.5.5.B.B.B.B.B.2.-.=.r.S.B.B.V.V.Z.Z.^.^.!.j.F.4.F 0 g * O < 9XJXmXiXE.C.<.` ` 2.t.-.) ` A.S.D.B.g.C.h.p.f.f.f.f.f.4.<.<.4.2.:.-.X.....` B.D.C.f.p.f.f.<.p.g.Z.G.L.].OX].j.Z.r.t q # $ X h 1XlX,XW...) | :.:.1.1.1.:.X...:.:.1.:.:.1.4.r.4.>.=...X.-.X...| ) | X.I e F } ..w..._ X.4.t.| ) :.r.B.r.4.r.M.1.w w j ; : O 4 HXVXuXZXdXrXE.O.,.C.G.C.[ [ L.H.H.).].].L.a.,.C.].].(.Z.f.4.<.:.` <.a.C.(.].P.P.a.<.a.Z.D.D.G.L.J.XXJ.XXXXOX$XD.~ ~ ! , 1 @ A 9X2XW.N.) ) 2.-.2.2.2.2.2.2.2.>.:.:.:.:.:.:.:.:.1.w.-.1.K a 1.2.>.<.<.<.<.4.B.B.B.<.....| ) _ ..) _ _ >.:.q.q.V 6 l l & + 1 v.cX6XtXR.` 4.5.f.<.,.f.a.a.Z.^.Z.Z.Z.j.p.p.h.G.J.P.P.XXP.OX).s.h.).H.Z.p.p.h.H.G.G.)./.J./.H.C.L.+X[.).z.G. X#XN.t { B ",
"7XzXyXyXr.5.5.V.S.Z.^.^.~.!.g.g.f.<.B.r.) J 1.Y.S.Z.Z.g.Z.(.(.B.>.Z.4.:.B.F.Z.S.B.V.B.B.2.>.S.S.S.S.V.Z.j.f.B.F.A.w V f = X A :XQ.>XW.r.w.) 2.-.p :.3.:.O.:.>.' 4.S.1.i s f.L.h.G.G.H.H.H.H.L.L.^.F.f.:.:.4.f.4.1.r.1.:.2.) K ` D.Z.h.l.l.H.R.e.z c * % X ! HXmXbX{.M.4.f.g.B.5.y.u.S.| ) B.B.g.B.B.B.g.f.g.Z.Z.Z.Z.Z.F.~.~.F.F.Z.L.^.^.^.^.^.^.`.`.~.~.'.(.V.<.5.B.S.V.B.r.U = < X &   v.GXzXtXT.` ..:.` :.:...` A.X.K H I X.-.2.4.r.r.1.:.:.1.1.1.B.B.4.<.<.:.:.X.X.X...X.1.1.-.-...) ) | | | :.4.2.w.8.7 - # + + o m.9X6X>XT.| ) K 2.2.B.4.5.5.5.5.4.2.4.y.B.B.5.4.4.4.5.B.B.B.5.5.5.5.5.B.B.B.:.` :.:.` :.S.S.S.F.Z.Z.!.!.!.Z.g.F.2.F 0 g * O < qXJXmXpXR.M.4.:.2.B.4._ _ 1.A.A.B.B.g.h.h.p.a.B.g.<.>.4.y.2.2.1.:._ ) ) | :.D.Z.Z.f.a.f.f.4.<.g.Z.H.).).).P.k.h.3.t z * $ X h 1X8X,XW...) _ 1.1.1.1.1.1.1.1.-.-.1.1.-.-.-.:.2.2.1.:.X.| ..-.| | ..X.T F L X...w..._ X.2.r._ ) ..4.y.y.4.r.B.3.t j j 3 : O 4 MXMXgXZXdXdX{.a.a.D.L.C.( [ L.H.G.).].).L.p.,.C.].).L.f.f.f.f.4.:.4.f.C.L.].L.L.f.<.4.B.D.F.K.L.J.).J.XXP.].#XD.~ C ! , 1 @ ! 9X2XW.N.K K X.X.w.4.4.4.2.2.1.:.:.:.:.:.:.:.:.:.1.1.1.1.Y p ..<.:.>.<.<.<.4.B.B.B.a.>.:.1...| | Y _ / :.O.q.q.L 6 g l & o 1 v.mXuXiXW.` 5.5.B.4.<.a.a.f.Z.^.Z.Z.Z.j.k.p.h.G.P.).).XXP.OXXXs.h._.^.p.<.p.j.G.h.J.+XXX/.).P.C.(.+X].).G.I.OX#XN.t { B ",
"7XzXuXyXr.5.5.g.Z.Z.^.^.~.Z.g.6.j.g.V.r.Y H X.A.F.^.Z.Z.Z.^.Z.4.:.B.<.` f.F.Z.S.B.V.B.B.>.:.A.B.S.S.Z.Z.g.f.g.F.A.w V f = X A :XU.>XW.e.1.Y 1.w.a 1.3.3.:.:.>._ 3.D.2.a / f.K.h.G.G.H.H.J.H.L.L.(.F.4.:.:.4.a.4.1.4.:.O.1./ p ` F.H.h.H.l.l.K.+.z k % % X S FXmXxX{.B.4.B.Z.V.y.y.y.S.| | F.B.Z.g.g.g.g.g.g.Z.Z.Z.Z.Z.F.~.F.F.Z.^.(.(.(.^.^.^.`.`.`.(.(.~.~.B.>.g.Z.V.B.B.r.I 7 9 X &   v.HXlX>XN.| :.M.<.:.:.' ` B.-.K H I X.X.1.1.4.r.2.:.:.1.4.<.B.B.4.<.<.:.1...-.1.| -.2.-.-.-.X.} T ) } ) ` 4.2.q.8.= - - & + o ;X9XtX3XT.| Y _ y.y.B.5.4.5.5.4.4.4.4.y.B.y.4.>.>.4.5.B.B.B.5.5.5.5.5.B.B.V.$._ 2.2.=.2.F.~.F.F.~.~.!.!.Z.j.g.F.w.F 0 g * O < qXJXnXeXR.a.4.:.r.A.:./ ..<.B.B.B.B.g.f.p.p.<.Z.B.>.:.4.B.1.:.1.../ K K ) ` D.Z.Z.C.a.f.f.f.<.h.Z.L.).).P.J.f.h.r.M m < & O v 8XlX,XW...) ) 1.1.1.-.-.1.1.1.| | | ..| ) ) | 1.2.2.1.X.| X.1...| X.X.) I } -.X.1.) _ -.2.r._ ) ` :.r.y.r.r.B.3.t j j 3 : O 4 wXMXgXZXdXjXpXD.D.'.).Z.( [ L.G.G.).].).L.a.4.C.).).G.a.4.f.B.4.<.f.f.C.L.).L.J.C.4.4.B.C.C.D.).J.).J.XXXX].#XD.~ ~ ! , 1 @ ! 9X<X<XA.K p ) | w.4.4.4.4.2.1.:.:.:.:.:.:.:.:.:.1.1.1.2.) p _ r.:.>.<.<.<.4.B.B.B.B.>.1.2.-...../ ) / :.O.q.e.U 0 g l & o 1 v.mXzXnXW...B.V.Z.g.a.<.a.f.Z.^.!.Z.g.Z.f.p.h.H.P.).XXOX XOX).p.h._.).p.p.h.H.G.h.P.@XoX)./.).Z.).+X_.H.H.P. X#XN.t { B ",
"7XzXuXyXr.5.5.g.V.Z.Z.^.!.Z.g.6.g.f.B.2.K p ..A.S.F.Z.Z.Z.F.B.>.>.B.<.` 4.S.B.S.V.V.B.y.:.` B.B.S.S.V.j.g.f.g.S.A.w V f & . v :XU.7XW.+.-.K | ;.i O.1.1.:.>.4.` r.S.4./ ' a.D.C.G.G.G.H.J.H.L.L.(.Z.a.,.<.a.a.4.:.>.....1.K p ..S.Z.h.^./.l.D. .z g % % X S FXmXbX{.B.4.g.Z.V.5.y.w.u._ =.~.5.Z.f.f.g.g.g.g.B.Z.Z.Z.Z.^.F.F.F.F.^.(.(.(.^.^.`.`.^.`.`.(.~.F.y.>.V.Z.V.B.B.t.{ 0 < X &   v.HXzX>XT.:.1.A.4.:.>._ ` A.1.K K } -.| ..-.2.t.4.:.:.4.4.<.B.B.4.4.<.:.>.` -.:.| X.2.-.1.1...| ) | | ) _ 4.t.q.8.# - - : O + ;XcXlX4XT.) K -.y.y.4.V.4.f.5.4.>.4.y.B.B.5.4.>.>.4.B.V.V.B.5.5.5.5.5.B.B.S.2.:.4.4.:.4.~.F.F.F.~.^.^.Z.j.g.g.F.r.H w g * O < qXJXnXeXR.a.>.` <.4._ / >.4.B.B.D.C.g.f.p.f.f.Z.Z.5.<.4.4.4.1.1.X.Y a K ) / B.D.Z.f.a.f.f.f.f.h.Z.H.^.).).P.j.Z.M.M m < & O v 8X8X,X3X+.) ) X.1.1.1.1.1.1.-.| _ _ ` _ ) ) ..1.1.1.1.1.1.1.1.| ....| | | ..X..._ J ) 2.2.r...) _ ..4.y.r.r.t.3.t j j ; + O 4 wXMXgXZXdXdX$XK.F.].].Z.[ *.).G.G._.[.].L.h.a.D.(.).H.f.4.g.f.>.>.f.f.C.(.).J.G.f.f.B.B.r.3.C.].J.).J.XXXX].#XD.~ C ! , 1 @ ! 0X<X<XY.` a K I w.r.4.4.2.2.1.1.1.1.1.1.1.1.1.1.1.1.1.w...p ) B.:.>.2.>.>.4.B.B.B.B.>.:.2.-....._ _ / ....2.e.P 0 k l $ o 1 v.mXzXNX{...B.V.S.B.a.,.p.g.Z.^.Z.j.f.Z.f.k.h.H.)._.OXOXP.OXP.p.h./.).h.h.Z.H.H.G.).@XXX/.).P.G.].+X].J.H.).OX#XN.t { B ",
"7XzXuXyXr.4.4.g.V.Z.Z.H.!.Z.g.5.p.4.B.2.K H -.S.B.Z.Z.j.Z.F.B.<.<.Z.<.` 4.S.B.S.S.S.B.4.` ` B.B.F.S.V.g.f.f.g.S.A.w V g & . v :Xb.>XT.X.-.K | _ y  .1.1.:.>.5.$.B.S.r./ _ <.C.Z.G.G.H.H.J.H.L.L.L.B.<.:.<.4.<.:.` ..` ..2.) K 1.B.h.h././.H.D. .c g % % X S FXMXbX3XB.a.g.Z.V.5.A.2.y.R =.~.4.Z.a.f.g.g.g.g.g.C.Z.Z.Z.^.^.F.F.F.F.L.^.^.^.^.`.`.^.`.|.(.~.Z.5.>.Z.Z.S.B.V.A. .0 < X &   v.HXcXtXY.1...r.:.` >.` ..S.1./ ) | 1.| _ ..2.t.r.1.:.4.2.>.5.B.5.4.4.>.>.` -.1._ X.r.-.w.1.X.....-...) _ B.A.q.i.# - X ; + 1 :XcXlXtXY.) J 1.2.y.>.F.5.f.4.>.>.4.y.B.B.5.4.>.>.5.B.V.F.B.5.5.5.5.5.B.B.B.y.5.4.:.:.5.F.V.V.Z.~.(.^.Z.j.g.g.F.r.H w g * $ 4 0XJXmXeXR.a.>.` >.<._ ` B.B.B.B.C.C.h.f.p.h.C.g.B.V.B.4.2.t.r.2.-.) Y ) Y a B.D.Z.f.<.<.f.f.f.j.Z.G.L.).].).Z.Z.r.t z * $ X v qX8X6XeXe...| ..1.2.1.1.2.1...1...| ..| _ ..2.1.:.-.:.2.2.1.1.| ....| | X.X.| | Y u ) r.2.r.X.) ) ` 2.y.y.r.r.e.t j j ; + o 4 HXLXgXZX&X%X#XC.D.'.).C.[ *.).G.G.].+X].(.C.a.Z.^.).H.f.f.f.4.&.:.4.a.h.).).G.C.p.f.B.A.3.O.M.].J.).J.XXXX].#XD.~ C ! , , o ! 0X<X<XY.1.K a J w.r.r.4.2.2.1.1.:.1.1.1.1.1.1.1.1.1.1.r.X.p ) A.:.:.>.>.>.4.B.B.B.B.>.:.2.1.-.1.-./ / ` ` 1.e.E 0 g l $ o 1 v.mXzXNXW.` B.V.Z.f.4.*.<.f.Z.^.Z.j.f.Z.h.f.h.^.).OXOXOXP.OXJ.x.s.).).H.j.h.H.H.H.).OXXXJ./.H.G.].+X].H.J.XXOX#XN.t { n ",
"7XuXuXsXA.y.4.5.g.g.g.Z.~.Z.!.!.j.f.<.4.) H 2.S.B.B.g.g.Z.F.B.4.>.Z.Z.:.<.~.'.4.4.B.B.y.>.:.<.S.S.S.B.g.Z.g.f.F.t.w V 9 * X v qXU.N.T.e.| R -.| e / 1.3.:.1.1.=.:.}.r.' ,.a.D.G.G.G.H.H.J.J.G.G.Z.Z.,.<.4.` >.4.:.) ..1.X.i X.4.4.h.H.^./.H.a. .c g # ; # A HXzXbX3XM.a.B.f.~.Z.y.Y.-.Y r.F.g.Z.Z.f.g.Z.Z.f.f.Z.Z.Z.Z.!.Z.Z.Z.Z.^.(.^.(.^.^.`.^.^.`.(.~.~.~.V.4.V.g.Z.V.B.A.X.0 # $ & o v.KXlXxXT.-...4.1...:.1.O.B.B.) | r...X.) -.r.y.2.-.:.y.<.4.5.B.B.f.<.&.:.....-.:.:.-.1.1.1.X.| ..-...) :.4.4.t.} = - - & O , ;XcX<XxXT.K Y =.4.B.y.5.5.4.<.<.4.5.5.y.B.5.5.4.4.5.B.V.V.V.B.B.y.B.B.y.5.B.y.B.=.:.B.B.V.Z.Z.Z.!.^.(.(.^.j.Z.4.A.H z g * O & DXHX7XiXR.3.` =.B.4./ / 4.B.f.f.f.h.f.h.h.h.C.<.f.B.4.4.r.t.r.2.| Y ) ) / / B.Z.Z.f.4.f.f.<.<.p.h.Z.C.J.).G.H.Z.D.N 0 * $ X h qX8X6X4Xe...| Y -...) 1.1.| -.X.....-.1.1.1.X.-.:.1.1.1.1.1.1.| _ | ...._ | X.| K K | 2.r.2.2._ / ` :.<.y.B.3.3.t z k 3 O O 4 wXMXBXgXdXdX#XC.a.(.].L.,.*.H.L.H._.+X).C.<.a.Z.^.).^.h.f.f.<.$.&.<.f.C.L.).).J.C.Z.B.4.O. .3.].L.XXXXOXXXOX@XK.~ ! ! 4 o o A 0X,X4XW.X.K K J -.2.w.2.1.1.w.w.1.1.1.1.1.1.1.1.1.1.X.2.-.K K :.2.1.>.<.4.4.4.f.V.f.<.:.-.-.1.1.1.:.` _ ` 1.8.E 6 l l O X $ ;XHXnXCX{.` B.B.B.f.a.a.a.g.C.Z.^.Z.f.^.g.k.h.).XXXX).OX X@Xh.*.h.H.).h.p.h._.H.h.).@XXXXXJ.G.H.].+X+XJ.J.OXOX#XN.N { n ",
"7XuXtXiXA.B.4.g.V.g.g.Z.~.Z.Z.!.Z.g.<.4.) J 2.S.B.B.g.g.Z.F.V.4.>.B.B.:.>.S.~.B.f.B.B.4.:.` <.S.S.S.V.j.Z.g.f.F.t.e V 9 * X v qXU.N.T.q...R -.| p ) 1.1.O.>.1.:.1.S.` s >.a.D.C.G.G.H.H.J.J.G.G.C.F.<.<.4.:.<.4.1.....:.1.p ..M.B.Z.^././.G.a.O.c g # ; # A HXcXxX{.M.f.B.g.~.Z.y.S.;.Y 4.S.f.g.h.f.g.Z.Z.g.g.Z.Z.Z.^.^.^.^.^.^.^.(.^.(.^.^.`.^.^.`.`.~.F.F.V.5.V.B.V.B.B.A.X.0 $ $ O X 0.KXlXxXW.1.` 1.3.:.1.<.>.S.B./ ) t.X..._ -.r.r.1.=.:.y.4.4.f.B.Z.g.<.:.:.......:.-.-.1.1.1.-...| ....) ..4.2.t.} = - X & O , ;XcX>XxXN.K ) =.y.B.g.5.5.5.4.4.4.5.B.B.B.5.5.4.4.5.B.V.V.V.B.B.B.B.B.B.y.4.2.4.` $.B.g.g.Z.Z.Z.Z.^.^.^.!.g.Z.5.A.H z g * O , DXHXuXiXE.a.=.:.B.4.' ` f.C.g.g.h.f.h.f.f.f.C.<.4.B.<.2.r.r.) | ) ) .._ K K D.D.C.a.<.f.g.g.<.p.Z.Z.C.L.).G.H.Z.D.N 0 * $ X v qX8X6X4Xe...| Y .._ ) 1.1.| ..-.......-.-.-.X.2.1.1.1.1.1.1.1..._ _ ..X.....-.) K K ..r.r.2.2._ / _ :.1.y.A.M.3.t z k 3 O X 4 HXMXAXkXdXjXrXC.C.'.).K.*.*.H.^.G.).[.).C.a.B.Z.^./.^.h.f.f.<.` &.<.f.C.H.).P.J.G.Z.B.r.1.) O.'.L.].XXOXXXXX$XK.~ ! ! 4 o o A 0X,X4XW.O.) Y J ) 2.w.r.2.2.r.w.1.1.1.1.1.1.1.1.1.1.-.w.-.K a ..r.2.2.<.<.4.4.f.B.f.4.:.-.-.-.1.1.:.$._ ` 1.+.E 6 l l O o 1 v.HXzXNXW.` B.V.Z.g.f.C.D.Z.L.^.^.Z.f.^.h.k.h.).XXXXXXOX X@Xh.*.h.H.).h.k.G.).H.G.).@XXX/.J.G.H.].+XOXJ.J.OX X.XN.N { n ",
"7X7XtXiXA.B.5.g.V.g.Z.H.~.Z.Z.Z.Z.g.<.4.) J w.S.B.B.g.h.Z.(.S.f.<.4.4.:.>.B.F.S.B.B.B.4.:.` <.S.A.S.V.j.!.j.f.S.A.e V 9 * X v qXU.N.U.X..._ 2.| p  .+.O.O.1.1.>.1.r.K a ,.C.D.h.G.J.H.H.J.J.G.G.g.F.,.:.4.4.f.4.1.3.O...2.a | S.S.^.)././.l.a.+.M g # ; X A HXcXyX{.a.f.Z.g.~.S.y.y._ Y 4.V.f.g.g.f.g.Z.Z.j.j.H.Z.Z.^.^.`.`.^.^.^.(.^.(.^.^.`.^.^.`.`.^.F.Z.V.5.Z.B.V.B.B.A.X.0 * & O @ 9.HXlXxX{.1.) 1.4.4.4.4.4.Y.A.K / t.1.| | X.2.2.1...:.r.B.B.B.Z.Z.g.p.<.:.` ` =.:...-.:.1.2.1.| | | ..| ` >.1.w.o.# - - & + 1 m.cX<XxXN.p ) 1.y.5.5.5.5.5.5.5.5.5.B.B.B.5.5.5.5.y.B.V.V.V.B.B.B.B.B.B.B.2.:.4.$.>.V.V.Z.Z.Z.Z.Z.!.!.!.Z.g.j.5.A.H z g * $ , DXHXuXiX].M...2.B.>.' :.Z.Z.C.h.h.h.f.f.a.p.Z.<.4.4.1.1.r.w.u K Y _ -.X.) / D.C.f.,.<.g.Z.Z.f.f.Z.G.Z.L.).J.H.Z.D.N 0 * $ X v qX8X,XtXe.X.| K ) ) ) -.1.....1.X.| | | ....X.2.1.1.:.:.:.:.:.X._ ) ..-.-.-.1.X.K K -.r.2.2.r.) Y ) ` ` 1.B.B.3.t z k 3 O X 4 HXMXAXkXdXjX#XM.D.].).K.*.] H.).H.).).L.C.f.C.D.^.).^.h.f.f.<.&.&.<.g.C.L.).P.J.Z.B.4.r.1.^ ..'.L.OXXXOXXXXXOXD.~ ~ ! 4 o o A 0X6X4XW.2.X...J K ..1.r.r.w.2.2.1.1.1.1.1.1.1.1.1.-.2.2.1.) p K 4.4.4.2.<.4.f.g.B.B.4.2.1.-.1.1.1.:.:._ ) ..X.E 0 l l $ o 1 v.mXuXxXR.) f.B.B.4.<.f.C.G.L.^.Z.j.<.^.h.p.h.).XXOXXXOX X@Xh.x.G.P.).h.h.H.).G.H.XXOXXX/.J.G.L.].+XOXJ.J.XX X.Xb.N { b ",
"7X7XtXiXA.B.5.V.V.B.Z.H.~.Z.Z.Z.Z.g.<.4.) J w.S.B.B.g.g.Z.(.F.B.>.<.<.<.4.B.F.F.Z.B.B.<.` _ 1.S.B.S.Z.Z.!.Z.g.Z.A.e V 9 * X v qXU.N.N. .X.| -.| p ) O.O.:.1.1.1.2.1.a / a.Z.K.C.L.J.H.H.H.J.G.G.f.Z.:.&.4.a.B.4.:.4.O...r.p | R.F.)._./.l.h.4.+.V c # ; X A HXcXyX{.B.B.Z.g.~.S.y.2.R ) y.F.B.g.g.g.Z.Z.Z.Z.Z.^.Z.Z.^.`.`.`.^.^.^.(.^.^.^.^.`.^.^.^.(.~.Z.B.B.g.Z.B.V.g.B.S.X.0 = & O X 0.HX8XxX{.2.` 2.4.4.B.B.B.L.S.K K B.r.| | ..1.2.:.=.1.4.Z.Z.Z.Z.g.f.p.<.:.....:.:.-.-.:.1.2.1...) _ ...._ >.1.q.Q - - - & + + m.cX<XxXN.p / :.4.4.4.5.5.5.5.5.5.g.B.B.B.5.5.5.5.B.B.V.V.B.B.5.5.B.B.B.y.4.:.4.:.4.Z.V.Z.Z.j.j.Z.Z.Z.Z.j.g.j.5.A.H z g = $ , 0XmXuXiX{.C.` 4.4.` / <.Z.g.g.h.h.h.f.f.a.p.g.<.4.f.4.r.r.q.e H H K ....` ` Z.D.a.*.<.Z.Z.Z.f.f.Z.H.G.P.].J.H.Z.D.N 0 * $ X b qX1X,XtXr.-...Y ) Y ) -.1.-.| -.....| | | ....1.1.:.:.-.-.-.-.X._ ) ` -.1.1.1.r.) Y -.r.1.2.A...) ) ) / ..r.B.3.t z k 3 O O 4 HXMXBXgXdXhX{.,.F.].).L.<.*.G.L.^.).L.Z.h.a.C.C.L.).^.h.f.g.f.:.&.<.g.L.).).P.P.Z.<...1.X.J  .W.R.].).XXXX).OXN.N ~ ! 4 o o A 0X6XtX{.3.-.1.K K Y _ 1.r.2.2.1.1.1.1.1.1.1.1.1.1.-.2.1.1...p i | r.4.2.>.<.f.g.f.B.r.2.1.-.1.1.2.2.:._ / |  .P 0 l l $ o 1 v.cX7XNXW./ 4.5.5.<.:.,.p.C.Z.Z.Z.Z.f.`.j.k.h.).XXOXOXXX XOXh.x.H.).H.f.j.).H.h.H.OXXXXXJ.H.G.P.OXOX].J.J. X X.Xb.N { b ",
"7X7XtXiXA.B.5.V.Z.Z.Z.H.~.Z.g.Z.Z.f.>.2.) J q.A.B.g.g.g.Z.^.F.B.:.<.4.4.f.B.S.F.S.Z.B.<.` _ 1.A.B.F.Z.j.!.Z.g.D.t.w V 9 * X v qXU.U.t.{ X.| -.} u K ..1.1.1.1.1.1.:./ O.B.C.L.Z.L.L.H.H.J.J.J.L.f.B.` &.f.f.B.<.:.4.1...r.p ) D.F.(.)./.l.s.3.@.V c # ; X A HXcXyX{.B.C.Z.j.~.Z.4._ Y _ B.F.B.Z.g.g.Z.Z.Z.Z.H.^.H.^.^.^.^.^.H.Z.^.(.^.(.^.^.`.^.^.^.~.Z.V.f.5.B.Z.B.V.g.B.S.X.0 $ $ $ @ 0.JX8XyXY.2.X.r.4.<.B.Z.B.F.S./ K r.r.......-.1.:.=.1.4.B.B.B.Z.g.f.f.f.>.:.:.>.:.=.:.1.:.1.2.X.) _ ..-._ >.-.q.Q - - - & + + m.cX<XxXr.p ) :.2.4.5.f.g.5.6.5.5.g.B.B.5.5.5.B.B.B.B.V.V.V.B.5.5.B.B.B.B.2.=.2.:.4.Z.g.g.Z.j.j.j.Z.Z.V.g.g.j.5.A.H z g # $ , 0XmX6XiX].M.` 4.2.' ` 4.C.g.f.f.f.h.h.f.p.a.p.<.f.B.r.t.r.-.u H u H | ..` ` D.Z.f.:.<.Z.Z.g.f.f.Z.L.G.P.].L.H.Z.D.N 0 * $ X b qX1X,XyXr.1.X.| ) ) ) ..1.1.| | ....X.....| | | ..-.:.:.:.X...-...` ..:.2.4.1.2.) Y -.r.2.2.t.:.` _ ) / ..y.A.3.t z k 3 O O 4 HXMXBXgXdXrXE.O.F.].].].p.*.G.G.).).G.h.a.a.f.C.H./.H.h.g.Z.g.<.*.<.Z.(._.).P.).Z.<.' | | H ^ R.L.].).OXXX).OXN.N ~ ! < o o A 9X6XtX3X2.| ..J K p Y -.w.w.2.2.2.1.1.1.1.1.1.1.1.1.1.1.1.1.K r a 1.2.2.>.4.f.g.f.B.B.4.2.1.1.1.2.2.:.` / )  .U 0 g l $ o 1 v.cX6XCXW./ <.4.4.<.,.*.a.C.Z.Z.Z.Z.Z.^.h.k.h.).OXOXOXXX X@Xz.p.).).G.f.Z.).H.h.).@XXXXXJ.H.G.P.OXOX).J.J.OX X.XN.N { b ",
"7X7XtXiXA.B.5.V.Z.V.Z.H.~.Z.Z.Z.Z.f.>.2.) J 2.A.B.B.f.f.Z.^.F.B.:.4.B.f.B.V.F.S.S.S.B.4...` 2.S.B.F.Z.g.Z.Z.B.Z.t.w V 9 * X v qXU.U.N.^ X.| | _ p K  .1.1.1.1.1.1.../ <.B.a.Z.Z.L.L.H.H.J.J.L.L.C.f.' &.B.f.f.<.<.r.4.1.q.e ) B.F.^./.^.l.h.3.@.V c # ; X A HXzXiX{.B.C.Z.g.!.V.>.Y J =.B.V.g.Z.f.h.Z.Z.Z.Z.H.H.^.^.^.^.^.H.Z.Z.^.(.^.(.^.^.`.^.^.Z.Z.Z.V.g.y.B.Z.g.V.B.V.S.X.6 # $ $ o 0.HX8XyXT.1.X.r.4.<.B.F.Z.Z.D.` K 4.r.......X.1.1.:.1.4.<.4.f.g.h.h.j.j.<.2.2.2.:.=.-.1.:.1.2.X._ _ ....` >.-.q.Q - - - : + + ;XcX,XxXr.K ..2.4.4.B.V.B.5.6.5.f.g.g.g.5.5.B.B.B.B.B.V.V.B.B.5.5.B.B.B.B.4.=.2.>.g.!.g.g.j.j.j.j.Z.Z.V.g.f.g.5.A.L z g # $ & DXHX6XiXE.a.:.y.1._ :.g.g.h.k.k.f.h.h.f.p.a.<.<.f.B.r.t.w.| L I I Y -.1...` B.K.C.,.<.B.Z.f.f.f.Z.L.G.P.].L.H.Z.D.N 0 * $ X v 8XlXtX4Xe.1.1.-.| | | ) ..-.| T | ..-.-...| | | | X.:.:.:.X...:.:.-...:.4.4.4.) Y ) -.r.r.2.2.-.) / / / -.B.A.3.t z k 3 O O 4 HXMXAXkXdXrXE.O.F.'.].].f.*.Z.H.).^.G.f.<.p.B.D.G.H.H.h.j.Z.Z.4.:.<.Z.).].).P.).(.a.` ) ^ t K N.L.].).OXXX).OXN.N ~ ! < o o A 9X6XyX3X1.) ) p J p Y | 2.r.w.2.w.1.1.1.1.1.1.1.1.:.1.1.1.-.Y e e ..1.4.<.<.f.g.f.B.B.y.r.2.1.1.1.1.>...) |  .U 0 k l $ o , v.cX6XCXW./ <.5.B.f.a.*.a.C.C.g.g.g.f.^.h.k.Z.).OXOXXXXX X@Xh.p.).^.h.f.j.^.H.h.H.@XOX).J.H.G.P.OXOXP.J.P.OX.X#XN.N { n ",
"7X7XtXiXA.y.5.g.V.g.Z.Z.~.Z.Z.Z.Z.f.>.2.) K 2.A.B.B.g.g.Z.^.F.B.>.f.B.f.4.B.F.Z.S.S.B.4.:.` <.S.A.~.Z.f.Z.Z.Z.S.t.w V 9 * X v qXv.Q.U.{ -.| | } K ^ ..1.1.1.1.1.1. ./ 4.B.<.D.G.L.L.H.H.J.J.L.L.Z.4./ :.S.f.4.4.4.<.4.2.1.e X.A.R.(./.^.H.G.a.+.M g # ; # A HXzXbX3XB.C.Z.g.!.V.>.Y Y 2.S.B.B.Z.f.h.Z.Z.Z.Z.Z.Z.^.H.Z.Z.Z.^.^.^.^.(.^.(.^.^.`.^.^.Z.V.Z.V.V.V.V.V.g.B.B.S.Y.X.7 $ $ O X 0.HX8XyXY.1.| 2.4.4.B.F.F.B.L.>./ :.1.......X.1.1.1.2.4.>.4.f.g.h.h.h.Z.4.<.<.<.:.....1.:.1.2.-.| ......_ >.-.q.Q - - - ; O + ;XFX,XxXr.| 1.4.2.4.B.V.g.f.f.f.g.B.B.B.5.5.B.V.V.B.B.V.V.B.B.5.5.B.B.B.B.4.=.4.4.V.(.g.Z.j.j.j.Z.Z.Z.V.g.f.j.5.A.L z g # $ , DXHXuXiXE.a.4.y.:.` 5.B.f.j.k.f.h.h.h.f.a.<.<.<.4.4.2.w.-.I T | | ..1.-...:.B.K.D.:.*.g.Z.g.f.f.Z.H.G.P.].L.H.Z.D.N 0 * $ X v 8XlXtX4Xe.1.2.1.| | ) K ) ..) K Y | ......| | ..X.-.-.:.:.-.-.-.:.:...-.2.4.4._ ) ) ..2.r.w.2.:.) / / ) :.B.B.3.t z k 3 % O 4 wXMXAXBXdXdX{.3.L.'.(.].f.,.G.L.H.L.G.h.a.a.C.L.G./.H.h.g.Z.g.<.*.<.Z._.].P.J.).L.f.` ) I t U +.K.].P.XXXXXX@XK.C ! ! 4 o o A 9X6XyX3X1.) ..I Y J K _ 1.w.2.2.2.1.1.1.1.1.1.1.1.:.:.2.1.| ) I e ) :.4.<.<.f.g.f.B.B.B.t.w.1.1.1.:.>.:.` | } U 0 l l $ o , v.mX6XCXW.) 4.5.B.f.a.*.p.g.f.<.<.p.p.^.h.f.G._.OXOXP.XX X@Xh.p.).H.p.f.h.H.H.h.H.OXOX/.J.G.G.P.#XOXP.J.P.*X*X#XN.N { n ",
"7XuXtXiXA.B.5.g.V.g.j.Z.!.Z.V.Z.!.g.>.2._ K w.A.S.Z.B.g.Z.(.F.B.<.B.Z.4.<.B.F.V.S.S.S.y.:.` <.S.V.~.Z.f.j.Z.Z.S.t.w V 9 *   v qXv.W.U. .q.X.| | ) ) ..1.1.1.:.2.2.) / 4.B.<.K.L.L.L.H.H.J.J.L.L.L.4.d <.L.f.4.4.4.:.1.2.X.i 4.F.(.)./././.^.B.1.M k # 3 # A HXzXbX#XB.B.Z.g.!.V.5.Y _ V.F.V.V.Z.f.j.Z.Z.Z.Z.Z.Z.^.Z.Z.Z.Z.^.^.`.^.^.^.(.^.^.`.^.`.Z.V.Z.Z.S.V.F.V.B.V.V.V.S.o.7 = & O @ 9.HX8XxX{.1./ O.1.4.B.F.F.B.(.4./ ..:.......X.1.2.2.2.4.<.f.g.j.g.f.f.f.4.4.<.<.:.....-.1.2.1.-...X...` ) :.-.q.Q - - X ; O + ;XGX,XxXr.:.4.4.>.2.B.B.4.g.g.g.g.V.V.B.y.5.B.V.V.B.B.V.V.B.B.5.5.B.V.B.B.:.` :.>.g.!.f.g.j.j.j.Z.Z.Z.Z.g.f.g.5.S.U z g # $ , FXJXzXiXE.a.4.r.:.$.B.B.p.j.f.h.h.h.f.a.<.<.<.<.<.2.-.-.o.J I o.o.) ) / _ >.B.K.D.:.&.g.Z.Z.f.f.Z.H.G.P.].J.H.Z.D.N 0 * $ O v 9XcXtX3X3.1.w.w.....} H I ..Y J I } ..........1.1.1.-.-.-.:.:...-.-.` ` :.2.1.2.1...) | 2.t.r.y.:.....-.4.S.A.3.t z k 3 % O 4 qXuXBXBXdXrX#Xa.L.'.L.).p.*.G.).C.G.L.Z.h.f.D.L.H.^.H.h.f.g.f.:.*.<.Z.)._.H.J.).h.4.` ) K t p  .K.P.P.XXXXXX@XK.N ! ! 4 o @ A 8X,XtX3X2.X.2.| | P P T -.w.1.-.-.-.1.1.1.1.1.1.1.:.:.4.1.) | | p K -.r.4.<.4.B.f.B.B.B.y.w.1.-.-.:.>.>..... .U 0 l l $ o , m.mXzXCXW.) 4.4.f.<.,.*.a.C.g.p.p.f.g.H.h.f.G._.OXXXP.XXXX@Xh.p.).H.p.h.f.G.H.C.G.OX@X/.J.G.G.].#XOXI.J.P.*X*XrXN.N { n ",
"uXuXyXiXA.B.4.4.V.g.g.!.~.Z.V.Z.!.f.5.2.) Y 1.A.S.Z.Z.Z.!.~.F.V.<.4.B.B.4.B.F.S.S.B.S.f.<.` ` '.Z.F.Z.!.`.Z.g.F.A.M c j $   v 0XU.U.t.U -.X.| T | )  .+.1.1.-.1.1. ./ 3.a.f.(.G.L.H.H.H.J.J.J.K.L.<.:.a.f.g.a.:.<.4.| A...y <.F.)./._.^.^.`.B.q.m * % $ & A GXvXsX}.C.Z.F.g.Z.V.<.>.>.5.V.F.F.Z.Z.Z.j.j.Z.Z.^.^.!.!.Z.Z.H.^.`.`.^.^.Z.Z.^.^.(.(.(.!.g.g.V.!.Z.V.V.B.!.g.Z.S.^ 0 f O ; . 7.JXzXtXR.B./ ..B.1.<.(.C.h.g.B.` ) 2.) ) -.` ..r.4.:.B.,.,.4.f.C.C.C.Z.4.4.B.4.` | 1...1.1.2.1.| X.=._ ) 1.} X.8.6 - O & : o :XcXlXxXT.1.<.4.y.4.4.4.f.4.f.B.V.V.B.B.f.5.5.B.V.F.S.V.B.B.5.B.B.5.V.S.5.2.` ` 4.Z.Z.g.j.g.j.Z.Z.Z.j.g.f.g.f.f.A.U V g % 3 o DXIXmXbXD._ 1.B.>.' <.g.f.g.f.f.h.h.C.f.f.p.<.*.:.` 2.w.I H o.X.-.1.X._ _ ` f.D.F.a.:.Z.^.g.4.f.g.Z.H.L.J.J.H.Z.D.N 0 * & X l 9XcXtXtX+.) -.w.| T | | } T T } T T W | X.X.X.....X.X.X.1.1.4.-...` ` ` =.1.4.2.1.Y K X.r.w.2.y.-._ =.w.y.y.y.e.t z k 3 % O h qX7XgXfXrXaX{.a.K.+X].L.,.( f.).G.Z.L.Z.<.<.Z.L.G.L.Z.p.<.f.j.g.<.f.H.)._.).).).G.a.] :./ p / / F.].).).).XXOXK.^ C ! , o   ! 0X6XxX3Xr.1.2.1...P T u T X.} q.| -.1.2.1.=.:.:.>.:.:.:.:.` _ ) ) K 2.t.1.4.B.B.B.f.B.B.y.2.-.-.=.>.>.>...| } L 0 g l & o 1 U.mXzXNXT./ a.4.f.4.] ] a.g.a.p.g.Z.g.^.f.k.G._.).).).+XOX].p.p.].L.h.h.h.C.J.G.G.).@X). XP.I.].&X$XL.C.OX*X%XpXb.N { b ",
"tXuXtXiXA.B.4.4.Z.g.Z.!.~.Z.Z.Z.g.<.<.:.Y Y -.A.F.Z.Z.Z.!.~.F.V.<.4.B.Z.B.Z.F.S.S.B.S.B.<.&.` F.Z.Z.Z.^.`.Z.g.F.u.e c f $   v 0XU.Q.t.U -.| | W ) ) | 1.2.1.=.-.1. .) <.f.f.'.H.L.H.H.H.J.J.J.L.R.4.:.<.p.p.p.:.<.r.:.r.K y f.f.G.H./.l.^.|.Y.A.z * # o $ A GXlXsX}.C.Z.Z.B.Z.B.<.<.4.g.V.F.F.F.Z.Z.j.Z.Z.Z.^.^.^.!.Z.Z.H.^.^.`.^.^.H.H.^.^.`.(.~.Z.g.g.V.!.Z.V.Z.B.!.g.Z.S.) q 9 @ ; @ 7.JXzXtXW.B.` :.A.4.<.L.Z.j.Z.Z.:.) 1.I ..-.| X.r.1.` >.B.B.B.B.B.B.C.D.a.4.M.4.X.+.1.| X.X.1.-._ ..:...` 2.| o.Q 6 - X : : X ;XcXlXyXD.1.<.r.B.B.B.4.5.4.5.B.V.Z.Z.B.B.5.y.B.V.S.V.V.B.B.5.B.B.5.B.V.5.:.%.&.g.Z.Z.g.Z.j.j.j.j.Z.Z.Z.j.j.f.B.A.U c f # 2 + DXKXmXbXY.' 4.B.,.( 4.g.f.f.f.g.g.h.h.f.f.a.<.<.<.:.w.w.L H o.X.-.1.-.` ` :.C.F.F.4.*.B.^.g.<.f.Z.G.G.G.L.P.H.Z.D.M 9 * & O l 9XcXtXtX+. .1...| } } ) I I I } T I I } o.X.X.....X...X.-.1.2.....` ` ..:.4.B.2.1.Y K X.r.2.2.w.=._ =.1.2.r.u.e.t z k 3 % O h 6X7XfXkXdXaX{.,.D.].(.K.,.( a.L.K.Z.K.C.<.a.G.L.L.L.Z.a.<.f.j.g.<.f.H.)././.).).P.p.] 3...K ` / F.[.).).).XXOXK.U S ! , o   S 0X6XxX{.4.1.1.1...R } J T W T X.W | -.1.1.:.:.:.>.:.:.:.:.` _ ) ) p -.r.1.2.B.B.B.B.B.V.B.r.2.1.>.:.>.>...| } L 6 g l & o , U.mXzXNXT./ a.a.a.4.] ] p.f.f.p.g.Z.g.^.f.k.G._.XX).OX].].].p.p.].P.C.p.h.G.G.G.L.].@X). XJ.I.OXrX$XL.G.@XOXOX#Xb.~ { B ",
"tXuXtXiXA.B.5.5.Z.Z.Z.!.~.Z.Z.Z.f.>.>.=.K J -.y.S.Z.Z.Z.!.~.F.V.4.4.V.S.B.S.~.S.S.B.F.B.4.:.` S.F.F.Z.^.`.Z.B.F.t.w z f #   v 0X;XW.t.U X.| | } ) | ..1.2.1.;.=... .) 4.B.f.(.L.L.H.H.H.J.J.J.L.F.<.:.p.<.<.<.,.<.B.r.1.i a L.a.h.H.^.j.Z.F.Y.A.w * # O X b FXlXsX$XB.Z.Z.B.Z.5.>.5.B.V.Z.F.F.^.Z.Z.Z.Z.Z.Z.^.^.^.Z.Z.Z.H.^.^.^.^.^.H.^.^.`.`.(.Z.g.f.f.V.S.S.V.F.V.!.g.V.F.| w * @ ; @ 7.HXzXtX}.4.| :.t.4.4.(.Z.Z.Z.L.<.` X.J -.-.` -.4.1.) / M.B.B.B.a.a.a.D.,.O.:.1.O.1.1.) ..X.1.-.) _ :.-.=.2.-.o.L = # X % : X ;XcXlXyXN.4.4.4.B.B.B.f.4.B.B.B.Z.Z.Z.B.B.B.B.V.V.V.V.B.y.B.5.B.B.5.B.V.4.%.$.4.Z.Z.j.j.!.j.j.g.j.Z.Z.Z.Z.Z.g.B.S.U c f # $ , DXHXxXbXD./ 4.B.>.` 4.h.f.f.g.g.g.g.f.f.f.f.f.<.5.<.r.1.H F o.X.-.1.1.&.:.<.Z.K.Z.<.&.f.F.g.p.h.Z.G.G.G.P.].^.H.D.M 9 * : O l 9X9XtXyX+. .1.) | ..} I I I I } I L L W } o.X...........X.-.1.-.-.` ` ..1.r.B.1.:.) K -.r.2.2.1.` ) ..;.2.4.A.e.t z k 3 % O 4 7X7XnXBXhXaXR.O.C.].).L.,.( p.L.K.C.D.C.a.f.L.L.K.L.D.p.<.f.g.g.<.f.j.^./.)./.H.].h.O.4.1.) ../ Z.[.).).).).OXN.U C ! , o   ! 0X6XxX{.2.-.1.1.X.R } I T R J T R T | -.1.:.:.:.>.>.>.>.:.=.` | | p _ 1.1.1.r.A.B.B.B.V.B.y.2.1.>.=.>.>...| } M 6 g f & o , v.mXzXNXT.) B.4.f.<.] [ <.f.f.f.g.j.f.H.f.k.G._.OXOXOX].].].p.h.].L.h.p.C.L.G.G.).+XOX/.J.J.I.OXrX$XL.P.&XOX.X#Xb.~ #.b ",
"tXyXtXyXA.D.B.g.Z.Z.Z.!.~.Z.Z.Z.g.<.>.=.K J ..y.S.Z.Z.Z.!.~.F.V.5.5.B.B.B.V.~.S.S.B.F.B.4.:.` B.F.F.Z.^.`.Z.B.F.r.w z f #   v 0XU.Q.t.U X.| | } ) ) | 1.2.1.;.;._ )  .4.B.a.L.L.L.H.H.H.J.J.J.L.B.>.,.f.p.<.<.<.>.r.t.2.a _ }.h.z./.l.j.f.5.B.e.0 * = o X b GXlXsX$XC.Z.Z.B.S.5.>.5.S.S.Z.F.F.^.Z.Z.Z.Z.Z.Z.H.^.Z.Z.Z.H.H.^.^.^.^.^.^.^.`.`.`.(.g.f.6.f.V.S.S.S.F.B.Z.6.V.S.| z 9 @ ; O 7.HXzXiX}.1.` | 1.3.4.}.^.Z.h.L.<.` -.J .._ ) -.4.1.) s :.<.f.a.,.<.a.C.O.] :.3.:.1.+.) | X.2.1.) _ =.-...1.1.8.x = = - O : X ;XcXtXtXN.r.4.4.4.B.B.B.4.Z.S.S.S.Z.B.f.f.V.V.V.V.V.B.B.y.V.B.B.B.5.B.B.>.' :.V.~.Z.g.j.!.j.j.j.j.j.Z.Z.Z.Z.g.B.S.U c f # O 2 DXcXvXNXD.' >.>.` ] 4.h.g.f.h.g.g.f.f.f.f.B.g.f.f.4.r.X.e F X.X.-.1.1.:.:.<.Z.Z.Z.<.&.f.F.Z.g.h.Z.Z.G.J.).OX).H.D.M 9 * : O v 9X9X6XyX3.| 1.| -.X.T I ) } T } T L J I } | o.............X.-.1.1.:...` =.4.y.2.1.) Y -.4.2.2.1.=._ =.;.;.2.A.e.M m B 3 % X 4 qXuXVXBXhXaXR.] D.].].].a.[ f.(.G.C.C.C.p.C.(.L.G.K.C.,.*.<.f.p.<.k.j.^././.H.H.).s.:.a.1.) ` / C.).H./.).).OXN.U C ! , o   ! 0XtXxX}.1.-.1.1.X.R T W T P J T T P T ;.1.1.:.:.>.>.<.<.>.:.:.-.1.p ) 1.1.1.r.A.B.f.f.B.y.r.2.1.=.=.>.:.....} M 6 f f $ o , U.mXzXCXT.) B.a.f.4.] ] p.f.B.j.Z.j.f.^.h.h.H._.OXOXOXOX+X+Xs.h.].G.p.p.G.).G.G.].$X].J. XP.P.OXrX$XL.).&XOXOX#Xb.~ #.B ",
"tXtXtXyXN.D.B.g.V.Z.Z.Z.~.^.Z.Z.j.<.4.:.Y P -.y.S.V.Z.Z.!.~.F.V.B.B.B.B.4.B.~.F.S.V.F.B.4.<.` B.F.F.Z.^._.Z.B.F.r.w z 9 #   v 0XU.T.t.I -.| | } ) ) | 1.2.-.=.=.) ) ) a.M.a.L.Z.K.G.H.H.J.J.J.L.4.:.<.g.f.<.<.<.<.4.t.r.) :.'.Z.h./.l.^.j.<.B.q.0 < * $ X b GXvXsX$XD.D.F.V.S.>.>.5.Z.Z.V.F.F.F.Z.Z.Z.Z.Z.Z.H.H.H.H.H.^.^.^.^.^.^.^.^.^.`.`.(.!.6.6.6.g.V.Z.S.S.F.B.V.5.B.S.| w f X 2 O 7.HXzXxXW.` ..X.1.r.a.[.^.h.f.Z.>.` q.} _ Y ) 1.4.2.` s / :.a.4.,.<.a.f.,.,.B.B.3.:.1.| | X.r.r.....-..._ 1.q.q.G = = - O : o ;XcXtXtXN.B.4.<.<.4.B.B.B.F.F.F.F.Z.B.f.f.V.V.V.V.B.B.y.y.V.5.B.V.5.B.B.:./ >.Z.~.V.g.g.Z.g.g.j.j.j.g.g.f.j.g.B.S.U V f = O 3 9X0XvXNXD.( <...` :.a.g.h.f.h.h.g.f.f.f.B.B.g.4.B.4.2.) r F X.X.-.1.>.:.*.,.C.D.Z.4.&.f.^.Z.Z.h.h.C.H.P.).)./.H.D.M 9 * : O v 9X8X6XyXe...1.1.-.| K I | ..) | T J J I W | | | ......| ....-.1.1.:...` ..1.4.r.2._ / -.4.2.2.2.=.=.=.;.%.2.y.r.M m B 3 O X 4 8XnXVXBXdXrXR.O.D.[.+X].f.] C.(.Z.h.C.C.h.Z.(.L.G.K.C.,.*.<.p.<.<.f.Z.^.^.H.H.J.L.p.,.M.1./ ` / f.^.H.J.).).OXD.U C ! , o   ! 0XtXxXW.1.-.1.1.X.R ) | I J P P T P R | 1.2.:.:.>.:.>.<.<.2.2.2.r.K Y -.2.:.4.A.B.f.f.5.y.y.2.1.=.=.:.:..... .V 6 8 f $ o , v.mX7XCXK.) B.a.B.4.] ,.a.C.Z.Z.Z.Z.g.^.Z.Z.H.).).).).].OXOXs.s.].G.a.d.L.).G.G.OX$X).J.J.P.P.$XaX$XL.P.-X%X%XrXN.~ #.B ",
"tXyXtXyXA.B.B.g.g.Z.Z.Z.Z.^.L.Z.g.<.4.2.) Y 2.S.S.S.Z.Z.!.~.F.S.B.B.B.f.4.B.F.S.S.V.S.5.4.4.&.B.F.F.Z.^.`.Z.B.F.t.w z f #   v 0XU.Q.t.I -.| | } ) ) | 1.1.-.=.;.| ) ) 4.B.a.L.C.K.G.H.H.J.J.J.L.4.:.<.g.g.p.a.<.4.r.r.1._ :.B.H.h.).h.^.Z.4.Y.t.0 9 3 $ X A HXcXsX$XD.B.F.V.S.>.$.5.Z.S.V.~.~.Z.Z.Z.Z.Z.Z.Z.H.H.Z.H.H.H.H.H.Z.Z.^.^.^.`.`.^.!.Z.6.6.6.g.Z.Z.Z.S.F.B.V.5.g.Z.) w j O 2 O 7.HXuXNXD./ :.4.2.t.<.(.^.g.<.f.` ) q...) J ) 1.4.4.O.K / :.a.4.,.<.a.a.3.3.D.D.1.` | | | -.t.t.1.-.=.` / -.-.t.E = - X + : o :XcXlXtXN.r.4.<.<.4.B.B.B.Z.Z.Z.Z.Z.V.C.B.S.V.V.B.B.B.B.B.V.5.B.B.B.V.B.:.` 5.~.Z.V.g.j.j.g.g.j.j.Z.g.f.6.g.g.B.S.U V f & O 3 qX9XxXbXD.&.B.:.:.4.f.h.h.f.h.g.f.f.f.g.B.B.f.<.4.2.1.K y H -.X.-.2.2.:.:.,.B.C.Z.f.*.f.^.Z.Z.g.f.h.H.).).P./.H.D.N 9 * & O b 9X8X6XyXe...2.r...K H Y ..| ) | W I L I W | | | | ..........-.-.:.:...` ..1.4.y.r.../ ..2.2.2.2.:.=.-.;.%.;.4.e.M z k 3 O O 4 cXMXVXkXrX&XL.] Z.+X+X].f.] h.L.C.a.C.Z.C.G.(.L.L.L.Z.a.<.<.p.<.<.f.Z.^.^.H.H.J.L.h.,.B.3.) ../ a.^.H.H.).P.OXN.U C ! , $   ! cX6XxX}.1.-.1.1.X.R } ..P H R J I Y K T -.2.:.:.:.:.>.<.4.4.4.r.t.) K ..r.1.4.S.B.g.f.B.B.y.y.1.=.$.:.:.:.X.X.H 6 8 3 O o 1 v.mX7XNXK.' B.f.B.4.] p.p.C.Z.Z.Z.Z.Z.`.^.H.H.).).).).).].].p.s.OXP.h.d.J.).L.L.OX$XOXJ.P.P.P.$XaX$XL.P.-X@X%XdXN.~ { b ",
"tXuXtXyXN.B.f.g.5.Z.Z.Z.Z.^.L.Z.g.<.4.2.) R 2.S.F.S.Z.Z.!.~.F.S.B.B.B.B.f.Z.F.B.F.Z.Z.4.4.4.:.B.F.F.Z.^.`.j.f.S.t.e c f $   v 0X;X<XT.I -.} | } ) ) | 1.1.-.=.;.:.` ) 4.B.a.L.C.K.G.J.J.J.J.J.H.B.>.,.f.f.p.4.<.r.A.2.K / :.a.).z._.k.H.Z.>.Y.t.0 9 f $ X A JXcXsXpXD.B.F.Z.S.:.$.5.Z.S.Z.~.(.Z.Z.H.Z.Z.Z.Z.Z.Z.Z.Z.H.^.Z.Z.Z.Z.H.H.^.`.`.^.Z.g.6.6.f.g.Z.Z.S.S.F.B.Z.f.V.S.) w k O ; @ 7.FX6XnXD.a :.1.X.4.:.Z.^.f.<.a.' K 1.X.) J ) 2.2.2.:./ / :.4.,.,.4.a.a.O.:.a.B.:.) | | | X.r.r.1.:.1.` ) 1.X.t.8.= - O + 2 o :XcXlXtXM.4.4.4.4.y.B.B.B.V.Z.Z.Z.Z.V.B.B.F.V.V.B.B.B.B.B.B.5.y.B.B.V.B.:.:.B.~.V.B.Z.Z.g.g.j.j.j.j.g.g.f.j.j.Z.S.U c f & O 2 1XqXcXiXM.:.S.] :.B.f.h.Z.f.g.g.g.f.f.h.h.C.f.:.<.:...p y I -.X.-.2.<.<.<.<.g.C.L.C.<.f.Z.Z.g.f.f.h.G.P.P.P./.H.L.N 0 * & X A DX8X6XvXe.X.2.r.| J J ) | | ) | T I L I W } } ) | ........X.-.` ..:.=...=.2.r.A.y.../ ` 1.2.4.y.1.=.1.>.=.;.2.e.t z k 3 % O h cXnXBXfX&X#XK.' K.+X+X].a.[ f.L.f.a.Z.L.Z.Z.(.L.L.(.L.p.<.p.p.<.p.f.Z.^.`.^.H.J.P.p.:.M.4.| X./ B.^.H.J.).P.P.N.U C ! , $   ! cX6XxX{.3.:.1.1.X.} _ -.R P } T W } Y Y ..1.:.:.:.:.>.<.<.4.2.r.r.| a ) r.1.r.S.y.B.g.V.V.S.y.2.>.$.:.:.:.1.X.L 6 8 ; $ o < ;XmX7XCXK.' B.f.B.4.] a.a.h.Z.Z.Z.Z.Z.^.^.^.H.).XXXX).).].].p.s.@X).G.p.G.).P.P.OX$XOXJ.P.P.P.$XaX$XL.).-X%X%XrXN.~ { b ",
"yXuXtXyXN.B.f.g.5.Z.Z.Z.Z.^.L.Z.Z.5.4.1.Y R 1.S.F.Z.Z.Z.!.~.F.S.B.B.Z.S.B.F.F.B.F.Z.V.4.4.5.:.B.F.F.Z.^.`.j.f.S.A.M c g #   v 0X<X,XT.W -.W | | | | | X.-.-.=.;.2...) 4.B.B.L.C.K.J.J.J.J.J.J.L.F.<.,.f.p.p.4.<.r.Y.1.e s ,.f.$X).+Xk.Z.g.$.y.8.9 9 f $   A JXcXsXpXD.B.F.Z.V.$.$.5.Z.Z.Z.(.(.Z.Z.H.^.^.^.Z.Z.Z.Z.Z.H.^.H.Z.Z.Z.H.H.^.`.`.L.Z.f.6.6.g.g.Z.Z.S.S.~.Z.F.g.V.F.) w j O : @ ! cX6XxXD.a `  .K X.` Z.^.f.<.a./ a X.X.| K | r.1.1.:.s / ] ,.:.*.4.a.a.] ( <.B.1...:.1...X.2.2.:.:.2.=._ 1.| q.8.= - % & 2 o :XcXtXtXM.:.<.B.B.B.B.B.V.S.S.S.Z.Z.B.g.f.F.V.B.B.y.B.B.B.B.5.5.B.B.V.B.:.4.F.~.V.B.Z.!.g.j.j.g.g.g.g.V.Z.Z.Z.S.Y.U c 9 = O , :XqXmXyXr.>.B._ ] f.f.h.Z.f.g.g.g.g.g.h.h.B.5.:.>.:.| p y ) -...-.2.4.4.4.a.B.D.(.Z.<.f.Z.h.p.f.g.h.Z.H.J.J./.H.L.N 0 * & @ A DX8X6XyXe.X.2.r._ J I | | } | | T I L I W } } ) _ ....X.X.-.:.` -.:.:...=.1.r.S.B.=./ ` :.2.4.V.2.1.4.5.2.2.r.e.t z k 3 % O l wXgXBXfX&X#XC.' L.$X$X[.f.] f.L.a.a.G.L.Z.Z.L.K.K.L.G.p.<.p.<.<.p.f.H.^.^.^.H.H.).p.( 4.4...../ B.).H.J.J.I.P.d.U C ! , $   ! cX6XbX{.4.1.2.1.X.| } 1.T T q.X.-.-.R P | 2.1.:.:.>.<.<.<.2.1.2.2...p ) 2.1.r.S.4.B.g.B.V.V.y.2.>.=.:.:.:.1.X.U 6 8 ; $ o < ;XmX7XCXK.' B.f.B.4.] a.p.f.Z.Z.Z.Z.Z.^.^.^.H.).OXOXOXOXOXOXp.s.OX).G.p.G.).).).OX+XOXJ.P.P.).$XaX$XL.OX-X%X%XrXN.^ { n ",
"xXxXyXiXA.B.5.5.g.g.g.!.(.^.Z.g.Z.Z.V.2._ R -.A.F.Z.Z.!.!.~.F.F.Z.4.B.S.B.B.F.F.S.B.B.4.4.>.` B.F.B.^.Z.Z.^.g.B.N.M m g =   v 0X,X<XT.U } -.| R ) | ) 1.1...;.| 1...1.M.B.D.L.^.L.J.J.J.P.P.J.G.C.:.a.f.f.g.f.B.A.Y.X.y ` 4.L.[.L.).H.g.$.:.t.U 9 k # &   A HXcXsXpXA.D.~.F.V.&.$.V.~.Z.!.~.Z.^.Z.H.Z.Z.Z.Z.Z.Z.H.H.Z.Z.Z.Z.H.H.Z.^.^.^.^.`.Z.6.6.6.5.g.Z.!.Z.V.F.B.V.V.V.B...q h . ; O 7.qXzXiXY./ ) ) 1.) :.(.^.H.*.f._ ` X.| K J K 2.r.1.>./ s 4.,.] ] :.a.,.] :.4.B.4.:.:.4.| X.2.4.:.:.2.` :.:.r.q.i.6 - - & O + :XmXzXeXN.1.<.B.S.S.B.B.S.S.S.F.F.S.B.f.4.B.B.V.V.B.B.5.5.5.V.B.5.5.V.B.>.S.V.V.V.Z.Z.Z.j.j.j.j.j.j.j.V.g.j.j.V.S.U c f & O , :XqX6XW.M.,.B.` ,.4.f.H.Z.H.h.h.h.h.f.f.g.B.5.B.:.2.) y J -.1.1.1.:.>.<.4.f.f.C.L.(.Z.Z.Z.Z.f.h.j.h.G.H.J.).^.H.C.N B f $ X b 0XcXtXyXN.4.3.y.| p a ) ..| ) | } Y J J I } | ) _ | ......-.:.....` / / ` 2.y.B.A.4._ Y ` 2.y.B.y.5.2.2.2.4.r.1.t m D 3 O O h 8XuXgXBXOX#XM.] D.(.aX=X].[ ,.[.C.C.h.f.C.L.L.K.).L.C.<.<.p.p.<.p.<.^.^.Z.H.G.H.P.*.] D.2. .:.s B.L.G./.).J.L.N.N Z ~ , ,   ! FXvXyX3Xr.r...X.| ....| | | | -.-...} P ) r.r.:.:.>.>.>.>.1.1.2.2.1.a K 1.r.r.B.B.f.4.g.V.V.r.2.5.&.>.>.>.1.X.x 7 f ; $ , < ;XHX6XNXW.` a.f.a.<.,.<.C.g.f.Z.Z.g.g.H.^.^.H.^.).).).).OXP.x.J.P.P.s.*.J.XXP.OX@XOX).J.J.).@X&X$X+X].@X&X%X&XpXN.{ { n ",
"xXxXiXiXD.D.f.g.V.g.g.!.(.^.Z.g.Z.Z.V.2._ R ..r.F.Z.Z.!.!.~.~.F.V.4.B.F.Z.V.F.F.F.B.Z.f.5.<.` B.F.Z.!.j.j.^.V.S.N.M m g =   v 0X2X2XT.U W -.| R ) | ) -.1._ ;.| :.` O.4.B.Z.L.L.L.J.J.J.L.L.J.G.Z.<.g.C.f.C.B.A.A.S...y ' <.Z.H.G.H.Z.6.d ` r.U 9 k # &   A GXcXbXpXB.D.F.V.B.$.%.V.~.Z.!.~.Z.^.H.H.Z.Z.Z.Z.H.H.H.H.Z.Z.Z.Z.H.^.H.^.^.^.^.!.g.6.6.6.5.g.Z.!.Z.V.V.B.V.V.V.B.X.w f X ; O 7.8XzXiXR./ | ` X./ >.(.).Z.*.a.( ..X.) K K K 2.2...:./ / a.,.*.:.,.a.,.] *.a.D.B.1.:.2...X.2.4.:.1.2.` ` =.w.q.i.6 - X & o o :XmXzXeXN.4.<.4.B.B.B.B.S.S.S.S.F.Z.Z.B.f.B.B.V.B.B.B.5.5.B.B.B.B.y.B.5.>.S.S.V.V.Z.Z.Z.j.j.j.j.j.g.g.V.j.g.g.B.S.U c f = O + m.qX6XW.M.>.4.( <.f.g.H.Z.H.h.h.h.h.f.f.g.B.F.4.=.1.i y ..1.1.1.:.>.<.<.a.f.Z.C.^.^.g.Z.H.Z.f.f.h.h.G.J.).XX^.H.D.N m f $ X v 0XcXtXyXM.4.<.r...K Y | ..| ) | | T I I T } | | | | ......X.-.....` ) ) =.4.A.B.A.4.` ) ..4.B.5.5.4.2.2.2.4.4.1.t m B 3 O O h mXVXnXAX#X$XK.,.B.L.aX$X].] <.].f.h.f.f.C.L.L.L.L.K.f.<.<.p.f.<.p.<.^.^.Z.H.G.G.).*.:.D.r...1./ 4.H.H.)./.J.L.M.N Z ~ , ,   ! FXlXyX3X4.r...X.| ....| | | ..X.-.} } Y R 1.r.2.2.>.>.>.>.1.1.2.2.1.K K X.4.r.B.B.f.f.g.V.y.2.>.>.$.>.>.:.1.X.H 7 f ; % & , ;XHX6XNXW.` a.4.a.,.*.] p.h.C.^.Z.f.<.Z.Z.H.H.).).).).P.OXP.x.J.P.P.s.x.P.XXP.OX@XOXXX).XXOX$X&XrX$XOX@X&X%X&XrXN.{ { n ",
"xXxXiXiXD.D.B.g.Z.Z.Z.!.(.(.Z.g.Z.Z.V.2._ R _ 2.F.Z.Z.Z.Z.~.~.~.V.4.B.F.S.S.F.F.F.B.S.B.B.<.` 5.~.Z.!.j.j.^.Z.F.A.M m g =   v 0X<XW.T.U } -.| I ) | ) X.X.) ;.=.X./ ..<.B.Z.L.L.L.J.J.H.J.L.L.G.C.<.g.h.f.f.4.B.t.u...e ..4.Z.H.C.D.Z.<.a / u.I 9 k # &   A GXcXNXpXB.B.F.B.5.( %.g.!.Z.~.!.Z.!.H.Z.Z.Z.H.H.H.H.H.H.Z.Z.Z.^.^.^.^.^.`.`.!.g.f.k.6.6.f.g.Z.!.Z.V.B.B.V.g.B.B.+.z f @ ; @ 9.qXuXiXR.s :.1._ K <.L.`.Z.[ p.` :.X.} R Y ) r.4...:./ / f.,.:.,.4.C.4.[ *.a.F.D.4.:.1.X.:.4.4.:.1.2.=.` ` 1.-.i.6 - X & o o :XmXzXeXN.r.<.2.4.4.B.B.Z.S.S.S.F.S.Z.C.B.B.B.B.B.B.B.5.5.B.B.B.V.V.5.4.4.S.S.Z.Z.Z.Z.Z.j.j.j.j.j.g.j.V.Z.g.g.B.S.U c f $ O + n.1X6XW.N.>.&.' 4.h.g.Z.j.j.h.h.j.h.f.f.f.B.F.>.:.-.y e r.1.1.1.>.<.4.f.f.g.^.H.^.^.g.h.^.^.j.j.j.h.G.J.).OX/.H.D.N m f $ X v 9XcXtXyXM.3.1.r.-.) _ X...| ) | ) T I I I ) | | | ....| ..X.-.` ` _ _ ` :.y.S.B.B.y.:._ ` 4.B.2.2.2.2.6.2.2.2.1.t m B 3 O O h mXZXVXkXE.$XL.,.,.G.aX[.).*.a.].a.f.f.f.C.L.L.L.L.G.f.,.<.p.p.<.<.*.^.^.Z.^.H.H.).,.O.D.M...1._ ] H.H.J.H.J.P.d.N Z ! , ,   ! FXlXyX3X2.4.` ..) ........| | | ..R } R Y ..w.2.4.>.>.>.>.2.2.2.2.1.) K _ 1.r.y.B.B.f.5.B.y.4.:.$.&.:.>.:.2.X.H 7 f ; % & , ;XHX6XNXW.` a.4.a.,.] *.a.C.Z.^.Z.f.<.j.Z.Z.H._.XXXX).).XXJ.x.G.J.P.h.s.XXXXP.XX@XOXXXXXXXXX@X&XrX$X].@X&X%X&XrXN.{ { n ",
"xXnXxXbXD.S.B.B.S.Z.Z.!.(.^.Z.C.g.V.V.4...) ..2.F.Z.Z.Z.Z.~.~.~.V.<.4.F.F.Z.F.F.S.B.S.B.B.4.` <.F.B.^.Z.!.`.Z.~.A.M m j =   v 0X<X<XT.I | -.W J Y | ) X.| Y =.;.X.)  .<.B.F.'.L.K.J.J.H.P.P.L.G.f.*.f.g.<.<.<.B.2.1.) p 1.B.^.H.h.C.Z.<.i Y A.I 9 k # &   A GXmXCXpXB.B.S.5.4.' $.V.!.Z.!.^.Z.Z.H.H.Z.Z.H.H.H.H.^.Z.Z.Z.!.^.^.^.`.^.(.`.Z.<.<.f.5.f.g.V.Z.Z.Z.V.B.f.V.g.g.B.+.m f O : @ 9.8XuXiX}.s 1.2.) K 4.Z.^.Z.&.a.` X.1..._ Y ) r.r.-.:.) / B.4.:.<.a.C.a.:.,.B.L.D.3.:.1.1.1.4.4.:.>.<.:.` ` 1.-.i.6 - X & o o :XmXxXeXN.r.<.1.<.r.B.B.B.S.S.S.Z.B.B.B.B.V.V.V.B.B.B.5.5.V.5.5.V.V.4.>.4.S.S.Z.Z.Z.Z.Z.j.j.j.j.j.j.j.V.Z.Z.Z.Z.Y.U c 6 # O + v.<X6XW.A.<.` ' f.C.g.Z.j.Z.k.h.j.j.h.f.f.B.B.2.:.` p K 1...1.1.<.4.f.f.g.g.^.L.(.^.j.j.^.^.Z.H.Z.G.G.J.).XX/.^.K.N m < o X v 9XcXtXyXM.3.1.r.1.X.X.-...| _ ..| } ) I I T | ........| ..X.-.` _ ) _ ` =.r.S.B.B.B.<._ _ :.B.4.2.2.2.2.2.2.2.1.t z B 3 O O h cXZXBXfXK.#XD.] ] Z.aX[.].,.f.(.C.C.C.C.C.L.L.L.L.D.p.,.<.p.p.<.<.*.^.^.Z.^.H.H.P.,.] D.B.) ..` ' Z.).H.H.J.P.d.N Z ! , ,   ! FXlXvX3X2.4...X.| ;.=.....| | | | I | } K _ 1.2.4.<.<.<.<.<.<.4.2.2._ K Y 1.4.r.B.Z.f.5.B.y.y.2.=.>.<.>.:.1.X.U 6 g ; % & , ;XHXzXNX{.O.f.f.B.<.] a.C.h.f.Z.Z.j.Z.Z.j.j.H.).).XXOX).XXJ.x.H.J.P.z.G.XXXXP.XX@XXXXXJ.J.).OX$X$X+X].@X&X%X&XrXN.{ { n ",
"xXnXxXbXD.D.B.V.!.!.Z.!.(.(.Z.Z.g.V.V.y.-.} ;.2.F.Z.Z.Z.Z.~.~.~.S.<.4.F.F.V.S.F.V.B.S.f.f.4.` >.Z.B.^.!.^.`.Z.F.A.M V j =   v 0X<X<XT.I | -.W J Y | ) ..| Y =.;.X.) ` <.B.L.].L.K.G.H.H.J.J.J.G.a.*.f.h.<.4.<.A.X.} I p 4.B.^.Z.,.s.D.<.i / t.E 0 k # &   S JXmXCXpXB.B.V.<.>./ &.V.!.Z.^.^.Z.Z.Z.Z.H.H.Z.Z.Z.Z.^.^.H.H.^.^.^.^.`.^.^.^.j.<.<.f.f.f.g.Z.S.Z.Z.V.B.B.V.g.g.B.+.w 9 $ : > 9.cX6XiX{.a O.1.| ) 4.B.`.^.<.f._ ` 1.-.| K a 1.r.X.O./ / B.4.:.<.a.C.a.a.a.D.F.D.3.O.:.1.1.4.2.:.>.4.:.:.=.1.-.i.6 - X & o o :XmXzXeXN.4.4.4.4.B.S.Z.B.F.F.S.Z.B.5.5.f.V.V.V.B.B.y.5.5.V.5.5.V.V.2.>.5.V.V.Z.Z.Z.Z.Z.j.j.j.g.j.g.Z.Z.Z.^.!.F.Y.U z 6 O & + n.1XtX3XD.4.` ( f.h.f.Z.j.Z.k.h.j.j.h.g.g.B.4.B.-.K ) | ) -.1.>.<.4.4.f.f.f.H.G.).).Z.Z.^.^.^.^.H.l.H.J.).XX/.^.L.N m < o X v 9XcXtXyXM.3.1.r.2.-.-.X.| | | -.....| ) I ) ..........| ..X.1.` ) ) _ _ ` 1.B.4.B.S.y.` s ` y.y.y.5.2.>.>.2.2.1.t z B 3 % O h cXLXAXkXE.$XK.] ] C.aX+X[.p.f.(.Z.K.L.D.Z.L.L.L.L.G.a.,.<.p.<.*.p.<.^.^.Z.^.J.H.).,.] D.A.)  .` ' Z.).J.H.J.).d.N Z ! , ,   ! FXvXbX3X1.4.:.1.X.-.=.....| | | | T -...Y Y ..1.2.2.>.>.>.4.2.w.w.2.-.K K -.r.r.B.B.f.f.g.V.S.5.>.5.6.<.>.4.1.U 6 g f & & , ;XJXzXNX3X:.B.B.D.a.:.h.Z.g.a.g.Z.Z.^.^.j.h.G.).).).OXXXXXJ.x.J.J.).G.J.OXXXP.OX*XXXXXJ.J.).OX$X$X#X].@X&X%X&XrXN.^ { n ",
"xXxXxXbXY.F.B.V.Z.Z.Z.!.(.`.L.Z.Z.!.F.y.1.| ;.2.F.Z.Z.Z.Z.~.~.'.F.<.<.S.S.B.Z.F.V.B.S.4.f.5.` >.Z.B.(.^.^._.Z.S.A.M c j =   v 0X<XW.T.I | -.W P Y | ) X.| ) =...X./ ..4.B.F.'.L.L.G.H.H.J.J.J.G.,.] f.f.<.,.>.B.q.} ) K B.Z.^.h.,.G.C.:./ -.u.E 0 k # &   S JXJXCXpXB.A.B.:.$./ >.Z.!.j.!.^.Z.H.Z.H.H.H.Z.Z.Z.Z.^.^.^.^.^.^.^.`.^.^.^.Z.f.<.<.f.f.g.Z.Z.S.Z.Z.V.V.B.g.f.g.B.X.w * & : > 0.cX6XiX{.K ..1.1.) 4.C.[.).p.B._ ` q.w.-.Y p 1.r.:.O./ ) B.4.:.:.<.C.a.h.f.C.F.B.,...O.1.1.4.2.:.>.4.:.:...1.-.i.6 -   & o o :XmXzXeXN.<.4.y.B.B.S.F.V.F.F.S.B.5.4.4.f.V.V.V.B.B.B.y.y.V.5.5.V.B.2.2.B.V.V.Z.Z.Z.Z.Z.j.j.j.j.j.j.Z.Z.Z.`.(.F.Y.U z 6 # & , m.qXlX3XD.4.&.` g.g.f.Z.Z.j.k.h.j.j.h.h.g.g.y.A._ i | :.K 4.>.:.>.<.<.<.<.p.H.G.).).Z.Z.^.^.Z.H.l.G.H.).XXOX/.^.L.U m < O X v 9XcXyXyXN.4.1.r.2.1.1.-...| ....| | | T J K ) ......| | ..-.1...) / ) ) ) =.r.y.B.B.B.$.s ' 2.V.B.5.2.>.>.2.2.+.w z B 3 % O h cXVXAXBX#X$XD.] ] C.aX$X$Xa.a.L.K.L.L.G.Z.L.L.L.).G.a.,.<.f.f.<.p.<.^.^.Z.^.H.J.).p.] L.Y.) ` 3.' h.H.J.H.J.P.a.N Z ! , ,   ! FXvXbXeX3.4.1.w.-.=.=.-.;.| | | | } -.X.Y Y | ;.2.<.<.<.<.4.4.r.r.2.1.K p X.r.4.B.g.g.g.B.V.S.V.5.g.f.<.>.2.1.U 6 k f & & , ;XJXzXNXeX3.B.D.F.B.,.a.C.C.f.Z.Z.h.Z.^.h.f.Z.).P.).OXXXXXJ.x.J.J.XXJ.P.OXXXP.OXOXXXXXJ.J.XX$XrXrX+X].@X&X%X&XrXN.^ { n ",
"xXxXxXbXD.F.B.V.S.Z.Z.!.(.`.(.L.!.Z.F.B.2...-.2.F.Z.Z.Z.Z.~.(.'.'.<.<.S.S.B.B.F.S.Z.S.4.B.B.:.4.Z.B.^.!.^.`.Z.S.A.M c j =   v 0X<X<XT.I | -.} I ) | / X.X._ ;.| ../ ..<.a.C.L.L.L.G.G.H.J.J.J.G.,.( f.f.*.&.:.r.A.| | | S.F._.j.,.L.f.` ` 2.t.} 0 k # $   S JXJXNXpXA.A.y.` %.' 5.~.~.g.!.^.Z.Z.Z.Z.H.H.Z.Z.Z.Z.^.^.^.H.^.^.`.`.H.^.Z.g.p.<.p.p.f.g.Z.Z.S.Z.Z.S.Z.B.5.5.B.Z.X.0 * ; : > 0.FX6XiXW.) 1.1.r.` <.(.[.`.<.f.` :.u.A.w._ K r.t.X.O./ _ Z.a.:.&.:.C.C.C.a.C.F.B.>.....1.1.2.1.` :.4.:.` _ X.X.i.6 -   & o o :XmXzXeXN.1.r.B.B.B.S.F.S.F.F.S.B.4.4.f.g.F.V.V.B.B.B.B.B.B.5.5.B.5.4.5.V.V.V.V.V.Z.Z.Z.j.j.g.j.j.j.Z.Z.Z.`.^.F.S.H z 9 $ $ , :XqXlX>XD.4.:.&.C.h.f.^.Z.h.k.h.j.j.j.h.f.g.B.2.) p ` 1.) 4.>.:.:.:.<.<.p.f.^.H.^.^.j.j.^.^.j.Z.H.H.H.J.XXoX/.).L.U m < O X v 0XcXzXyXN.4.1.r.2.1.2.2.-...| | ) ) | I p H Y ......| | ..:.1...) / _ ) / ` 4.B.B.B.B.2.' _ >.y.y.5.4.6.2.2.2.+.w j k 3 O O h cXMXgXBX#X#XN.] *.f.=XaX=X<.p.L.K.L.L.G.Z.G.L.L.L.C.a.,.<.g.g.<.f.p.`.^.Z.H.G.H.).a.] R.'.| ..B.( f.h.H.J.J.P.a.N Z ! , ,   ! FXlXbXeX2.r.2.r.1.1.1.=.-.;.| X.X.X.-.| T ) _ ..r.<.<.<.<.4.4.r.r.2.r.K p ..r.2.B.f.j.Z.B.V.S.V.g.g.5.<.:.2.1.I 6 k f $ & , ;XJXzXNXeX3.Z.S.(.D.,.<.C.C.g.Z.Z.g.g.Z.f.k.G._.).).XXXXP.G.x.J.J.XXJ.P.XXXXP.OXOXXXXXJ.J.XX@XaXrXOXP.@X&X%X&XpXb.^ { n ",
"xXxXiXbXD.D.B.V.Z.g.Z.!.(.'.(.L.Z.V.V.y.2.-.2.y.F.F.Z.Z.Z.!.(.'.'.<.>.V.Z.B.B.F.F.S.F.5.B.B.>.4.F.B.^.Z.!.`.Z.S.A.M c j =   v 9X,X>XW.I X.-.} K ) | ) X.1._ ;._ _ ) ..<.4.B.K.L.H.G.J.H.J.L.J.G.<.*.C.C.<.:.:.r.A.| | X.S.L.[.Z.] L.:.s ' 1.q.E 0 k O $   A JXJXbXpXD.A.4._ ` ( V.(.^.j.Z.^.Z.!.Z.Z.H.^.H.Z.Z.Z.^.^.^.^.^.^.`.`.Z.^.Z.f.<.f.f.6.f.g.Z.Z.S.V.Z.S.F.y.4.5.V.S.+.0 * ; : > 0.FX6XiXW...4.2.r.` >.}.).H.*.f.:.r.Y.Y.w._ / r.r._ ` / ` F.B.:.] *.C.C.p.p.h.Z.D.,.` ` 1.1.2.:...:.2.:.' / | | 8.6 -   & o o :XmXzX3XN.>.y.B.B.B.S.F.F.S.F.S.B.5.4.f.V.F.F.V.B.B.B.B.B.B.B.5.5.4.4.B.V.V.V.S.V.V.V.Z.j.g.g.j.j.j.Z.Z.Z.^.Z.Z.A.H z 9 = O , :XqXlXW.A.4.:.&.C.j.h.^.j.k.k.h.j.j.j.h.g.g.A.) ) Y ` 4...:.>.>.:.<.<.f.g.h.).^.`.^.f.j.^.^.Z.H.H.H.H.J.P.)./.).R.^ m < O X v 0XmXxXiXB.<.2.4.1.1.r.r.1...| X.| ..X.) J J | | ..| | | X.1.2.X.) ) _ ) / ..4.F.r.4.B.B.:.` :.y.5.5.5.5.2.2.2.@.w j k 3 O X 4 mXMXgXAXOX#XC.,.,.a.$XaXaX,.,.L.G.L.L.Z.D.G.L.L.L.C.<.,.a.Z.Z.f.f.p.`./.G.H.G.G.L.p.] L.}.....A.] a.f.L.P.G.J.a.N Z ! < ,   ! FXlXbXeX1.r.2.t.1.1.1.1.-.;.;.X.X.X.-.| } | ) ..r.<.<.<.<.<.4.2.4.2.r.Y i ..r.1.B.g.Z.Z.V.B.V.V.B.g.6.>.:.1.1.U 6 k 3 $ $ $ ;XJXzXNXpX3.Z.Z.(.Z.<.a.C.Z.g.Z.H.Z.Z.f.<.p.H.+X_.).).XXP.G.x.J.J.XXJ.J.XXP.P.OXOXXXXXI.J.).@X&X&X#XP.@X&X%X&XrXN.~ { n ",
"xXnXnXiXD.D.Z.Z.Z.Z.Z.Z.!.^.^.`.F.V.4.<.1._ ) 4.S.S.S.F.^.`.`.(.(.V.<.B.B.:.B.~.F.F.B.B.B.B.4.>.A.S.L.H.Z.Z.Z.F.A.M c f # $ A 0X,X>XT. .-.} | Y ) X.) +.1._ | ;.| ..) 1.a.a.G.L.J.H.H.J.H.H.G.C.<.4.B.B.<.` <.Y.r.../ O.L.].(.].a.S.>.a d O.@.{ 0 9 # *   S HXmXCXyXA.R.1./ d $.V.Z.!.^.!.Z.Z.Z.Z.^.Z.Z.Z.^.Z.p.Z.^.^.Z.Z.^.`.`.^.Z.g.f.5.5.5.g.Z.Z.Z.V.V.B.B.B.4.4.5.5.5.B.X.z * O : @ 0.HXzXiXY./ | X.A.>.a.[.[.^.<.( ,.a.B.S.X.K ) r.X.K / / ..a.D.f.4.C.Z.Z.h.h.j.Z.h.<.:.:.4.1.1.1.-.1.r.>.' / ..| 8.6 - - O + + :XGXlXW.D.B.B.B.B.B.B.Z.S.Z.S.S.B.B.f.B.B.B.B.B.B.B.B.y.y.y.V.V.4.>.5.V.V.B.V.Z.V.V.Z.Z.g.g.j.Z.Z.g.j.Z.^.H.h.Z.Y.I z * = & 2 ;X0X>XeXD.a.( 4.C.h.Z.j.p.k.k.k.j.Z.Z.j.h.B.<.) ) O.:.:.1.:.:.:.:.<.<.,.<.f.).H.H.Z.Z.Z.^.^.^.H.H.H.H.J.).XXXX_.R.N n < $ O v cXmXuXiXD.a.4.4.4.2.4.4.2.-.| | _ | -.| T T } } | X.....-.1.1...X.) Y -...) :.S.B.B.B.r.:._ _ :.y.B.5.5.4.>.<.+.w j k 3 % O h wXMXBXdX@XOXK.4.,.Z.$XaX(.f.a.G.G.).C.p.C.P.K.G.L.L.a.&.<.Z.Z.H.g.C.H.H.H.H.H.L.].p.,.R.E.O.' N.3.:.&.C.L.G.I.M.N S ! $ , @ ! FXlXxX3X1.4.1.r.2.y.r.1.| | ;.-.| | | } R R _ -.2.4.4.>.2.4.4.2.2.2.1._ p Y y.y.B.B.Z.Z.V.V.S.V.g.g.5.>.:.1.X.P 6 j h $ o , :XHXmXNX#Xf.Z.^.Z.Z.,.p.Z.Z.h.H.^.^.`.h.p.j._.+X+XOX).XXXXp.s.).P.).J.P.XXXXXXOXOXXXXXI. XOX@X&XOXL.P.&X&XrX#XpXN.~ { Z ",
"uXnXnXiXD.K.D.Z.Z.Z.!.!.!.^.^.(.Z.B.B.B.4.` / >.F.S.S.F.(.(.^.^.(.B.<.B.B.:.B.F.S.S.B.B.B.B.5.<.S.D.(.^.^.!.Z.F.A.x c g # O A 9X,X4XW. .-.} | R ) 1. .1.2...=.;...X.) 1.B.a.L.J.J.H.H.H.H.G.D.C.&.>.B.S.r...:.t.:.` ' ,.'.].Z.D.4.S.4.' ( 3.+. .0 9 # *   ! HXcXCXsXA.D.../ ` <.Z.Z.!.!.Z.Z.Z.Z.Z.^.Z.Z.Z.Z.g.<.Z.^.^.Z.Z.^.`.(.!.j.f.6.5.g.g.g.V.Z.Z.Z.V.V.B.B.r.4.4.5.5.B.X.z * X : > 0.HXzXiXW.) ) | M.:.<.].[.^.a.,.a.B.B.Y.1.p ) r.-./ ) ` :.a.B.f.a.B.Z.h.j.h.j.l.h.p.,.>.>.:.2.1...1.2.:.' / ..| 8.6 - - O + + :XGXlX>XD.B.B.B.B.B.V.S.S.S.S.Z.B.4.4.4.5.f.g.B.B.B.B.B.y.y.y.y.4.2.5.V.V.5.5.V.Z.Z.Z.Z.g.g.Z.Z.Z.g.j.Z.^.Z.h.D.Y.I z 6 = & , m.0X,XeXD.4.:.f.C.h.Z.Z.f.h.k.h.j.j.Z.j.h.C.>.) ) O.:.1.1.:.,.:.:.:.,.<.<.h.).).H.H.H.Z.Z.H.H.H.G.H.H.P.).XXXX_.E.N j < $ X v cXmXiXiXD.f.4.4.2.2.4.4.2.-...| _ | -.| T W | } | ..| ..-.1.-.1.1.) ) X...) -.Z.B.f.B.B.1.` _ 1.B.A.B.B.4.>.4.@.w j k 3 % O h wXMXBXdX#X{.D.d.] B.}.sX+Xf.p.].G.L.C.p.C.L.J.G.L.(.f.&.<.C.Z.Z.Z.H.L.^.L.H.G.H.^.<.,.L.L.[ ^ 3.4.>.$.B.F.G.P.M.M C S $ , @ ! cXlXyX3X1.4.:.4.1.w.w.-.| | | | _ | | | ) Y T ..1.4.2.2.2.4.4.4.2.2.2...p Y r.y.F.B.V.V.B.B.V.V.5.g.f.<.:.2.1.E 6 j 4 O o , :XHXmXnXOXa.j.^.Z.C.*.p.Z.j.h.Z.H.Z.^.h.<.h._.oXoXOX).XXXXp.s.P.P.).J.P.XXXXOXOXOXXX XI.#XOX@X-XOXP.).&X&XrXeXpXN.~ { Z ",
"uXnXxXiXD.F.D.Z.V.Z.!.!.(.(.`.(.Z.V.B.B.B.` / >.F.F.F.F.(.^.^.Z.^.B.>.B.B.:.B.F.Z.Z.B.B.B.B.f.<.S.F.(.).`.(.~.F.A.M c g # O b 9X,XyX3XX.-.| ;.T ..2.| 1.2...%.| -.-.) 1.B.a.L.J.J.G.H.H.J.G.C.C.$.>.B.B.4.=.:.4.` :.:.4.L.'.C.a.4.B.4.( _ 1.1.o.w 6 # =   ! HXcXbXbXA.r./ / >.V.Z.Z.!.!.Z.Z.Z.^.Z.^.^.Z.j.g.f.<.Z.Z.^.^.Z.^.^.Z.Z.g.6.<.f.g.Z.V.V.V.Z.Z.Z.V.B.B.4.2.4.4.4.B.X.z * O : @ 0.GXnXiXW.|  .` 4.:.<.(.].^.f.f.D.B.B.'.2.p I r.1./ ` <.4.B.D.B.B.Z.Z.h.l.h.l.H.j.f.<.<...X.2.1.| X.1.=.' / ..| 8.6 - X + + o :XGXlX<XT.B.B.B.B.Z.Z.S.S.F.F.Z.B.4.<.<.4.5.5.f.g.B.B.B.B.y.y.y.4.4.g.V.Z.6.6.g.S.!.Z.Z.V.g.Z.Z.Z.j.j.Z.^.Z.h.Z.Y.U w 6 * $ , m.0X>XtXD.3.<.C.Z.Z.Z.Z.h.Z.j.j.j.j.Z.Z.Z.Z...) ` :.:.1.1.:.<.:.:.:.,.<.f.h.).P.H.H.H.H.H.H.^.H.G.G.).).OXXXXX_.E.N n < o X v cXmXiXsXF.B.5.4.2.2.2.r.2.1.-...| | | | ) } | } | | } | -.1.-.1.1...) ..X._ ..B.f.f.B.B.4..._ 1.B.A.B.B.4.:.<.@.w j k 3 % O h wXMXBXdX#X].D.a.:.C.}.aX[.&.( L.G.L.C.p.G.P.L.L.L.(.B.:.<.f.C.Z.H.L.L.^.H.H.H.H.^.<.a.L.L.[ / ,.B.<.$.4.Z.L.].M.w Z S o , @ S cXlXyX3X3.4.:.1.X.w.w.1.-...;...} } | ;.| R Y | -.4.4.2.2.4.4.4.2.4.2.-.a Y 2.y.F.B.Z.V.B.B.V.V.V.g.f.<.:.2.q.E 6 j 4 O o , :XHXmXfX{.a.h.^.Z.Z.,.f.H.Z.h.j.j.j.Z.f.,.f.)._._.OXXXXXXXs.s.P.P.XXJ.XXXXXX*X*XOX X XP.OXOX@X-XOX).+X&X&XrXeXpXN.~ { n ",
"uXnXxXiXD.F.Z.Z.V.Z.!.(.`.`.^.^.(.F.f.4.<.` _ 4.F.F.F.L.(.^.^.Z.^.B.:.B.B.>.B.F.Z.Z.B.B.B.B.f.<.A.D.(.)._.`.^.F.A.M c g # O b 9X6XxX4XX.-.| ;.} -.e.| X.1._ _ R -.X.) :.a.a.L.J.J.H.H.H.H.G.D.C.<.4.B.B.4.:.1.r.` <.<.<.D.L.D.B.B.4.:./ / O.e.q.z 6 # =   ! HXcXxXbXA.3.K _ B.~.!.!.!.!.Z.Z.H.^.Z.!.^.Z.f.p.<.<.g.Z.^.Z.Z.Z.Z.Z.Z.f.<.<.g.Z.Z.Z.V.V.Z.F.Z.V.B.5.4.2.4.4.4.M.X.z * O : @ 0.HXzXiXW. ...X.B.,.a.^.).L.f.f.C.a.B.'.t.p K r.1./ ..B.4.B.B.B.B.Z.Z.h.j.h.j.l.Z.h.a.4.` X.2.1._ ..1.=.' ' ..X.8.6 - X + O o :XGX6XW.T.B.B.B.V.S.S.S.S.F.S.B.4.<.<.<.<.5.f.g.B.B.B.B.B.B.B.5.5.5.B.V.Z.6.6.g.Z.Z.Z.Z.V.g.Z.Z.Z.Z.Z.H.^.Z.h.F.Y.H 0 6 * O & n.9X,XuXD.:.4.Z.Z.Z.H.Z.j.Z.j.j.j.j.Z.Z.Z.C.` ) ..1.>.3.<.:.<.:.:.<.<.<.f.Z.^.H.H.G.H.H.^.^.^.H.j.G.).OXOXXXXX_.E.N m < o X v cXmXiXsXD.B.B.4.4.2.2.w.2.1.-.-.;...| } ) W W | | } ) | -.1.-.-.1...) ..1.-...B.f.f.B.B.y.1._ -.y.B.r.y.<.:.:.@.w w k 3 % O h wXMXBXdX%XE.D.a.4.Z.].aX(.d s L.G.L.C.h.J.P.L.).L.(.B.<.<.f.g.L.C.Z.G.H.H.H.L.L.^.f.C.#XE.d.O.,.D.4.$.>.f.L.].d.q B S $ , @ S 0XlXyX3X3.4.=.1.| w.2.-.-.....| | _ | -.| Y J R ..4.4.4.4.4.4.4.4.4.4.1.Y / 2.2.S.B.Z.F.V.V.V.S.S.g.f.<.>.r.q.I 0 j h O o , ;XHXmXNX#Xa.h.^.Z.Z.<.f.G.j.h.j.j.j.Z.h.,.k.^.).).OXOXXXXXs.s.J.J.XXP.XXXX*X*X*XOX XP.E.OXOX@X&XOX).@X&X&XrXpXpXN.~ { m ",
"uXnXxXiXD.F.D.Z.V.Z.!.(.`.`.(.(.(.F.B.4.4.` ` 4.F.F.F.(.`.`.^.^.(.B.:.B.B.:.B.S.Z.Z.B.B.B.B.f.<.B.S.(.)._.`.^.F.A.M V g # O v qX6XxX4XX.-.| -.} | 2.| X.1._ _ R ....) :.a.a.L.H.J.H.H.J.L.J.Z.D.<.5.B.B.4.>.1.4._ <.4.4.C.L.Z.Z.F.<.&.` / O.r.t.z 9 # =   ! HXmXxXbXA.1.s &.V.~.!.^.^.!.Z.Z.H.^.Z.F.^.Z.f.<.<.<.g.Z.L.Z.Z.Z.Z.Z.Z.f.<.6.g.Z.Z.V.V.V.Z.F.Z.V.B.5.4.2.4.4.4.r.X.w f % ; @ 0.HXzXuXT.| X.1.S.a.f.^.[.^.h.a.f.a.a.R.A.K K 4.:./ ..B.4.a.B.B.B.C.C.h.h.h.j.j.Z.C.f.4.` :.4.1._ ..2.=._ _ ..o.8.6 - - & O o :XGX,XW.T.B.B.B.S.S.F.S.S.B.B.4.<.>.>.<.<.B.g.B.B.B.B.B.B.y.4.2.4.B.V.Z.Z.V.V.Z.Z.Z.Z.Z.Z.g.Z.Z.^.Z.Z.^.^.H.Z.F.Y.M 6 * * O , m.0X6XiXD.O.<.Z.L.Z.^.Z.h.j.j.j.h.h.Z.Z.C.B.) ) O.1.1.<.<.:.<.,.<.a.f.a.f.h.).P.H.G.Z.H.^.^.^.H.Z.G.).OXOXXXXX_.E.^ m < $ X v cXmXiXsXD.V.B.B.5.4.2.4.2.1.-.1.-.-.| } ) R I | | | } | X.1.-.X.-.X.| _ 1.1.) <.5.B.B.B.B.2._ ..r.B.B.B.<.:.:.@.w w k ; % O 4 0XMXVXfX%XE.D.M.f.Z.].$XZ.d ' [.G.L.C.h.J.P.J.L.Z.(.B.<.a.f.C.^.Z.Z.G.H.G.G.H.L.`.f.K.rX#XD.a.@.D.f.$.:.4.L.].a.w Z S $ , @ A 0XlXiX3X4.r.:.-._ -.-.| | | } _ } } | -...R J K | 4.4.5.5.5.5.y.y.y.y.4.) _ 1.-.5.B.Z.F.Z.V.V.S.S.g.f.<.,.r.q.E 0 j h O o , :XHXmXBX$Xp.k.Z.Z.L.f.p.j.j.f.j.Z.j.H.h.<.f.H.).).OXOXXXXXs.h.P.J.XXP.XXXX*X*X*XXX XP.P.OXOX@X@X).).=X&X&XrXpXpXN.~ { m ",
"uXnXiXiXD.L.Z.Z.Z.Z.!.(.`.`.(.^.F.Z.B.B.B.$._ 2.S.F.F.(.'.[.`.`.'.V.:.B.B.>.f.Z.V.Z.B.B.B.B.5.,.B.D.F.`._.`.(.F.A.M V g # O v 1X6XxX4XX.-.;.-._ ) 1.| X.1...;.=.) | ) :.4.a.G.J.J.J.H.J.L.H.Z.C.:.4.B.B.B.<.:...) 1.4.B.L.L.C.Z.D.` ` ,.&.:.e.o.z 9 = &   ! HXHXbXbXr...K >.Z.Z.~.^.(.^.Z.Z.H.^.Z.F.Z.g.4.4.f.f.g.Z.L.Z.Z.Z.Z.Z.g.f.6.p.g.Z.Z.V.V.V.Z.Z.Z.V.B.B.y.4.4.4.4.4.X.w f O ; . 0.HXzXuXT.) ..O.S.B.f.^.+X[.Z.a.f.B.B.F.A.K K 4.:.) :.r.4.B.B.D.C.Z.Z.Z.h.h.h.h.h.C.f.<.` >.4.:.` :.2.=._ _ ..o.8.6 - X & O o :XFX,XW.W.r.B.B.S.F.F.S.Z.B.f.4.<.4.4.5.f.V.V.V.B.V.B.B.y.2.:.=.>.B.V.Z.Z.!.!.S.Z.g.g.Z.Z.g.Z.^.^.^.^.^.^.H.Z.L.Y.x 6 = * O , :X0X6XiXD.O.<.Z.H.H.^.H.h.j.j.h.g.h.Z.Z.g.B.) ` 1.4.>.<.4.:.<.<.4.f.f.f.f.h.).).H.G.j.Z.H.H.^.H.G.G.).).OXXXXXOXE.^ B < $ X b cXmXiXsXF.V.B.B.y.4.2.2.2.1.=.1.2.-...| } Y J ) | | | | ..-.1.-.-.1.| ) 1.1.Y :.4.B.B.B.B.r.| ..r.A.B.B.4.:.>.@.q w k ; % O 4 0XnXVXkX&XE.D.M.Z.F.[.].*.s ] ].C.G.h.p.G.J.C.G.L.F.f.<.f.f.C.L.^.^.^.L.H.G.J.L.(.a.K.aXrXE.D.O.B.B.&.&.<.F.].@.w B S $ , @ A 0XlXxX3X<.4.-.-.| -...| ..| | _ } | | ..| Y p J _ 4.4.y.y.y.5.y.y.y.5.4._ ..1...2.4.g.F.V.B.B.V.V.f.p.<.,.r.q.E 0 j h O o , ;XHXmXVX#X<.p.Z.Z.Z.a.p.h.j.h.j.H.Z.^.j.p.h.).).).OXOXXXXXh.z.P.J.XXP.XXXXOX*X*XXXXXXXI.P.XX@X@XP.P.-X&X$XrXrXpXN.~ ^ m ",
"uXnXiXiXD.L.F.Z.Z.Z.!.(.`.`.(.^.Z.Z.g.B.B.$.' >.S.S.F.`.[.[.[.[.}.Z.>.B.B.>.f.B.Z.Z.V.B.B.B.4.>.A.S.F.(._._.`.F.A.M V j # O l 1XlXxX3X .;.;.-.Y K 1...X.-._ ;.;.Y _ ) 3.a.a.L.J.J.H.H.J.L.J.Z.C.:.<.B.B.B.<..._ ` 1.a.Z.(.Z.h.Z.B./ _ a.<.3.1.I z g * *   S HXJXCXyXO. ./ 4.F.Z.~.^.(.(.^.Z.H.H.Z.Z.Z.f.4.f.g.Z.g.Z.Z.Z.Z.Z.Z.g.p.p.p.f.V.Z.Z.Z.Z.Z.Z.Z.V.V.B.B.B.r.5.<.4.4.X.w * O : . 0.JXmXxXT.) | ..D.f.h.^.+X+XZ.<.f.F.S.S.B./ / 4.1.` 3.4.f.B.F.F.Z.B.Z.Z.j.l.j.h.h.C.f.<.&.>.4.:.` 1.r.=._ _ ..o.i.6 - X & + o :XcX>XW.W.r.B.B.S.F.F.Z.B.B.f.4.<.4.f.B.B.B.g.B.B.B.B.B.B.4.:.=.>.B.V.Z.Z.!.S.S.Z.Z.g.g.g.g.Z.^.`.^.^.^.^.^.H.'.Y.e 7 = * O 3 :XcX6XiXD.] a.H.L.H.H.H.h.j.Z.h.h.Z.Z.Z.C.a.' ..<.4.>.<.a.,.a.4.a.f.f.f.f.h.G.G.H.G.H.H.H.H.H.H.G.J.H.P.).XX/.OXE.^ B f $ X b cXmXiXiXF.B.B.B.5.4.2.2.4.2.1.1.2.1.-.;.| } P I | ..| | | X.-.-.-.1...) 2.4.Y _ 4.B.B.y.B.r...` r.B.B.B.4.>.>.@.w w k ; % O 4 0XMXVXkX%XP.C.M.F.F.}.L.d s <.K.G.G.h.h.J.J.C.G.L.F.4.<.f.f.f.Z.^.^.^.L.H.H.J.L.^.4.L.aXaXrXE.] a.B.>.:.,.D.E.@.w Z S $ , @ S cXlXyX3X2.4...X._ -.;.-.1.1.;.| } ..| | | R J J ) 2.4.5.y.5.5.y.y.y.4.2._ =.2...>.<.f.Z.V.B.B.V.g.f.6.<.,.r.q.E 6 k h O o , ;XJXnXNX#Xp.k.Z.Z.Z.<.p.j.j.h.Z.H.H.^.Z.p.h.)._.).OX).).XXh.z.XXJ.XXJ.XXXXOXOXXXXXXXXXP.P.XX@X@XP.P.aX$X$XrXrXpXN.N ^ m ",
"uXnXiXiXD.L.F.Z.Z.Z.!.^.(.^.(.(.^.Z.f.4.<.` _ 4.V.S.F.`.[.[.[.[.[.F.>.B.B.>.f.B.Z.Z.V.B.B.B.4.:.S.S.F.(.[.[.`.'.A.M V j # O l 1XlXxX3X| ..;.-.R K 1.X.X.| R _ _ K _ | 4.a.a.L.P.G.G.G.H.H.G.D.C.<.5.f.5.4.<.:.` >.<.4.D.(.Z.h.L.F./ ( B.a.4.e.^ w g * < > A HXJXCXeX ./ ) f.~.~.~.(.`.`.^.^.H.Z.Z.Z.Z.f.<.g.Z.Z.f.g.B.f.f.g.g.f.<.6.k.g.V.Z.Z.Z.Z.Z.Z.V.V.B.B.B.B.y.5.5.4.r...w * @ & @ v.HXmXnXY.| ..` B.f.C.).).[.Z.,.f.L.L.B.B./ ) 4.1.:.4.a.4.B.B.D.f.4.a.g.Z.G.j.h.C.Z.g.<.:.>.<...` 2.y.=._ _ ..X.i.6 - X & + o :XcX<XW.W.r.f.B.S.F.S.Z.B.4.<.:.:.>.<.4.4.5.5.5.B.B.B.B.B.S.4.>.5.V.V.V.V.V.Z.Z.S.Z.Z.g.g.f.Z.^.`.`.^.^.^.^.L.'.Y.e = = * O 4 :XcX6XiXD.] f.^.H.Z.H.Z.j.H.Z.j.h.Z.H.Z.C.a._ ..4.4.>.<.a.,.f.f.f.f.f.f.f.Z.p.h.h.H.^.^.^.^.H.H.H.J.H.J.).XX/.OX].^ B f $ X b cXcXiXiXD.B.g.B.5.2.2.4.4.2.2.-.2.2.-.-.-.| R J } X.| ) | ..-.....1.X.) r.B./ / 4.V.B.r.B.r...) 4.B.B.B.4.:.:.O.w w k ; O O 4 wXnXBXkX%XL.N.M.B.C.$XL.d ( (.].L.L.C.C.P.L.G.L.(.F.4.:.a.a.4.f.H.H.H.H.G.G.H.L.^.<.L.hXjXjX#X] 4.B.<.:.,.D.P.@.q m A X , @ S FXlXyX3X1.2...X.| | | -.w.w.;._ R ..} _ | R J J ) :.2.5.5.4.4.5.y.y.2.=.) =.2.;.2.<.g.F.F.V.B.V.g.6.6.<.>.r.q.E 6 k h O o , ;XJXnXNX$Xp.h.^.Z.Z.<.f.G.Z.h.H.H.Z.^.Z.k.h._.).).OX).).XXh.H.XXJ.XXJ.XXXXXXXXXXOX*X*XI.P.XX@X@XP.P.aX$X$XrXrXpXN.N ^ m ",
"uXiXNXiXK.C.F.Z.V.g.Z.(.`.^.^.(.^.`.Z.4.>.&.>.F.F.S.F.`.[.[.)._.^.B.B.Z.B.>.4.F.Z.S.Z.B.B.B.<.&.S.S.F.`.[.[.`.F.A.x c g = O l 1X8XyXyXX...;.| R Y  .| +.2...R %.Y -.| 3.B.C.G.J.G.J.H.H.G.G.C.f.<.g.B.f.4.<.<.>.,.,.a.Z.L.H.h.f.f./ _ 4.M.M.r.o.0 j f   X S HXmXCXyXO.^ ..4.F.Z.(.(.(.(.^.^.H.Z.Z.F.Z.4.4.B.Z.C.4.f.B.B.f.4.4.4.6.k.f.g.Z.Z.Z.V.~.Z.V.V.V.V.B.5.4.<.4.>.>.4. .0 9 @ ; X 9.mXmXNX3X)  .3.` a.Z.h.)._.Z.<.f.F.F.S.4.a / 4.,.,.B.B.4.B.Z.B.,.&.:.<.p.h.Z.h.C.Z.f.:.4.<.>.:.1.2.2.2.>./ ) X.8.g - > & + o :XcXQ.>XT.4.f.B.Z.B.B.B.V.<.:.&.<.4.>.:.<.4.4.5.B.S.V.:./ _ ` >.4.B.B.B.g.Z.Z.S.!.Z.Z.Z.Z.Z.Z.^.^.^.^.^.H.`.Z.D.A.r 6 6 * X 2 1XcXzXNXN.,.H.H.H.H.H.l.l.l.Z.h.Z.H.C.(.'.<.' :.r.B.r.,.,.4.a.f.a.a.f.p.p.j.*.p.h.H.^.^.^.H.^.^.G.G.J.P.).XXXX_.E.^ Z < o X v cXmXiXsXD.B.f.5.4.4.5.5.4.2.4.1.1.1.-.-...| } H Y | | ) ) ..-.| _ 1.1.) -.r.-.' :.B.B.y.B.B.1._ 2.B.B.y.4.>.]  .q w j ; : O 4 cXMXfXfX&Xd.[ a.(.D.'.&.s f.G.D.G.G.L.P.L.J.J.L.^.B.:.:.f.f.p.C.^.H.Z.L.H.G.G.Z.(.4.B.#XrXjX#Xd.B.4.4.4.:.M.{.@.w S b , & o S 9XlXyX{.X.-.) | | ;.-.Y ..w.) | _ -._ | -.| J J _ 4.4.4.y.y.5.y.y.B.4.y.2.1.1...:.4.g.V.B.B.V.V.g.Z.p.f.>.2.r.P 0 f 3 $ + + m.JXmXNX{.h.j.^.Z.f.<.G.J.G.h.j.h.j./.k.f.G.).OXOXOXOXXX).h.J.XXH.).P.OXOXOXOXXXXX X X XOX@X@X@X).@XaX$X&X#XrXrXN.^ ^ n ",
"uXiXNXiXK.C.F.C.V.g.Z.(.`.^.^.(.^.`.Z.f.<.` :.B.~.F.^.[.[._.`.`.(.Z.B.Z.B.<.4.F.S.S.Z.B.B.B.<.&.A.D.F.^._.[.`.F.A.x c g = O l :XvXxXyX .| ;.| R Y | ....1.-._ | Y -.| 1.B.C.G.H.J.J.J.J.P.P.Z.f.<.5.B.B.4.4.<.>.,.<.a.Z.^.H.h.h.a./ ' 4.M.B.N.8.0 j f   X S HXmXNX4X../ :.B.(.^.(.(.(.(.^.^.H.F.F.F.Z.f.f.B.Z.Z.4.f.g.f.f.4.4.4.g.g.Z.Z.Z.Z.V.g.Z.V.V.V.V.B.5.4.<.<.4.<.4.B.+.w 9 @ ; X 9.mXmXNX3X/ ` 3.] a.Z.h._.[.Z.<.f.Z.D.D.4.s / 4.<.<.B.B.4.B.Z.B.<.&.:.,.p.h.Z.h.h.Z.g.<.4.<.>.>.1.2.2.2.>./ / X.o.g - > : & o :XcX2X>XT.r.B.V.Z.V.V.V.V.>.&.:.<.4.<.>.4.f.g.g.f.y.4.` a p Y :.5.B.B.V.Z.Z.Z.S.!.Z.Z.Z.Z.Z.Z.^.^.^.^.^.^.`.F.D.A.0 6 6 * O 2 1XcXuXiXa.*.H.H.H.H.l.l.l.l.H.j.H.H.C.L.F.:./ ..4.r.4.4.4.a.a.f.a.p.f.p.p.Z.p.h.G.H.H.H.^.^.^.H.G.G.H.P.).XXXX_.E.^ Z < o X v cXmXiXsXD.B.f.5.4.5.B.B.4.2.2.:.1.1.1.-.-.-.-.J Y } | | | ..1.| | 1.1._ -.r.:./ ` 4.B.y.B.y.:._ 2.B.B.B.f.4.>. .q w j ; : O 4 8XMXBXkX&X,.' C.F.B.L.] a <.L.L.G.G.G.L.J.J.J.L.L.B.:.:.f.f.a.Z.^.H.G.L.^.H.H.L.F.<.a.].rXjX#Xa.C.f.5.4.&.a.E.@.w S b , & o S 9XlXyX{.X.-.) | | | -.J } -._ } R ;.} | -.} J J ) 4.4.4.y.y.5.y.y.y.4.y.1.-.2.-.2.5.g.V.B.y.V.V.V.V.p.g.>.2.r.P 0 f < $ + + m.JXnXVXE.p.k.H.H.g.<.h.J.G.h.H.Z.Z./.k.h.G.).OXOXXXOXXX).h.J.XXH.).P.OXOXOXOXXXXX X X XOX@X@X@XOX@X-X$X&X#XpXrXN.^ ^ n ",
"uXuXNXiXK.C.F.B.V.g.Z.(.`.^.^.(.^.`.Z.g.<.` ` 4.(.^.(.[.[._.`.`.`.Z.B.V.B.<.5.F.F.F.Z.B.B.f.<.:.B.D.Z.^.`._.(.F.A.M V g = O l :XvXxX4X^ } -.| R ) X... .1.1.=._ Y -.| 1.B.a.G.J.J.J.J.J.).).K.f.*.<.g.B.5.4.<.>.<.,.a.Z.(.H.C.C.4./ ' 4.M.A.S.q.0 j f X   S HXmXNX3X ./ 4.B.'.(.`.`.`.`.^.^.H.F.(.F.B.5.f.B.S.S.4.5.f.5.4.4.4.f.g.j.Z.Z.Z.V.V.g.Z.V.V.V.B.g.4.>.4.4.5.5.g.Z.1.w 9 @ ; @ 9.mXmXNX{./  .:.] a.C.h.[.+XZ.<.p.g.B.B.a./ _ 4.<.<.B.B.4.B.S.B.<.&.:.,.a.h.Z.h.h.Z.h.f.f.4.<.>.1.2.2.2.<._ ) X.o.g # - & : o :XcX<X3XT.4.B.S.B.B.S.B.5.:.` &.4.5.4.<.4.5.g.B.g.B.y.2.` a ` 5.V.V.B.V.Z.Z.S.S.!.Z.Z.Z.Z.Z.!.^.^.^.^.^.^.).L.Y.A.0 6 6 = O 2 1XmXuXjXN.,.H.H.H.G.l.l.G.G.H.G.G.G.D.F.B.( / ..4.4.4.B.B.f.a.f.p.p.f.p.p.Z.G.J.H.H.H.H.^.^.H.H.G.G.H.)._.XXXX_.E.^ Z < o X v cXmXiXsXF.B.5.4.4.5.B.B.4.2.2.=.:.1.1.2.1.1.1.) I T | ..| ..1.| | -.-.| -.2.1./ ' <.B.B.B.B.1.` 1.B.B.B.B.4.<. .q w j ; : O 4 8XnXVXBX%X@.' D.D.f.F.] i ] Z.(.L.G.C.C.G.L.L.G.L.B.:.:.f.f.f.Z.H.H.L.(.^.G.G.L.D.:.:.C.&XjX$Xa.C.g.f.4.&.a.R. .w S b , + @ A 9X8XtX{.....) | | | ..J ) -.| | Y | | | | ) K R _ 4.4.4.5.y.5.y.y.4.4.y.-...2.1.4.f.g.V.B.y.V.S.S.V.p.g.,.r.w.U 0 f < $ + 1 m.JXnXVXE.<.p.Z.^.C.a.h.J.H.G.^.H.Z.`.f.h.G.).OXXXXXOXXX).h.J.XXJ.XXP.OXOXOXOXXX X XP.P.OX@X@XOXXX+X=X$X&X#XpXrXN.^ ^ n ",
"uXuXNXiXK.C.F.B.V.g.Z.(.`.^.^.^.^.`.F.g.<.` ` 4.(.F.^._.[.[._.[.'.F.B.B.B.<.f.F.F.F.V.B.B.f.<.:.B.D.Z.^.`._.`.L.A.M V g = O l :X6XtXW.I ) ;.;.R ) 1.../ X.2.;._ Y -.| 1.B.a.G.J.J.H.H.H.).].K.a.&.<.B.B.f.4.<.:.<.<.f.F.^.^.Z.C.4./ ' <.a.D.Y.t.0 j f #   S HXmXCX{./ / r.B.(.~.(.(.`.`.`.^.^.^.(.F.B.f.B.V.F.F.5.5.4.4.4.4.5.f.f.f.g.g.V.V.V.Z.V.V.V.V.B.f.4.<.B.B.V.g.V.S.1.w f X ; @ 9.mXmXNXY./  .] ` <.f.h.oXoXZ.<.p.f.f.D.B.&.:.4.4.4.f.f.4.B.F.D.<.&.:.,.a.C.Z.C.h.C.Z.h.f.a.<.>.>.2.r.4.<.` ` -.o.c = X O & o :XcX<X3XT.<.B.S.B.B.B.4.&.` ` $.<.5.4.4.5.5.g.B.B.V.S.S.y.` 2.V.~.F.V.B.V.Z.Z.S.!.Z.!.!.!.!.^.`.`.^.^.^.(.'.L.Y.t.6 6 8 % X , 1XHXgXNXD.p.H.H.H.G.l.l.G.G.G.Z.G.G.K.D.4.' ` <.B.a.a.B.B.4.a.f.p.p.f.p.p.Z.^.H.H.H.H.H.^.^.H.Z.G.J.).).OXXXXX_.E.^ Z < o X b cXmXiXsXF.B.5.5.5.5.B.B.4.2.2.1.1.1.1.2.2.2.2.| I I } ..| | -.....-.-...X.1.1./ / :.B.B.B.B.2.| 1.4.B.B.B.4.,. .q w j ; : O 4 8XMXBXBX%XO.' F.Z.C.L.,.i d p.G.L.G.C.h.G.L.L.G.(.B.:.:.f.f.f.Z.H.L.^.).L.C.h.C.a.` ] ,.$XjXrXs.Z.g.g.f.&.a.R.@.m S b , + @ A 9X1XyX3X....) ..| ..| Y Y -.1.| R | ..| T K R ) _ 4.4.4.5.y.4.r.y.4.4.y..._ 1.1.4.f.f.B.B.B.V.V.V.g.6.g.<.r.r.P 0 f < O + , ;XJXnXCX].a.k.^.^.C.a.J.P.H.G.H.Z.j.^.f.h.G.).OXXX XXXXX).h.J.XXJ.XXP.OXOXOXXXXX XP.P.P.OX@X@XOXOX@X@X$XrX#XpXrXN.^ ^ m ",
"uXuXNXiXK.C.S.g.V.g.Z.^.`.^.^.^.^.`.F.f.<.&.:.B.'.^.^.`._._._.=X}.F.B.B.f.4.B.F.F.F.Z.B.B.f.<.:.B.D.Z.^.`._.'.'.A.M c g # X l :X<X>XW.I ) -.;.P _ 1.X.) -.w.-._ R -.| :.B.a.G.J.J.H.H.J.].].K.a.*.5.B.B.f.4.>.&.4.4.f.L.).^.G.Z.4./ ( 4.B.D.Y.t.0 z j #   A HXmXNXW.^  .B.Z.~.~.(.(.(.(.`.`.^.(.(.S.B.B.B.Z.S.S.f.5.4.4.4.f.B.g.g.g.g.g.V.Z.Z.Z.V.Z.Z.V.B.f.5.4.B.B.S.V.Z.F.1.w h O ; @ 9.mXMXnXW.| ..:.:.f.f.j._._.Z.p.f.h.B.Z.C.<.<.4.4.<.4.4.a.B.F.B.<.:.:.,.a.C.Z.C.h.C.Z.Z.f.a.<.<.<.4.r.r.<.` ..q.8.c = - O + @ :XcX<XtXT.<.B.S.V.B.4.:./ ` ` $.>.4.4.4.5.B.B.B.5.y.B.y.2.` :.4.B.V.Z.V.V.Z.Z.Z.!.Z.!.~.~.^.(.`.`.^.^.`.`.(.L.S.e.7 6 f % X , 1XHXgXNXK.h.L.H.G.l.l.l.G.H.G.G.G.K.L.D.,.' >.4.B.f.B.B.f.<.f.f.<.<.f.p.p.j.H.H.H.H.H.H.^.H.Z.j.Z.G.P.).XXXXXX_.E.^ Z < o X b cXmXiXsXF.B.5.B.f.5.f.5.2.2.4.1.1.1.1.1.2.1.1.X.T J T | | | ....-.-...X...-.2.` / $.B.A.B.B.r.X.:.2.B.B.B.4.,. .q w j ; : O 4 9XMXfXkX&Xd.[ C.C.C.L.f.a a <.C.G.G.h.a.C.L.L.Z.].Z.,.,.f.f.a.Z.H.H.L.).L.C.s.p.>._ ' [ $XjXaXC.h.f.g.f.&.a.E.@.m S b & O @ A 9X,XyX3X...._ X...| | Y Y -.w.| T | ;.| R J Y _ | 4.2.4.5.y.4.4.y.y.y.y...) -.-.2.4.<.5.B.V.V.B.g.g.6.B.<.r.r.P 0 f < $ + , m.KXmXBX#XC.Z.H.Z.f.a.).).H.h.G.Z.Z.`.h.h.H.).OXXX XXXXX).h.J.XXJ.XX).OXOXXXXX X XP.J.P.OX&X@XOXOX@X@X$XrX$XpXrXN.~ ^ m ",
"uXuXNXiXK.C.D.g.V.g.Z.^.`.^.^.^.`.`.Z.f.<.&.>.Z.}.`.^.`._._._.[.}.~.B.f.4.4.B.F.Z.S.Z.B.B.B.<.] D.D.Z.^.`._.'.'.A.M c g # X l :X,XyX3XI ) ;.| J | 1.X.| 1.2.=.=.) 1.| 1.B.a.G.J.J.J.).).+X+XL.f.:.f.Z.B.f.4.>.:.B.f.C.L.).^.G.C.a.` ` 4.B.Y.Y.e.0 k k $   A HXmXxXT.K  .S.S.~.(.~.(.(.(.^.^.^.^.^.V.B.B.Z.Z.Z.Z.B.f.4.4.f.B.B.B.Z.Z.Z.Z.V.V.V.V.Z.Z.Z.V.B.g.f.f.B.B.V.Z.Z.(.e.m j O : . 9.mXMXNXW.1.3.<.a.Z.h.H./._.H.h.C.h.C.L.C.f.4.4.4.4.4.4.a.B.Z.B.<.:.:.4.f.B.C.C.Z.Z.Z.Z.f.a.<.<.4.4.r.4.>.` ..q.8.z - - & : o :XcX,XyXT.r.B.F.F.B.<.` ' ` ` &.>.4.5.f.f.B.B.B.5.y.y.4.=.:.:.2.5.B.V.Z.V.Z.Z.Z.!.Z.!.~.(.(.`.`.(.^.^.`.`.^.F.S.q.7 0 g % o , 1XHXzXiXs.p.^.H.H.l.l.l.H.H.H.).L.L.'.D.O.' <.4.4.f.B.B.f.4.a.f.p.p.f.p.p.j.H.J.H.H.^.^.^.H.Z.j.h.G.H.P.).XXXX_.E.^ Z < O X v cXmXiXsXL.B.g.V.g.5.5.4.2.4.4.2.1.1.1.1.1.-.1.-.| T I ) | ..| ..-.....-.....4.:./ ` B.A.B.B.r.1.:.1.B.B.B.4.<. .q w j ; : O 4 9XMXgXdX&XN.O.M.B.C.F.D.d a p.Z.C.G.C.a.h.L.L.G.].Z.<.,.f.f.f.H.H.H.L.]._.H.h.a.] _ ( / $XhXaXG.f.f.g.f.:.a.E.@.z S k & O @ A 9X,XyX4X....` 1...T T T J | w.| T | ..| Y J K ) | 4.2.4.5.5.4.4.y.B.4.y.=.) _ _ 2.<.<.5.B.S.V.5.5.f.6.B.4.r.r.E w f 3 & + , ;XLXmXVX$XL.H.^.Z.f.a.).).G.h.G.G.H.).h.h.H.).OXXX XXXXXP.h.J.XXJ.XX).OXXXXX X X X XP.P.OX&X@XOXOX$X&X&XrX$XrXpXN.~ ~ m ",
"uXxXNXiXK.C.D.f.V.g.Z.^.`.^.^.`.^.`.Z.f.<.&.:.V.'.^.^.).[._.`._.}.(.B.5.4.4.B.S.V.Z.Z.V.B.B.<.` B.B.Z.H.`._.`.'.A.M c g # X l :X,XyX4XI R ;.;.Y | +.X.X.2.1.;.-._ 1...1.B.N.G.J.J.P.XXXX+X].L.f.<.f.Z.B.f.4.<.:.B.B.D.^.).^.Z.h.B.$.:.f.B.Y.Y.8.0 k k $ X A HXmXxXT./ O.S.S.~.`.(.(.(.(.^.^.Z.F.F.B.5.B.F.Z.B.B.B.B.f.f.B.Z.Z.Z.Z.Z.Z.Z.Z.Z.V.V.V.V.Z.V.B.f.B.B.B.B.Z.Z.Z.'.r.M j o & @ 9.MXnXNX{.t.M.a.C.H.Z.H._.oX^.Z.H.Z.C.L.f.g.a.<.4.a.4.f.f.B.D.B.,.:.,.a.B.M.B.C.Z.Z.j.h.p.<.<.<.4.r.r.2.<.` X.q.o.z - - O & o :XcX6XyXT.B.B.S.F.B.&.` :.:.:.:.>.4.f.B.B.B.g.f.g.V.V.y.=.4.y.B.V.B.B.V.Z.S.Z.Z.Z.Z.~.(.(.(.`.`.(.^.^.^.`.L.F.S.+.7 g k % o , 1XHXzXrXa.s.P.H.G.l.l.l.H.H.H._.L.K.].D.O.` B.<.<.B.Z.B.f.f.a.f.p.p.f.p.p.j.).H.H.H.^.^.^.^.Z.j.h.h.G.P.).XXXX_.E.^ Z < o X v cXmXiXsXL.Z.B.V.g.5.f.5.2.2.4.2.1.1.1.1.1.2.2.q.1.| I Y ....| ..1...| 1...| 4.4.' _ 5.B.B.y.r.-...:.4.B.B.4.4. .w w j ; : O 4 qXVXBXdX#XC.,.a.C.Z.D.Z.' i a.L.C.G.G.h.h.J.P.G.(.Z.:.:.f.g.h.(.^.H.H.).].L.h.p.( ` ] d $XaXhXJ.f.f.B.B.:.a.E.@.z S k & + @ A 9X,XyX4X| | _ -...R T | J _ r.| ) | | | _ Y K R _ 4.2.2.5.5.4.4.y.B.2.r.=.) ) ) 2.4.<.4.B.S.V.g.g.f.6.V.4.r.r.E z j 3 & + 1 ;XIXJXCX$XG.Z.H.Z.f.a.).).G.h.H.H.H.).j.G.H.XXOXOX XOXXXP.h.J.XXJ.XX).XXXX X XP.P. X XOX@X&XOX).OX$X&X$XrX$XrXpXN.~ ~ m ",
"uXxXCXiXR.C.D.f.V.g.Z.^.`.^.^.`.^.`.F.f.<.] &.g.F.Z.^.[.[._._._.}.(.B.4.4.4.B.Z.B.Z.S.Z.Z.B.<.` B.B.B.Z.`.`.`.'.A.M V g # X l :X<XtX3XH J ..;.R | -.X.1.2.-...1.| 2...3.B.C.L.L.H.P.XXOXOX).Z.f.:.f.Z.B.f.f.4.<.B.B.Z.^.).L.Z.C.B.:.>.f.B.F.T.+.0 k k =   A HXHXbXT./ :.F.B.~.(.`.`.(.(.^.Z.Z.Z.Z.f.5.B.F.Z.B.g.B.g.B.B.Z.Z.F.Z.V.V.g.g.g.V.Z.Z.V.V.V.B.f.5.B.V.F.Z.!.Z.!.'.e.M j o &   9.MXnXNXW.M.B.M.Z.L.h.H._.oX/.H.H.C.C.L.<.f.<.<.a.f.f.B.f.B.D.f.,.:.<.f.B.f.f.C.Z.Z.h.f.<.<.<.4.4.r.r.2.5.:.-.q.o.z # X O + @ ;XcX6XyXT.A.B.A.F.4._ ` 4.<.<.>.>.4.B.B.B.V.g.f.f.B.B.2._ :.5.V.V.B.g.V.F.S.Z.Z.Z.Z.^.(.`.(.`.`.^.^.^.^.`.F.F.S.X.7 0 k $ O , 1XJXgXfXs.h./.J.G.l.l.l.H.H.G.).G.K.].L.,.:.F.4.4.Z.F.f.4.f.a.f.p.p.f.p.p.j._./.H.G.H.^.^.^.H.j.h.h.G.J.P.).XX_.E.^ Z < o X v cXmXxXsXR.Z.V.B.f.B.B.y.4.2.2.2.1.1.1.1.2.2.2.q.w.X.K Y X.-.) ..1...| 1..._ r.y.' _ 4.B.y.r.r..._ ` <.B.B.4.4...w j j ; : O 4 7XVXAXrX#XG.3.a.L.F.Z.H.( i f.).h.G.G.h.h.J.P.G.^.h.:.:.B.C.Z.).(.G.G.).].H.p.,._ ..O.d $XrXhXL.h.g.B.B.:.a.W.@.w S k & + @ A 9X<XyX3X| _ ) -.| R ) -.J } y.| | _ _ | ..) P P R 4.2.2.5.5.4.4.y.B.:.2.1._ Y Y r.f.<.4.B.V.V.B.V.5.5.V.4.r.r.U w j 3 & + o :XIXJXZX#Xh.h.Z.Z.f.a.].XXJ.G.H.G.h.H.G.G.J.OX@XOXXXOXXXP.h.J.XXJ.XXXXXXXXP.P.P.P. X XOX@X&XOX).OX$X&X$XrX$XrXpXN.N ~ m ",
"uXnXnXiXD.F.B.g.g.g.Z.!.^.(.^.L.(.L.(.f.4.,.` a.F.(.}.[.[._._.[.}.S.4.4.4.4.f.F.S.Z.S.F.S.B.<.&.f.Z.Z.j.`._.[.}.Y.H V 9 # $ v 1X<X4X4XI ^ X.X.) ) _ ..1.1.1.1.2...=.` :.f.h.s.G.J.P.OX@XOXG.h.f.<.C.Z.B.B.4.:.*.F.a.Z.).^.G.G.Z.a.<.<.4.B.'.D.X.z B j # X A HXmXCXM./ 3.F.Z.Z._.(.(.(.(.^.^.F.F.Z.5.5.V.Z.g.g.Z.V.V.Z.Z.V.V.V.V.Z.Z.Z.Z.Z.Z.Z.V.B.B.B.f.g.B.Z.Z.H.H.^.!.!.(.e.t j   & X 9.JXzXnXE.D.D.a.p.H.Z.H._._.[._.G.h.h.G.C.f.p.p.f.a.f.f.f.Z.Z.g.g.Z.B.4.f.<.g.Z.C.Z.Z.g.4.4.<.<.4.4.<.>.:.:.=.-.X.x = % O O + ;X8X6XtX{.Y.B.F.F.:.:.4.2.<.<.<.f.B.B.B.5.4.B.B.4.4.f.<._ 4.5.B.B.B.B.S.F.V.V.V.Z.!.^.^.^.^.^.^.^.^.^.^.`.S.Y.Y.| 0 w k X O 2 qXHXnXeXOXJ.P.J.J.H.H.J.J.P.).L.).L.].C.d a.f.f.B.B.B.f.f.f.g.a.<.f.f.p.f.Z././.H.H.G.H.H./.H.h.h.h.h.H.OX_.oXXXE.^ Z 9 o X b cXmXxXiXD.B.V.B.B.V.B.5.2.2.2.2.1.1.1.1.1.1.1.2.1.2.-.K ) 1.| -.| | -.-...| =.2.:.' =.S.V.4.V.4._ _ 2.B.y.4.y.+.w g v 2 + o 4 qXJXBXsXR.:.<.C.Z.F.(.F.d a B.[.Z.Z.Z.h.f.G.).G.^.f.*.<.a.C.K.L.J.z.).).L.].a._ ) ..` ] K.kXjXL.a.f.Z.4.<.,.R.+.M Z B , , . ! 0X<XyX3Xr.) _ ;.| T | -.R ) -._ ..R | -...Y J J Y 4.5.y.5.2.2.4.y.4.2.=.=._ K _ 2.4.B.5.4.S.Z.g.6.f.g.g.r.r.2.^ r j f $ $ , :XIXLXZXrXJ.H.).G.a.s.@XXXG.G.J.G.G.OXH.G.P.OX).P.OXXXOXH.z.J.).J.J.OX).P.).XXXXXXXXOX@X@X&XOXG.).@X$X$X&X$XpXrXN.^ ~ n ",
"uXnXnXiXD.F.B.g.g.g.Z.Z.^.(.^.L.(.^.(.f.4.,.` f.L.'.].[.[.[._.[.}.S.5.4.4.4.f.F.S.S.S.F.F.B.4.:.f.Z.Z.Z.`._.`.}.Y.U V 9 # $ v 1X<X4X4X^ } +.1.| ) ) _ =.1.1.:.X.:.:.O.,.B.h.h.L.J.J.).@X+XL.h.h.*.B.C.f.B.4.*.*.Z.f.C.).^.G.G.Z.B.<.<.f.C.F.A...M V g # - A KXmXiXM.] a.F.Z.Z.`.(.(.(.(.^.(.L.F.Z.f.5.V.Z.g.g.Z.V.Z.Z.Z.Z.V.V.V.Z.Z.F.F.Z.Z.Z.V.V.B.B.5.5.g.Z.^.H.l.^.!.!.(.r.t j X $   9.JXzXNX#XL.D.a.p.J.G.P._._._._.L.C.C.G.h.f.p.p.f.a.a.f.f.Z.Z.f.f.B.V.f.f.p.f.Z.C.Z.Z.B.4.4.4.<.<.<.<.<.&.$.=.2.8.z - - & + o ;XcXlXxX{.A.t.S.A.:.:.4.>.2.<.<.f.B.B.B.f.B.B.f.4.4.4.:.' 5.B.B.B.B.B.A.S.B.B.B.Z.!.^.^.^.^.^.^.^.^.^.^.`.Y.Y.A.} 0 w k # O 2 qXHXzXeXOXJ.J.J.H.G.G.H.J.J.L.L.).L.).a.d h.f.f.g.C.C.g.f.f.f.a.a.f.f.a.f.H././.H.H.l.H.H.H.H.s.h.h.h.H.]._.oXXXE.^ Z 9 o @ b cXmXxXiXD.B.V.B.B.B.B.y.4.2.2.1.1.:.=.-.-.-.-.1.1.2.=.) ) ......;.;.;.;.-.-...2.:._ $.B.V.4.V.5.` _ 2.V.y.4.r.X.w g v 2 + o 4 qXJXCXjX'.] *.B.Z.F.(.F./ a B.].Z.Z.C.f.p.G.).Z.^.f.,.<.a.B.D.L.J.z.).).).].a.' _ ..) ' K.kXjXL.C.B.Z.a.<.,.R.3.M Z A , , . ! 0X<XyX3Xr.| | -.| T | X.P W 1.| ..) ..-...Y a J Y 2.4.5.4.2.2.4.y.4.>.:.1._ Y _ 2.4.B.y.4.V.Z.f.6.f.g.g.r.t.2.^ y j f $ $ , :XIXLXZXdXJ.H.).G.a.G.@XXXG.z.J.G.G._.J.G.P.OX).).OX).OXH.z.J.).J./.OXXXXXXXXXXX).XXOX@X@X&XOXJ.).@X$X$X&XpXpXrXN.^ ^ q ",
"uXnXxXiXD.F.D.g.g.g.Z.Z.^.(.^.L.(.(.'.B.4.:.` B.(.'.].[.[._._.[.[.S.f.f.f.4.f.F.F.S.S.F.F.B.4.,.f.F.Z.H._._.`.].Y.I V 9 # O l :X<X4X4X .^ +.2...` _ _ ` 1.2.1...:.:.:.,.B.h.h.L.J.J.).OXOXL.h.p.*.f.g.f.f.4.,.<.C.p.C.).L.G.J.Z.B.>.<.C.Z.D.r. .U V g - X S KXmX>XN.3.B.F.Z.Z.^.(.(.(.(.(.^.(.L.V.f.g.Z.Z.V.g.Z.V.V.Z.Z.Z.Z.V.V.Z.Z.F.F.Z.Z.V.V.V.B.5.4.4.g.F.`.H.H.^.!.!.(.r.t j - $   9.LXMXVXpXL.D.p.p.H.J._.oX_._.OX).J.C.C.h.f.p.f.f.f.p.p.f.Z.Z.f.5.g.V.f.f.<.f.Z.g.Z.Z.f.4.4.4.<.<.<.4.4.&.%.$.r.i.0 - - & O o ;XFXmXxX3XA.y.A.A.1.1.<.2.>.<.4.B.B.B.B.B.B.5.<.4.4.>.` _ B.B.B.B.B.B.B.B.B.B.V.Z.^.`.^.^.^.^.^.^.^.^.^.`.'.t.1.T r z k % & 2 qXHXzXeXOXJ.J.H.G.G.z.G.J.J.J.P._.^.L.<.( C.g.C.C.C.C.C.C.g.f.a.f.C.f.a.C.^././.H.H.l.H.H./.H.h.h.h.h.H.]._.oX_.E.^ Z 9 o X b cXmXxXiXD.B.V.B.B.B.B.5.4.2.2.1.1.1.:.1.1.1.1.1.2.:.-.;._ ) ;._ -.-.| | 1.-.| :.:.' / 2.B.y.y.B.=._ >.B.B.4.2.X.w g v 2 + o 4 9XJXCXNX'.( ` f.Z.F.L.F.' s f.(.C.h.C.p.p.C.L.C.^.f.,.<.a.M.D.L.J.z./.).+X].3.) ..../ ' K.kXjXL.a.B.Z.a.,.:.R.e.N Z b , , . ! 0X<XyX3Xu...=.;.} T W } J T 2.;.;._ =.-.| Y a P R 2.4.4.4.2.2.4.y.4.2.1.1.` Y ) 1.2.y.y.4.V.S.f.f.g.V.B.r.t.3.^ q j f $ $ , :XIXLXVXrXH.G.H.s.p.G.&XOXH.G.J.G.G._.G.h.P.OX).).OXXXOXH.z.J.).J.J.OXXXOXXXXXP.).XXOX@X@X&XOXJ.).&X$X$XrX$XpXrXN.^ ~ q ",
"uXnXxXiXD.F.D.g.g.g.j.Z.^.^.^.L.^.(.].B.4.:.` B.'.'.'.].).)._.[.|.S.B.B.B.f.B.F.F.Z.Z.S.S.V.5.<.B.(.^.H._._._.}.Y.I V f # O h :X,X4X4X@.K +.1...` ` ` =.1.r.4.1.=.:.O.:.f.h.h.L.J.P.).XX).C.p.<.,.f.f.4.f.a.<.a.h.a.C.(.L.H.H.Z.f.>.4.F.Z.B.3.@.U V f - # S HX8XR.D.B.C.Z.Z.!.^.(.(.(.(.(.^.(.(.V.g.g.Z.Z.V.V.Z.V.V.Z.Z.Z.Z.V.V.V.Z.Z.Z.F.Z.V.V.V.B.4.4.5.V.~.(.H.H.^.Z.!.~.r.t w   $   9.LXMXVXpXD.C.a.h.).H.+XOXXXXX+XOXP.C.h.h.f.p.h.Z.C.g.f.p.Z.Z.f.5.g.B.f.f.<.f.Z.g.Z.Z.f.4.4.4.<.<.<.4.B.:.( $.y.q.0 - # & O + :XcXcXxX3XA.A.A.B.4.4.4.4.<.4.5.B.4.4.f.B.4.>.>.<.>.` ` :.f.B.B.V.B.B.B.B.V.V.F.^.`.`.`.^.^.^.^.^.`.`.`.^.S.-.) ) e c k = & 2 qXFXzXeXOXJ.J.J.H.G.G.H.J.J.L.).).).H.<.*.Z.C.C.C.Z.Z.C.C.C.h.f.C.Z.f.a.C.).)./.H.H.H.H.H.H.H.h.h.Z.h.H.+X_.oX_.E.^ Z 9 o X b cXmXiXiXD.B.V.B.V.B.B.y.4.2.2.2.2.2.2.2.2.2.2.1.2.-.-.2._ Y ;.| -.-.....-.-...` $.' / =.B.B.4.B.:.' $.4.y.4.1.X.w g v 2 + o 4 0XJXNXNXL.d / f.S.S.F.F.( s a.Z.C.f.C.a.<.C.L.Z.^.p.,.4.B.a.C.L.J.z.J.).$X].O./ 2.=./ ' K.kXjXL.,.4.C.a.,.O.R.e.N C b 1 , . ! 9X<XyX3XA.-.;...T I T T J } r.-.;.` =.-.| Y K Y _ 1.2.4.4.2.2.4.y.4.>.1.2.` Y ) -.2.y.y.4.V.Z.f.g.g.V.B.y.B.3.^ q j f $ $ , :XIXLXZXhXP.H.H.s.p.G.&X@XJ.z.G.G.G._.G.h.P.OX).).OXOX+XH.z./.).J.J.OXXXXXXX).P.).XXXX@X@X@XOXI.OX=X@X$XrX$XpXrXN.^ ~ n ",
"uXnXxXiXD.F.B.g.g.g.j.Z.^.^.^.^.^.(.].B.4.:.` B.'.'.'.].).)._.[.[.S.B.B.B.f.B.F.F.S.Z.Z.Z.B.f.<.D.(.L.Z.^.`.`.}.Y.I V g # o h :X,X4X4X8.H X.1...` =.:.:.1.r.B.r.-.>.:.:.f.p.h.P.G.).OXOXL.h.p.p.<.C.B.a.f.f.a.f.C.f.Z.).L.L.L.Z.a.:.4.L.Z.B.M.e.U V f # # A 0X<XW.R.F.C.B.Z.(.(.(.(.(.(.^.^.L.F.g.g.g.Z.Z.V.V.Z.V.V.V.Z.Z.Z.Z.V.S.S.Z.Z.Z.Z.V.V.V.5.>.4.V.~.~.Z.H.H.Z.Z.Z.'.r.M w - $   9.LXMXVXpXD.D.h.C.).G.).oX).).+X+X).G.C.h.p.p.C.H.H.Z.Z.<.C.Z.Z.B.B.g.4.f.<.f.Z.B.Z.Z.f.4.4.4.<.<.4.a.B.:.( _ r.i.0 - * & + , :XcXlXyX3XS.S.A.r.4.4.4.<.4.B.B.5.4.<.4.5.<.<.4.4.:.' $.f.5.B.B.B.B.B.B.V.F.F.(.(.`.`.`.^.^.^.^.`.`.`.^.Z.4.) ) | U c j = O 2 qXFXgXrXOXH.J.J.J.J.J.J.P.P.).).L.).L.p.p.C.C.C.Z.Z.Z.Z.C.C.C.g.C.C.f.a.C.)./././.J.H.H.H.H.H.h.h.h.h.H.].).oXXXE.^ Z 9 o X b cXcXiXiXD.B.B.S.V.V.B.y.4.2.:.4.4.2.2.2.2.4.4.1.2.-.=.r.=.Y ...._ | -.-.;.;.-._ ` ` ' =.B.S.4.B.:./ / :.4.4.2.X.w g v 2 + o 4 cXJXNXNX'./ ' f.S.F.L.L.' s a.Z.g.g.C.a.,.h.L.G.H.<.,.a.B.a.C.L.J.z.J.P.$XL.' / y.1./ ' K.kXjXL.,.,.f.f.4.,.R.N.N C b 1 , . ! 9X<XyX3Xu.-.=.| R P T T P ..y.-..._ =.-...R Y _ -.2.2.2.2.2.4.4.y.2.:.1.2.` Y Y -.1.y.y.4.V.V.g.g.g.B.B.B.B.r.I q z f $ $ 1 :XIXLXZXjXOX).).h.p.J.&X@XJ.h.G.G.G._.G.h.P.OX).).OXOXXXG.l./._.J.P.OXJ.).XXJ.J.XXOXOX@X@X@XOXP.OX=X@X&XrX$XrXpXM.~ ~ n ",
"uXnXxXiXD.F.B.g.g.g.j.Z.^.(.(.^.^.(.'.B.4.>.` B.'.'.].].).)._.[.[.S.f.B.B.f.B.F.(.F.Z.Z.Z.B.B.4.B.L.Z.h.Z.^.`.}.Y.I V g # O h :X<X>X>Xe.p 1.2.:._ :.1.:.:.4.B.B.:.2.>.,.f.h.C.].G.).OXOX).H.C.h.f.F.Z.f.f.f.f.h.Z.h.H.).^.^.P.C.a.<.B.Z.C.C.D.N.U V g # # b 9XQ.>XE.F.C.Z.L.`.`.(.(.(.(.^.~.F.Z.g.g.V.Z.V.g.V.Z.V.V.Z.Z.Z.Z.Z.Z.S.S.Z.Z.Z.V.V.V.g.4.>.5.F.'.~.Z.H.Z.Z.Z.F.~.r.M j   $   9.LXzXVXpXD.D.C.G.P.h.J.).J.).OX+X].).L.h.p.p.G.).).^.^.a.C.Z.Z.Z.Z.B.4.f.<.f.C.B.B.Z.f.4.<.<.4.4.B.B.B.&.( _ 1.8.0 - * O + , :XcXlXyX3XA.S.r.-.1.4.<.<.B.B.B.4.<.<.<.4.4.f.B.4.&.` >.B.4.f.B.B.B.B.Z.F.F.F.^.(.^.Z.^.^.^.^.^.`.`.^.Z.f.` / ..1.I c j = O 2 qXHXnXfXOXH.P.J.J.J.J.J.P.P._._.L._.G.<.f.h.C.C.Z.Z.C.C.C.C.Z.g.f.C.f.a.C.(./././././.H.H.H.H.h.h.h.h.G.).).oXXXE.^ Z 9 o X b cXmXiXiXD.B.B.F.V.V.B.y.5.2.:.2.2.2.2.2.2.2.2.1.1.=.1.2.=._ _ -._ _ 1.1.....2.` $.:.:.=.y.F.y.B.>.' / ` 4.5.r.X.w g h 2 + o 4 FXJXNXNX'.` :.Z.F.F.(.F./ a a.F.f.g.C.a.,.h.L.H.H.<.<.f.B.a.s.L.J.H.H.J.@XD./ ` S.2.' ` K.jXrXL.,.:.f.f.f.3.R.M.C C b $ , . ! qX<XyX3Xy.;..._ P J T } K -.u.-..._ =.-...) ) | 1.2.2.2.2.4.4.4.4.4.>.1.2.` K Y -.1.r.y.4.V.V.g.g.g.V.B.B.B.r.I q j f $ $ 1 :XIXJXZXhX).H.).h.p.C.&X@XJ.h.G.H.H._.G.h.J.OX).).OXOXXXG.l./.).P.P.OXG.J.).J.J.XXOXXX@X#X@XOXP.@X-X@X&XrX#XrXpXN.N ~ q ",
"uXnXxXiXD.F.B.g.V.g.j.Z.^.^.^.^.(.^.(.f.4.>.` f.'.'.[.[._.)._.[.[.Z.f.f.f.f.B.F.'.(.F.Z.Z.Z.B.4.B.F.F.C.^.^.`.}.Y.U V g = $ h :X,X<X>XN.t 1.4.:...>.>...:.r.B.4.1.<.>.<.f.h.C.].P.).OXXX].].H.f.Z.^.Z.f.f.f.f.h.H.Z.L._.).).).C.f.f.Z.Z.f.Z.L.D.N V g #   b 9X2XtX].F.D.F.(.`.(.`.`.`.(.Z.Z.Z.Z.f.g.V.V.g.g.V.Z.Z.Z.Z.Z.Z.Z.Z.Z.V.V.V.Z.Z.V.V.V.4.4.4.f.Z.~.~.F.L.Z.Z.V.F.Y.r.M g   $   9.JXzXnX{.M.a.h.G.).h.H.).J.).OX+X).L.L.Z.f.p.h.)._./.^.f.Z.Z.C.Z.^.Z.<.a.<.a.B.f.f.B.4.4.<.,.4.f.B.B.f.&.$.$.-.o.z - % & + , :XcXvXxX3Xr.A.1.) :.4.<.4.B.B.4.4.<.4.4.4.4.B.y.>.$.:.4.B.B.B.B.B.B.B.Z.F.F.F.F.F.Z.Z.^.`.^.^.^.^.^.Z.<.&._ _ 4.t.I w j = X 2 qXHXmXfX@XH.P.P.J.J.J.J.P.P.P._.^.].C.*.h.p.C.C.Z.Z.Z.Z.C.C.Z.f.f.f.f.a.f.H.)././././.J.H.H.H.h.h.h.h.G.).P.oX_.E.^ Z 9 o X b cXcXiXyXC.B.B.V.V.B.B.y.5.4.>.1.:.:.:.1.1.1.2.2.:.:.2.:.1.=.Y .._ ..-.-.-.-.=.:.=.2.>.` 2.S.B.V.5.=._ $.4.5.r.X.w g v 2 + o 4 cXJXNXsX'.:.4.F.F.F.(.F./ i a.L.f.f.C.a.*.f.L.H.H.p.<.C.D.a.a.L.P.J.J.J.+Xh./ :.A.2.` ] K.jXrXL.a.,.4.4.a.,.R.N.U C b $ , . ! qX<XyX3Xt...| _ J I W } K ..y.-.=._ =.1.-._ ) | 1.4.4.4.4.4.4.4.4.y.2.2.2...Y ) 1.:.r.y.4.V.V.f.g.g.V.V.B.B.r.I y B f & $ 1 :XIXJXVX&XH.H.).C.p.s.@X@XI.h.G.J.H.OXh.h.J.OX).XXOXOX_.G.h./.XXP.).OXz.P.XXP.P.OX*XXX@X#X@XOX).@X-X@X&X&X#X#XeXN.N ~ n ",
"uXnXxXiXD.F.B.g.V.g.j.Z.H.^.^.^.(.L.(.f.4.,.` 4.'.'.}.[._._._.[.[.Z.f.4.4.4.B.(.}.'.^.F.F.Z.B.f.f.L.^.Z.`.`.).$XY.U V g = $ h :XlX>X3XN.t 1.4.:.2.<.>.=.1.B.B.1.:.>.>.,.a.p.C.].OX).).).OX+XG.p.Z.(.Z.a.a.p.p.h.H.H.).].).).).C.f.D.H.Z.f.D.R.T.N V g #   b 0X,XiX].D.Z.(.`.(.(.`.`.(.^.Z.Z.Z.g.5.g.V.g.g.g.V.V.Z.Z.Z.Z.Z.Z.Z.V.V.V.S.Z.Z.V.V.V.<.4.5.B.B.V.~.(.L.Z.Z.Z.S.Y.w.x g   $   9.JXzXnXR.4.a.p.G.).G._._./._.+X].L.G.J.G.h.p.h.).).^.^.Z.Z.C.g.Z.^.Z.4.4.,.4.f.4.a.B.<.4.,.:.4.B.Z.B.4.&.>.=.2.8.x = # & O + :XGXmXbX{.4.B.:./ :.4.4.B.B.B.4.<.4.4.4.4.<.4.>.` ` <.B.B.B.B.B.f.f.B.Z.F.F.F.^.F.Z.L.`.[.`.(.^.^.Z.f.&./ ' &.A.A.I w g * @ 2 qXHXMXNX@XH.J.J.J.J.J.J.P.P.G._.).+Xh.[ f.p.C.C.C.Z.Z.C.C.C.Z.f.a.f.f.a.f.Z.)././././.J.H.H./.z.h.G.h.H.]._.oX_.E.^ Z 9 o X b cXcXiXyXC.B.B.B.B.y.y.B.B.5.4.:.:.:.:.1.1.1.2.4.:.2.2.=.1.1.a ) =.-.| ..1.1...2.=.4.>._ ` B.B.V.B.2.=.:.4.y.4.+.w q h 2 + o 4 0XJXxXpXR.,.a.S.F.(.'.F.s i a.(.a.f.h.a.*.f.L.H.H.p.<.C.D.a.a.L.XX).J.J.+Xa.d 1.y.1.' O.K.jXrXP.N.,.,.:.<.,.L.3.U C b $ , . ! qX,XyX3Xt...| _ J T | | P | r.-.-.` -.1.-._ ) | -.5.4.4.4.4.4.4.4.y.4.2.2.=.Y ) 2.:.r.y.4.V.V.f.g.V.V.B.B.B.r.I q m f & $ 1 :XIXVXVXrXJ./.+XP.h.G.@X@XJ.s.G.J.P.+Xh.h.J.OX).XX@X@X).G.h.).XXP.).OXz.).XX).XX*X*XXX@X#X@XOX).@X-X@X$X&X#X#XeXSXN ~ n ",
"uXNXnXiXD.D.D.Z.Z.!.!.Z.Z.^.^.^.`.(.F.<.f.4.` a.}.}.}.[._._._._.`.F.<.<.f.Z.Z.Z.`.[.Z.Z.Z.g.g.,.a.(.'.^.`.`.(.}.}.I E 9 * X v ;X4X4X4XN.^  .r.:.<.4.4.>.>.4.B.B.` _ >.&.,.h.C.P.P.XXOX).OXOXC.*.f.`.^.g.a.<.f.Z.H.Z.G.).+X_.G.s.a.g.f.H.G.D.].D.U C 9 #   h HX8XNXrXF.L.(.H._.(._.`.^.(.^.Z.Z.g.f.V.Z.Z.Z.Z.Z.V.Z.Z.Z.Z.Z.Z.V.V.B.V.V.V.B.B.g.5.>.5.V.F.F.F.F.F.(.C.Z.(.~.A.X.L 9 $ & . 9.JX7XnX{.a.a.D.C.L.+XP.).XXOX)._._.).J.G.+X)._.+XH.).L.H.h.Z.H.Z.Z.Z.f.B.:.4.D.<.B.F.<.4.<.4.B.B.a.4.4.&.>.>.2.i.x = # X + o :XGXcXbXT.r.` _ >.2.<.B.B.B.4.<.y.B.4.4.r.r.../ / :.4.B.B.4.4.f.B.V.Z.F.F.Z.^.'.(.Z.F.(.'.(.Z.Z.'.(.:.d d :.B.B.Y.I M j = $ 2 0XHXmXBXOXJ.J.J.P.P.).).P.P.G.).L._.h.*.Z.C.C.C.Z.Z.Z.Z.Z.C.Z.f.a.f.a.<.f.^.)././.J.J.H.H.H.z.z.G.J.P.).]._./._.].^ Z 9 $ X b cXmXiXyXB.B.B.B.B.B.B.B.5.5.5.2.4.y.5.:.:.2.=.4.4.y.y.4.:.-.=.Y Y =.1._ -.r.=.=.S.=.2./ =.5.4.B.B.4.` ' 4.V.4.X.w j h , + o 4 qXJXxXsXB.<.4.B.'.f.L.B./ / 4.}.Z.C.C.p.p.G.).G.^.g.f.B.4.a.D.J.OXJ.J.).+XC.` D.Y.-.` O.D.jXrXE.].<.*.( >.:.].N.N C b X , . A qX2XyX3X1.1...-.} W T I K | w.w.-.=.=.;...) Y _ -.4.5.y.5.4.4.y.y.4.y.y.:.-.) a 2.2.y.B.5.B.S.Z.g.g.V.V.B.B.r.^ r j h # , @ :XLXVXBXdXG.).+XG.P.C.@XOX).J.J.J.)._.G.G.G.).@X&X@XOXP.l.H.).J.J.XXXXz.XXOX).J.XXOXOX@X@X@XP.P.@X@X$X$X&X$XrXrXN.N ~ n ",
"iXNXnXsXD.F.Z.Z.!.!.!.Z.Z.^.^.^.(.(.F.4.f.4.( a.}.}.}.[._._._._.^.Z.f.<.Z.Z.Z.Z.'.}.Z.Z.Z.g.Z.<.f.(.].^.`.`.`.}.'.U E 9 * X h ;X>X3X4XN.^  .4.:.<.4.4.>.2.4.B.B.=.` 1.&.,.h.C.P.P.).XX).OXOXZ.*.h.`.^.f.a.a.f.Z.H.H.H.).[._.G.h.p.Z.Z./.H.G.].D.U C 9 #   h HX0XNXpXK.L.`.H._.^.`.^.^.^.H.Z.Z.g.f.V.Z.Z.Z.Z.Z.V.Z.Z.Z.Z.Z.Z.V.V.V.V.V.V.V.B.f.4.5.B.V.F.~.~.~.F.(.4.<.5.S.A.X.w * # &   9.JX7XNX{.a.a.C.C.L.XXH.).XXOX)._.].).J.).OXG.G.).H._.].H.h.Z.H.Z.Z.Z.f.B.:.4.B.<.f.Z.,.<.<.<.f.f.<.<.4.<.<.2.y.i.x = # O & o :XGXmXNXW.<._ ` <.<.4.B.B.B.r.4.4.4.4.2.2.:.` ` ..>.4.5.B.<.4.B.B.Z.Z.F.Z.Z.^.(.(.(.'.'.F.F.F.F.F.5.( d ' <.B.B.F.I M j = $ 2 9XHXmXBX#XJ.).).).).).J.P.J.G.).L.).p.] C.h.C.C.Z.Z.Z.Z.Z.C.Z.f.a.f.a.<.f.^./././.J.J.H.H.H.G.H.J.J.P.).).)./._.E.^ m 9 $ X b cXmXiXyXB.B.y.g.B.g.f.5.5.5.5.>.2.y.y.:.=.2.2.4.4.y.y.4.2.1.1.Y Y ;.1...-.2.-.=.V.:.4.` 2.V.V.B.B.5.$._ 2.V.r.1.e m v , o o 4 0XJXxXbXD.4.4.B.].Z.'.B.' ( a.].C.C.C.C.h.].&X].`.f.a.B.a.a.D.L.XXJ.).).].h.O.Y.Y.-.` ` D.jXrXE.].4.*.( :.:.'.M.N C A $ , . A qX<XyX3X1.1.| ;.} | W P P | w.w.-.` ..-...) Y } 1.4.5.y.5.4.4.y.y.y.y.y.1.-./ p =.1.4.B.B.V.S.Z.g.V.Z.V.B.A.r.^ r j h # , @ :XLXVXVXhXJ./.OXJ.).G.&X@XOXP.J.J.)._.h.G.J.).OX@X@X@XJ.l.H./.J.J.XXXXz.).OX).J.XXOXXX@X@X@XP.).@X@X$X$X&X$XrXrXN.N ~ n ",
"iXNXnXsXD.D.F.Z.!.!.!.Z.Z.^.^.^.L.^.L.f.B.<._ f.'.}.].[.[._._.[._.(.f.<.g.Z.Z.F.[.[.Z.Z.Z.Z.Z.a.f.'.].`._.`.`.}.Y.U E 9 * X l ;X<X3XyXN.K  .r.3.4.4.4.<.4.B.B.B.:.=.1.] ] h.C.P.P.).).).OX].Z.,.Z.(.Z.p.p.p.f.Z.H.^.)._._.).G.h.f.H.).+XH.G.].D.N C 9 = X v KXcXsXpXK.(.`.^.`.^.^.^.!.!.H.Z.Z.h.f.V.Z.Z.Z.Z.Z.Z.V.Z.V.V.Z.V.V.V.V.V.B.B.B.g.4.>.B.B.B.V.F.~.F.Z.D.>.` ` ....I 0 = X o   9.LX7XVX{.4.,.C.C.L.XXH.).XXXX_.].].).G.).XXs.h.H.H._._.G.h.Z.Z.h.h.Z.f.B.>.4.B.4.B.B.:.<.<.<.a.a.<.<.<.<.5.4.y.i.x = # & , @ :XGXmXCX{.>.' ` 4.4.4.B.B.B.y.4.2.2.4.1.:._ ` =.2.4.<.<.4.<.4.B.Z.F.Z.Z.Z.^.^.^.(.'.}.'.S.F.(.F.B.$.' ` :.f.Z.B.F.I M z $ o , DXHXmXBX%XJ.XXXXXXXX).J.J.J.C.P.).H.,.] p.p.C.Z.Z.Z.Z.Z.C.C.C.f.a.a.a.a.C.(.)././.J.J.H.H.H.H.J.P.P.J.J.P.)./.XXE.^ m 9 $ @ b 0XmXiXiXB.B.B.5.5.5.5.5.5.4.4.>.:.5.B.2.=.2.4.4.4.4.4.2.>.4.4.) Y _ 1.-.-.2.2.` y.>.2.` :.B.S.B.B.B.:._ :.B.y.2.M Z n 2 + o 4 cXJXyXbXD.3.2.f.F.S.'.4.' :.f.(.f.f.h.h.h.).$X].`.<.<.C.B.3.C.).XXXXXXXX].a.O.'.Y.=.` ' N.jXrX{.L.a.&.` ` :.R.M.m ~ A $ , . A qX<XyX3X1.-._ ;.) | W J J } w.r.=._ ..-...R Y | 2.y.5.y.5.4.4.y.y.y.y.y.:.-.Y i | 1.4.y.B.V.S.V.g.V.Z.V.B.A.t.) w j h O , X :XLXVXZXhXP._.OXJ.L.G.&X@XXXP.J.J.P.).h.G.P.XXOXOX@X@XH.h.H./.J.).XXXXz.).OXXXXXXXOXXX%X@X@XP.).@X&X$X$XrX$XrXrXN.N ~ n ",
"iXNXnXNXD.L.F.^.!.!.!.Z.Z.^.^.^.Z.^.(.B.B.<.' f.'.'.].].[._._.[.=X[.g.<.f.g.Z.`.'.}.Z.Z.Z.Z.Z.f.a.'.[.)._._.`.}.Y.H U 9 *   v :X,XyXxXD.^ ` B.4.4.4.4.4.r.B.B.B.4.>.<.( ] h.C.P.P.).XX).OX].Z.p.^.^.h.<.p.f.f.Z.H.)._._././.l.h.h.)._.+XH.G.].D.N C 9 = $ b KXFXiX$XK.(.`.^.`.^.^.^.!.^.^.H.Z.j.g.Z.Z.Z.V.Z.Z.V.V.V.V.V.V.V.V.V.Z.B.B.B.V.g.4.4.V.B.f.B.F.~.F.B.>...` Y i p H 0 =   O   9.IX7XVX#Xa.,.C.C.P.+X).).XXXX_.].].).G.J.J.p.s.H.H.).).G.h.Z.Z.h.h.Z.f.B.<.B.D.B.B.B.,.4.4.f.f.g.f.f.f.6.6.2.w.8.x = % $ , @ :XGXmXCXW...' :.5.5.5.B.B.y.r.4.:.:.4.1.-.) ) -.4.r.4.>.<.f.B.Z.Z.Z.Z.Z.Z.!.^.^.^.'.'.'.S.F.F.B.:.` >.5.B.Z.Z.B.S.K M z $ o , DXHXMXBX@XJ.OXOXXXXX).J.J.J.C.L.).Z.*.] p.p.C.Z.Z.Z.Z.Z.Z.C.f.a.a.a.f.f.Z.)./.J./.J.J.H.H.J.J.P.).P.J.J.P.).XXXXE.^ m 9 $ o v 0XcXiXyXC.B.B.5.f.5.5.5.5.4.4.4.$.2.B.5.:.2.4.4.4.5.4.2.2.2.2...Y Y =.1.-.2.A.=.4.2.:._ ` 4.y.y.B.B.>._ =.y.B.2.M m n , + @ 4 0XGXyXsXM._ ` 4.B.B.L.:._ f.Z.'.C.f.C.h.p.Z.L.C.).<.:.C.B.3.C.].OXXXXXOX+XC.O.R.Y.-.` ' M.rXrX#XL.f.&.` ' ,.R.M.m ! S $ ,   A qX<XyX3X-.;._ ..T } T J J } w.r.-._ ..1.;.Y K } 2.y.y.5.5.5.5.y.y.y.y.y.1.1.) i _ :.1.4.B.V.V.g.g.V.Z.Z.A.S.t.) w j h X , o :XLXVXVXhXXXXX_.G.C.C.@XOX).P.J.J.P.P.h.J.).OXOXOXOXOXz.h.H./.J.).XXXXz.P.OXOXXXOXOXXX%X&X@X).).@X&X$X$XrX$XrXrXN.N ~ q ",
"zXnXnXbXD.L.L.^.Z.!.!.Z.Z.^.^.^.Z.L.(.B.B.<.' B.'.'.].].[.[._.[.[.`.g.<.f.Z.Z.`.`.[.Z.Z.Z.g.Z.f.4.(.[.)._._.`.}.S.H C 9 *   v :X,XxXbXT./ O.S.B.4.<.>.<.4.B.B.B.B.4.4.( ] C.G.P.P.P.).XXOX).Z.p._.^.f.<.p.f.k.j.Z./.oX_./.J.l.h.G._._./.h.h.].D.N C 9 = $ b KXHXiXpXK.(.`.^.`.!.^.^.^.^.^.^.Z.Z.g.Z.Z.V.V.Z.Z.Z.Z.V.V.V.V.V.V.V.F.V.B.V.V.g.f.B.F.V.B.V.~.~.Z.B./ ) ..Y p K U 6 * X $   9.LX7XVXpX3.] p.h.G.+X+X)._._._.OXOX).G.H.H.*.p.G.H.).H.G.h.C.C.f.f.C.f.4.<.4.B.B.B.a.>.4.f.g.Z.Z.Z.g.f.g.5.2.2.o.z = % $ & o :XGXvXbXT._ ' <.B.B.B.B.B.B.B.4.:.1.1.:.......:.4.y.r.4.4.Z.Z.Z.Z.Z.Z.Z.Z.Z.^.(.F.F.'.~.F.y.4.../ =.B.F.V.Z.^.B.S.K M z $ O , DXHXmXVX@XP.XXXXXXXX).).P.J.G.L.).h.] *.a.p.C.Z.Z.Z.Z.Z.C.C.a.a.<.a.f.C.L.].J.J.J.J.J.J.J.J.J.).).P.J.G.I.).XXXXE.^ m 9 $ o v 0XcXiXyXC.B.B.B.g.g.f.5.5.5.5.B.$.:.y.y.4.4.4.2.5.y.4.>.>.>.:.:./ Y ..1.:.2.Y.2.4.B.>.=.$.2.B.y.y.B.2._ ` 4.B.1.t m n , + @ 4 9XGXyXyX3./ _ <.f.F.F.:.:.F.L.].(.Z.Z.C.h.Z.L.Z.^.*.*.C.B.a.D.).XXJ.XXOX$XC.' M.~.=.` ' M.rXrX{.P.C.] ` / 4.'.M.t { ~ $ , . A qX<XyX3X-.;._ | T R P J P | w.r.=._ =.1.-.R K } 2.B.y.5.5.5.5.y.y.y.y.y.2.4...p _ :.:.4.B.V.V.g.g.V.Z.F.D.S.A.| w B h X , o :XLXVXBX&X@X+X].L.C.G.@XOX).P.P.P.).).G.H.P.OX@X@XOX).z.h.H.).H.J.XX).H.).XXOXOXOXOXXX%X&X@XXX).@X&X$X$XrXpXpXpXN.N ~ q ",
"uXnXxXiXD.L.L.(.Z.!.!.Z.Z.^.^.^.^.^.(.C.Z.<.' B.'.].].[.[.[._._.Z.^.g.f.Z.Z.Z.`.`.[.Z.Z.Z.g.Z.a.4.L.].)._._.`.}.S.M C 9 * X b 1X4XxXbXD.^ O.S.a.<.:.&.>.4.4.4.4.B.4.4.' ( h.C.L.P.).).OXOX).C.p.[.^.f.<.k.k.k.j.H.).+X_././.H.h.G._./.H.h.h.].T.N C 9 = $ b KXHXbX$XG.L.^.Z.`.!.^.^.^.^.`.^.Z.Z.g.Z.Z.V.V.Z.Z.Z.Z.Z.V.V.V.V.V.Z.V.g.g.B.5.<.5.V.Z.V.B.V.Z.V.4.:.a ) ..-.2.t.} 7 * # &   0.KX7XnX{.,.] p.p.h._.+X_._._._.+X+XP.h.).J.*.x.h.l.).).G.h.C.C.p.f.Z.h.<.<.<.4.f.a.<.>.4.f.C.Z.Z.Z.h.f.!.V.5.2.o.c = % O & o :XGXvXxXD._ ` 4.B.B.f.B.B.S.y.1.1.1...` ` 2.1.1.r.y.B.B.B.F.F.F.Z.Z.Z.Z.Z.Z.^.(.F.F.F.S.A.X._ K / 1.F.~.B.Z.^.Z.F.K t z $ o , DXHXmXVX@XP.XXXXXXXX).).P.P.J.J.).p.( p.f.p.C.Z.Z.Z.Z.Z.C.C.f.a.<.<.f.C.(.].J.J.J.J.J.J.J.J.).).P.P.J.J.P.)./._.].^ m 9 $ @ v 0XcXyXyXC.B.B.B.g.g.g.g.f.f.5.B.:.:.5.5.5.y.4.4.B.B.4.2.2.2.=.2._ K ) 1.:.2.F.4.>.B.:.:.:.4.B.B.y.B.5.` ` 4.B.+.w n n , o @ 4 qXJXyXeX1.) ..4.B.L.S.` :.F.Z.L.L.C.C.C.h.H.).L.Z.*.*.C.D.a.D.P.P.J.J.XX@Xa./ :.Y.:.`  .M.rXrX#X].Z.` ` / a.].M.m { ! 1 , . A 1X<XyX3X-.;._ | T J P P P } 1.w.1.` =.1.-.) Y | w.B.y.5.5.5.y.y.4.5.y.y.4.y.=.a _ :.:.2.5.B.g.g.V.V.Z.F.S.S.A.| w B h X , o :XLXMXBX%X@X+X_.).G.).@X@XXXP.P.P.)._.J.H.).OX@X@XOX).z.l.H.J.H.J.XX).J.).XXOXOXOXOXOX%X&X@XXXXX@X&X$X$XrX$XrXpXN.N ~ q ",
"uXnXxXiXD.L.(.`.Z.!.!.Z.Z.^.^.^.].(.F.D.F.4._ B.}.}.}.[.]._._._.^.^.g.p.j.Z.Z.[.`.[.Z.Z.Z.Z.Z.4.4.L.].)._._.`.}.S.H C 9 = X A qXtXxXbXN.^ :.S.4.<.:.&.<.4.4.4.r.B.4.4.' ` C.G.J.).).).OXOXL.h.p._.^.f.p.f.p.p.Z.H._.+X_./.oXJ.h.G./.J.l.s.G.#XT.N C 9 = $ b KXFXNXrXG.H.^.Z.^.c.c.c.^.^.`.^.Z.Z.V.Z.Z.V.g.V.Z.V.Z.Z.Z.Z.V.Z.V.Z.V.g.g.f.>.&.<.Z.B.B.B.B.g.>.' s / X.4.r.u.Y.o.6 = X $   0.KX7XnXW.O.] p.p.s.).+X_._._._.+X+XP.h.XXXXp.p.H.H._._.G.h.C.h.p.f.Z.C.<.4.3.<.B.B.4.4.f.B.C.g.C.Z.Z.g.V.g.4.w.8.x = # O & o :XGXcXbXT.' ` 4.B.f.B.B.B.A.1.=.:.1.` _ X.2.2.r.r.r.r.B.F.F.F.F.F.F.Z.Z.Z.Z.^.^.F.F.S.y.1.) ) ) 1.B.~.~.Z.Z.^.Z.F.K t j $ O , DXHXmXVX@XP.XXXXXXXX).P.P.J.L.G.H.] ' f.h.p.C.C.C.Z.Z.Z.C.C.g.f.a.<.a.Z.L.^.J.J.J.J.J.J.J.J.XX).P.J.J.J.P.)./._.E.^ m 9 o X v 9XcXyXyXD.B.B.B.g.g.g.g.f.f.f.B.4.4.4.2.4.B.y.5.V.V.4.>.4.4.:.2.=.Y Y 1.=.-.y.4.$.y.` >.:.>.y.S.B.B.y.$.` 4.A.1.t m n , o @ < qXJXtXW.+.:.4.4.S.L.B.' :.B.a.D.Z.f.f.h.f.C.L.L.h.*.,.B.D.C.K.L.J.H.).XX+Xp./ 3.S.-.` ` N.rXrX#X].F.' ` / D.].M.m { ! & , . A 1X2X4X3X-.-._ | T J P I P R ;.1.1...=.=.-.| _ -.r.B.B.5.5.y.y.y.4.4.y.y.r.A.1.p ) 1.:.2.5.5.5.g.V.g.Z.Z.S.S.A.| w B k X , @ :XJXnXVX&X@X/.P.P.G.OX&X@X).J.J.J.H.).h.J.).@X@X@X@X@XH.H./.J.H.).OXXXP.).XXXXOXOXOX*X@X&X@XOXOX@X&X$X&XrX$XrXrXN.N ~ n ",
"uXnXxXiXD.L.(.`.Z.!.!.Z.Z.^.(.^.[.(.F.D.F.4._ B.}.[.}.[.[._._.).[._.g.*.<.g.Z.[.`.[.Z.^.^.Z.Z.a.<.F.`.`._._.`.}.D.H C 6 = X A 9XlXbXbXN.^ 1.S.<.4.:.:.4.B.B.f.B.S.B.B.] *.L.).).).).XXOXOXL.h.p._.^.f.p.f.p.p.G.H._.+XoXoX+X).h.G.).H.z.h.H.#XD.N C 9 = o b KXmXNXrXG.G.^.j.^.c.j.!.!.^.(.^.Z.j.V.Z.Z.V.g.V.Z.Z.Z.Z.Z.Z.Z.Z.Z.V.~.Z.Z.V.<.&.4.~.V.V.V.V.5.:.Y i ..r.S.y.2.r.o.0 = X $ X 0.IX7XNXR.] :.C.p.s.).+X_._._._.+X+XP.h.).XXz.H.XXJ._.).G.h.C.h.p.p.Z.C.4.a.<.4.B.B.4.f.C.Z.Z.f.g.Z.^.Z.<.4.2.w.8.x = % O & o :XGXmXNXW.' ` f.V.f.f.B.B.y.` ) :.1.` | 2.1.2.r.r.2.2.B.'.B.Z.F.^.^.^.Z.Z.^.~.F.F.'.S.2.) Y _ 1.A.'.'.'.(.h.^.Z.F.J w j $ o , 0XHXmXVX&X).XXXXXXXX).J.J.J.L.C.Z.( d C.C.f.C.C.Z.Z.Z.Z.C.C.Z.C.f.<.a.C.H.H.J.J.J.J.J.J.J.J.XX).J.J.J.I.P.P././.{.^ Z f o   v 9XcXyXyXA.B.B.B.g.B.B.g.f.5.5.5.5.B.5.:.2.V.B.B.Z.V.4.>.4.5.2.:.=.Y Y :.=._ 1.y.$.B.` 2.>.>.5.~.B.V.B.:.$.4.S.1.t m n , o . < 8XJX>XR.O.4.B.4.(.(.B.' :.Z.a.Z.).Z.h.h.p.h.H.G.f.*.,.B.D.F.K.G.P.J.XX+X+Xa.' B.V.=.` ` N.jXjX$X+XK.' ] / F.{.M.m #.! , , . A 1X2X4X3X-.-._ | T P T R J P _ -.1.` ` ;.-.....1.u.A.B.5.5.y.y.5.4.5.y.y.r.A.1.p Y 2.1.2.4.5.5.f.V.g.V.Z.S.S.B.) w B k X , o :XJXzXLXrX@X^.h.J.h.OX&X@XP.H.h.h.C.G.p.H.OX@X@X@X&X-XJ.J.).J.H.).@XXX).).XXXXOXOXOX@X@X&X@XOXOX@X&X$X@XrX#XrXrXN.N ~ q ",
"uXnXfXiXD.L.F.^.^.!.Z.Z.^.^.^.^.`.^.^.Z.Z.<./ a.].[.[.[.[.[.[.[.[.`.f.<.g.Z.^.}.[.'.`.(.F.Z.Z.B.4.D.(.)._._.[.}.Y.H m g # X v 9XvXNXbXO. .<.f.>.<.*.:.4.f.f.a.a.f.C.f.<.f.G.).H./._.$XXXOX_.p.p.).Z.a.p.a.h.C.C.G.$X+XJ._.OX).G.C.OXH.z.z.J.OXK.N C f $ X A KXMXNX#XG.C.j.j.j.^.`.(.(.(.Z.g.f.f.Z.V.V.V.V.g.g.Z.Z.V.V.Z.Z.V.V.V.B.g.|.>./ V.F.B.5.S.S.4.=._ _ _ r.1.4.4.y.A.X.0 f - ; . 0.JXzXNX{.a.&.4.a.p.^.).oX_._.XX_.).H.G.XXXXP.P.).).).P.L.h.h.C.p.<.h.Z.f.4.<.<.4.a.a.<.f.L.Z.f.Z.L.^.(.f.4.4.X.8.z 6 % & $ o 1XGXmXCXT./ :.B.B.B.B.B.B.:./ ..4...) :.1.2.r.y.r.4.4.Z.F.Z.F.Z.Z.Z.^.(.(.(.'.F.S.S.$.s ` >.4.B.S.~.~.F.Z.^.H.Z.R.H M B # o & 0XJXVXVX@X).oXXXXXXX/.J.G.L.D.].4.d ' f.F.a.Z.Z.h.h.Z.Z.Z.Z.f.f.f.h.C.C.C.G.P.J.J.J.J.J.J.J.XXXXXX XJ.I.J.J.XXXX{.^ Z f $ X v 0XcXyXiXA.y.5.B.4.B.V.B.5.5.>.B.B.5.4.>.>.5.B.B.g.B.B.B.B.B.y.:.2.Y a _ 2.w.=.:.$.B.>.` 4.4.B.F.~.F.B.>.' $.S.r.t m m < o o , FXmX>XW.1.4.,.a.`.^.Z.( f.j.p.p.^.Z.h.h.h.j.H.L.B.>.>.f.C.f.h.P.G.H._.=X).*.( Z.F.&./ O.K.aXjX#X].(.` / ] C.W.N.N ~ #., o @ A 1X2X,X3XX...) ..| W P R R P R ;.=._ ` 1.-.-.-.| r.S.B.5.y.y.5.4.4.5.y.y.y.y.2._ J 2.1.2.y.5.5.g.Z.g.g.Z.B.B.S.) t C n $ X , ;XHXzXCXrX$X).Z.Z.h.].$X).OX).h.G.).h.z.J.OX@X@XOX@X&XP.J.).).J.).+XOX+X).).OX@X@X@X@X*X@X@XOXOX&XrX&X&X&X#XrXpX@.N ~ q ",
"uXnXfXjXD.K.L.^.(.!.Z.Z.!.^.^.^.(.~.Z.Z.Z.<.( a.[.[.[.[.[.[.].[.[.(.4.<.g.F.^.}.[.'.`.^.F.Z.Z.B.4.D.(.)._._.[.].Y.H M g # X v 9XzXiXiX@. .4.B.4.>.&.&.<.f.a.4.a.f.f.a.<.p.Z./.H././.OX).OX).p.p.).G.p.p.p.h.C.G.G.@XOXJ.).OXJ.h.G.OXG.z.z.J.OXK.N C f $ X A JXMXNX#XG.G.l.l.c./.`.(.~.~.Z.g.f.f.V.V.V.V.V.V.Z.Z.Z.Z.V.V.V.V.V.V.V.g.Z.&.$.V.V.B.S.F.S.-.Y Y _ 1.t.4.4.4.5.B.X.w g - ; . 0.JXuXNX#XB.>.a.a.f.G.H.XX/._.XXOX_.).J.XXP.P.P.P.P.P.P.H.h.h.h.p.p.h.Z.f.<.<.<.4.f.f.f.f.Z.C.C.L.(.G.G.a.,.r...8.z 6 * & $ X 1XGXmXNXD./ >.B.B.B.B.B.B.=.) :.4.` ) 1.2.4.r.4.4.5.g.Z.Z.Z.Z.^.Z.Z.^.(.~.~.S.4.>.:./ d ` S.F.F.^.(.(.(.^.H.H.Z.Y.U M D # O & 0XJXVXBX@X).oXXXXXXX).J.J.L.L.C.&.` :.<.B.Z.Z.j.j.h.j.j.Z.Z.Z.h.h.h.f.f.f.C.).J.J.J.J.J.J.J.XXXX X XJ.J.J.J.XXOX{.^ Z f $ X v 9XcXyXyXA.y.5.B.5.V.V.5.5.B.5.y.B.5.4.>.>.5.f.B.g.g.g.B.B.B.5.:.4._ a _ 2.w.1.:.` 5.:.` 4.4.5.F.F.S.B.2._ $.S.r.t t m < $ O < FXvX>XW.,.4.4.C.^.^.j.( j.H.j.j.`.^.j.f.f.j.H.^.(.B.<.f.B.p.h.P.J.).).^.Z.*.*.g.V.&.' :.C.&XjX$X'.L.$.' 3.D.{.N.~ { { , 1 @ A 1X:X4X3XX...) X.| W P R Y J R ..=._ ` 1.-.-.-.| r.S.y.5.y.y.5.4.4.5.5.y.y.y.2._ p 1.1.2.y.5.5.g.Z.g.f.F.B.B.A.) t C B $ X , ;XHXzXCXrX=X`.Z.h.C.[.=X+X@X+Xz.G.OXP.h.J.).@X@X@X@X&XP.G.J.P.P.).OXP.).P.).OXOXOXOXOX*X*X@XOX#X&XrX&X&X&X#XrXpXN.N ^ j ",
"uXnXnXjXD.L.(.`.(.!.Z.Z.!.^.^.^.(.~.Z.B.Z.4.( f.[.[.[.[.[.[.[.[.'.F.4.<.Z.^.^.[.[.`.(.F.Z.Z.Z.C.4.Z.`.).`._.`.'.R.H M g # X v 9XzXuXiX@.` 4.B.4.<.*.*.<.f.B.B.B.f.C.f.p.p.Z./.H.).).+X).XX).p.h.).L.C.p.p.h.G.G.G.OXOXJ.XXXXG.h.L.OXG.h.z.).OXD.N C f # X A JXMXCX#XD.G.^.^.^.^.^.!.!.~.V.g.p.f.g.Z.Z.g.f.V.Z.Z.Z.Z.V.V.V.V.V.B.Z.B.5.$.4.F.B.V.F.B.1.Y K ) 1.w.A.4.4.4.5.B.-.z g X ; . 0.HXzXBX#XM.,.a.f.f.C.G._._._.XX+XOX).P.XXP.J.J.J.J.P.J.J.G.C.h.<.p.Z.g.4.<.,.<.a.f.g.f.h.C.h.H.+X).C.C.,.,.3...8.z 6 ; % O o :XGXmXbXN./ >.B.B.B.B.B.B.` ` :.:._ ` 2.4.r.4.4.4.B.B.Z.B.j.Z.(.^.F.F.^.F.'.4.` ' d / &.<.(.(.F.F.F.F.F.^.H.H.Z.Y.U c D # O , 0XJXVXBX@X).oXXXXXXX).J.L.).L.,.` :.4.<.f.L.Z.j.j.j.j.j.Z.Z.Z.Z.Z.h.f.a.f.G.).J.P.P.P.P.J.J.XXXX X XJ.J.J.J.XXXX{.^ Z f & X v 9XcXyXyXA.y.5.4.4.y.B.4.4.5.5.B.B.5.4.2.4.5.f.B.g.g.g.B.g.5.y.:.2.` a ) 1.2.2.=.` >.:.` 2.2.4.S.S.B.y.4.` $.B.r.t t m < & + < cXvX>XW.3.a.a.F.^.!.j.( Z.`.H.^.).^.j.f.f.h.H.^.}.B.<.4.f.p.C.P.J.+X_.Z.j.h.f.j.f.&.] ,.N.+XhXaX'.F.&.] M.E.pXK.^ { ! 1 1 o A 1X<XlX3XX...} X.o.T P P K J Y ..-._ ` 1.-.1.-.| r.S.y.5.y.5.5.4.5.5.5.5.y.y.r._ u 1.1.r.y.5.5.5.V.Z.g.F.B.B.A.) t C B $ X & ;XHXvXNXpX$X^.h.h.Z.+XaX_.OX+XG.J.OX).s.G.P.OX@X&X&X@XXXG.J.P.P.)._.J.H.).OX@X@XOXOX@X*X*X@XOXOX&X&X&X@X&X%XrXrXN.N ^ j ",
"uXnXnXjXK.L.(.`.(.!.Z.Z.!.^.^.^.(.~.F.V.F.g.&.C.[.[.[.[.[.[.[.[.'.^.f.<.Z.^.^.`.[.`.^.Z.Z.V.V.C.4.F.].[.`.`._.}.'.H V g # X v 8XzXiXiX@.O.4.B.<.<.>.<.a.B.D.D.D.f.C.C.p.f.H././.XX/.OX_.OXXXs.J.(.^.G.f.p.h.G.H.J.OXOX).XXP.z.z.E.OXz.z.l.XXOXD.N C f # X b JXMXCX#XD.G.^.^.c.^.!.Z.S.S.V.f.6.f.g.F.F.5.<.B.V.f.g.V.Z.V.V.V.V.B.Z.V.>.&.B.F.y.S.4.$.Y K _ r.y.r.r.4.4.f.V.F.q.V j X ; . 0.HXuXBXW.>.:.4.f.Z.C.H._._._.XX+X_.).P.XXP.P.J.J.J.P.P.G.G.G.p.*.p.h.f.4.<.,.<.f.B.C.C.h.C.C.(.$X).h.C.a.3.4...8.c f * & $ o :XGXmXbXN._ <.B.B.B.B.B.B...:.:.` ` 1.r.4.4.4.4.B.B.B.Z.B.Z.^.(.^.F.(.(.~.F.&./ / s ` B.B.F.S.Z.Z.Z.Z.Z.^.H.H.Z.Y.H c D # O , 0XJXVXVX@X).XXXXXXXX).P.P.).K.] ` :.a.F.V.Z.h.j.j.j.j.h.h.Z.h.h.C.h.f.a.Z.).).).).).P.P.P.P.XXXX X XP.J.J.J.XXXX{.^ Z f & X v 9XcXyXiXD.B.y.4.2.5.5.4.5.B.4.B.5.5.4.4.4.5.f.g.g.g.g.B.f.5.5.2.:._ a ) 2.1.2.:.` :.:.$.>.2.>.S.S.B.B.y.:.=.B.r.t t n < & + < 9XlX3X{.3.4.4.(.H.!.j.( Z._.^././.^.Z.h.f.h.Z.^.'.B.,.<.a.p.C.L.h.OX+X).H.Z.g.Z.f.&.*.,.a.#XjXpX'.Z.` :.C.].pXR.^ { ! 1 1 o A :X1XlX3XX.X._ -...T P P P J Y ;.-._ ` 1.=.2.1.| r.S.y.4.5.f.5.5.5.5.5.5.5.B.y._ i ..1.r.y.5.5.5.g.Z.V.~.B.B.A.^ w C B $ X , ;XHXzXNX#X$XH.f.C.Z.=XhXG.h.H.H.P.).G.h.G.P.OX@X&X@XOXP.G.J.P.P.)._.H.H.).XX@XOX).OX@X*X*X*XOXOX&X&X&X*X&X@XrXrXN.U ^ j ",
"uXnXnXjXK.L.(.`.(.!.Z.Z.!.^.^.^.(.(.^.B.F.Z.*.g.[.}.[.[.[.[.[.[.[.(.f.4.Z.^.F.`.[.`.^.Z.Z.Z.Z.Z.4.F.[.[._._.[.}.'.H M g # X v 8XzXiXxX3.3.B.B.<.:.&.<.<.f.C.D.D.f.C.h.p.p.j.H././.).+X_.OX).s.L.(.).L.h.p.C.J.H.P.OXXX).XXJ.z.G.].OXz.z.J.XXOXD.N C f # X A JXMXCX#XF.C.H.H.j.j.!.V.V.V.B.5.p.f.V.F.Z.4.<.B.V.f.>.f.Z.F.F.F.V.B.V.Z.>.>.V.V.5.B.Y Y / ` 2.B.B.4.r.4.B.Z.~.'.r.M j X ; . 9.HX7XBXR.] ,.4.h.L.G.)._.XX_.XXXX).P.J.XXXXP.P.P.).).P.C.C.C.p.*.<.h.p.4.<.,.<.f.C.Z.Z.C.Z.G.).OXG.h.G.G.C.M...q.L g * & & o 1XGXmXbXN.` 4.V.B.B.B.B.B.>.>...) -.r.r.1.1.r.B.B.B.B.Z.Z.Z.^.^.F.F.(.~.F.4./ / _ / >.Z.V.Z.Z.Z.F.Z.^.^.^.Z.^.Z.Y.H c D # O , 0XJXVXBX@XXXoXXXXXXXXXP.P.).K.d ' <.B.L.f.g.f.h.j.j.h.h.h.h.h.h.h.h.f.f.Z.].).).).).P.P.P.P.XXXX X XJ.J.P. XXXXX{.^ Z f $ X v 0XcXxXsXD.B.B.B.5.5.B.B.F.F.4.B.5.5.4.4.5.5.5.g.f.g.g.g.g.5.5.5.:...a | y.-.2.:.=.:.2.:.:.4.>.S.S.V.S.V.>.:.B.r.t t n < $ + < 9XlX3X3X4.4.3.L.H.Z.j.( Z.`.^./.^.^.H.j.h.h.h.H.(.B.4.a.a.p.h.J.G.P._.].^.p.4.`.f.>.*.*.a.$XjX$X].B.' ] C.E.#XR.^ { ! 1 1 o A 1X1XlX3XX.-.| -...T P P P J Y ;.-._ ` 2.-.2.1.| r.S.5.4.5.f.5.5.5.f.B.y.5.y.y._ i ) 1.y.B.5.5.5.g.Z.V.~.B.A.A.^ w C n $ X , ;XFXzXxX#X[.Z.f.Z.L.=X$Xh.h.J.h.J.).H.G.I.).OX@X&X@XXXJ.G.P.).P.).+X_.G.J.P.).P.J.XX@X*X*X*XOX#X#X&X&X*X&X@X&XrXN.U ^ n ",
"gXNXnXjXD.L.L.`.(.!.Z.Z.!.^.^.^.^.^.F.g.Z.g.[ <.[.[.}.[.[.[.[.[.[.`.g.4.Z.^.^.`.[.`.(.F.Z.Z.Z.Z.4.F.[.[._._.[.}.R.H M g # X v 9XtXeXiXd.4.B.D.<.>.<.<.p.f.D.L.L.a.g.f.<.<.h.H.H./.J.XX/.XXP.a.J.(.).H.f.h.G.H.G.P.OXXX).XXJ.z.P.{.OXG.z.J.XXOXD.N C f # X b JXMXCX#XF.C.H.j.h.h.Z.V.B.B.g.5.f.g.V.Z.V.4.<.5.B.g.:.5.F.F.Z.F.V.g.V.V.:.4.V.B.B.>.a ` 5.y.5.4.5.y.A.B.S.~.~.'.e.x k X ; . 9.HXwXBX{.:.4.a.C.).Z.).XXXX_._.).).J.G.XXXXP.P.).).).P.G.h.h.p.*.<.g.f.f.4.<.<.f.C.Z.Z.C.L.L.^.).G.h.H.).K.B.+.q.E g = & & & 1XHXmXbXM.` 4.Z.B.B.B.B.B.4.4.` ) 4.A.r.2.2.y.B.Z.B.B.Z.^.^.^.^.F.^.^.Z.5.&._ ` >.<.f.F.S.F.F.F.F.F.F.Z.H.l.Z.Z.Y.H c k # O , 0XJXVXBX@XXXoXXXXXXX).L.L.).K.y d D.F.B.*.C.f.h.Z.Z.h.h.h.h.Z.C.h.h.f.f.Z.).).).).).P.P.P.P.P.XX X XP.J.P. XXXXX{.^ Z f $ X v 9XcXxXsXD.B.B.5.5.5.5.B.F.F.4.B.5.5.4.5.5.5.5.f.f.f.f.g.5.5.5.y.:.=.Y -.S.-.2.2.2.>.5.2.=.5.2.V.S.S.F.F.2.:.B.r.t m n & O + < 8XvXtXyXM.4.,.K.H.Z.j.( j./.^.^.H.H.H.Z.h.h.h.Z.'.F.D.B.a.a.h.G.).).).].L.*.<.=Xf.<.:.,.s.$XkX$X].f./ ` C.R.#XR.^ { ! 1 1 o A 1X1XlX3XX.-...-...T P P P a Y -.1.) _ 1.-.1.1._ 2.S.5.4.5.f.5.5.5.5.B.B.4.y.y...p Y -.y.B.5.5.5.g.Z.V.~.B.A.A.^ e C b $ X , ;XFX8XbX#X].f.<.h.Z.].L.J.OX_.s.G.OXXXG.).@X@X@X&X@X).G.G.P.OXP.).@X+XH.H.J.P.P.P.OX@X*X@X*XOX#X#X&X&X*X-X@X%X#XM.U U j ",
"nXBXNXjXD.L.L.^.(.!.Z.Z.^.^.^.^.^.(.^.g.Z.g.( ,.].[.[.[.[.[.].[.[.'.g.4.Z.^.(.[.|.'.(.^.Z.Z.Z.C.<.Z.].[.`.`.[.}.Y.H M g # X v 9XtXeXpX+.3.B.D.4.<.f.g.f.B.K.L.R.a.C.C.p.<.h.H.H./.J.XX_.XXJ.p.J.).).G.f.h.H.L.G.P.).).).).z.z.).#XOXG.z.J.XXOXK.N C f # X b JXMXCXeXK.Z.Z.h.f.j.Z.V.g.5.5.5.f.Z.V.V.5.<.:.:.:.>.:.B.F.V.B.V.V.5.V.B.=.4.B.B.B.s _ >.V.V.5.4.B.Z.F.F.F.~.(.'.e.M k X ; . 9.HXzXBX{.] 4.4.h._.h.).XX_.XXXXXX).P.J.XXXXP.J.P.P.P.P.H.h.h.h.<.p.h.Z.g.f.<.<.f.C.Z.C.Z.).).J.).H.h.h.).L.F.1.q.V g * $ $ & 1XHXcXxXe.:.f.Z.B.f.B.B.B.4.4.` ` y.B.4.r.4.B.B.V.Z.Z.Z.^.(.(.(.(.'.F.4._ &.<.4.f.Z.F.Z.(.F.F.Z.Z.Z.Z.Z.Z.c.c.Z.Y.H c k X O , 0XJXVXBX@XXXoXXXXXXX).L.G.(.C.y ` (.Z.f.&.Z.f.j.H.H.j.h.h.Z.H.Z.h.h.C.C.Z.L.).J.P.J.P.P.P.P.P.XX X XP.P. XXXXXOX{.^ Z f $ X v 9XcXyXiXD.B.B.4.4.5.>.:.5.V.5.B.5.4.5.5.B.5.5.5.f.f.f.g.5.5.5.4.=.2._ 1.S...2.4.4.2.B.2.` 5.2.B.S.F.~.F.>.=.y.M.t m n & o O < 8XvXiXsXD.a.,.L.Z.j.j.( j./.^.^.H.H.G.h.s.k.h.H.(.L.F.C.a.p.h.L.OX).).[.(.<.a.=X5.<.<.,.a.#XkXaXL.4./ :.D.E.#XW.^ { #., o o A qX<XtX3XX.1.X.-.| ) K K P a R 1.2.) _ 1.=.1.-._ 2.S.5.4.5.f.5.5.5.5.V.V.4.y.y.-.J K X.y.B.5.5.g.g.Z.V.~.B.A.A.) t C n $ o , ;XFX8XCX#X'.<.*.a.a.Z.G.H.+X).s.J.@X).G.XX@X@X@X@X@XXXJ.G.I.).P.).+X).).H.J.).XXXXOX@X*X@XOXOX#X#X&X&X*X-X%XOX#XN.U C q ",
"nXBXNXjXD.K.F.^.(.!.Z.Z.^.^.^.^.(.`.`.Z.^.Z.( *.].[.[.[.}.[.].[.[.`.g.4.Z.(.'.[.'.'.`.(.F.Z.Z.C.:.D.`.).`.(._.}.Y.H m g # X v 9XzXeXeX@.:.4.B.<.<.6.f.a.f.Z.L.L.f.Z.Z.f.p.j./.)./.J.+XXXOXJ.p.J.).).Z.p.h.L.L.h.P.).J.J.P.z.z.XX{.OXG.z.J.J.OXK.N C f # X b JXMXNX3XL.G.Z.h.j.Z.Z.V.y.y.y.5.g.Z.Z.g.4.:.` / / _ 4.V.F.B.5.B.V.5.F.5.` 2.y.V.V.i 2.4.4.4.f.F.(.(.L.F.Z.!.(.'.r.N k % 2 . 9.HXzXBXE.' ,.,.a.).h.)._.XXXXXXOXOX).P.XXP.J.J.P.P.P.P.P.h.h.Z.f.p.Z.H.C.f.<.<.f.h.C.C.G.).L.G.)._.G.s.J.P.'.3.X.c g * # $ o 1XGXcXxXe.:.f.S.B.f.B.B.B.5.f.:.:.B.B.2.B.B.B.B.B.F.F.^.F.^.^.(.`.'.F.:.a :.B.B.B.(.F.Z.(.F.F.Z.Z.Z.Z.^.^.c.c.Z.Y.H c k O O , 0XJXVXVX%XXXoXXXXXXX).J.G.L.<.i f.(.f.C.<.h.h.Z.H.H.Z.h.Z.Z.Z.h.h.h.C.Z.Z.L.).J.J.J.P.P.P.P.P.XX X XP.P. XXXXXXX{.^ Z f $ X h 8XvXyXyXA.y.y.4.5.B.>.` >.V.B.B.5.4.5.5.B.5.5.5.f.f.f.g.5.5.5.:.` 4._ -.u.) 1.4.5.4.V.2._ 5.2.B.S.F.~.S.:.$.y.A.M m n & o + , 1XvXxXNXK.a.a.).Z.j.j.( j./.^./.H.H.Z.h.p.p.h.H.Z.Z.Z.a.,.x.h.).P.P.).].].a.<.F.<.f.f.a.a.#XkXjXL.<./ ,.L.{.#XW.^ { #., o @ A qX<X4X3XX.1.X.-.| ) K K P J ) 1.2.) _ 1.-.-.-._ 2.V.5.4.5.f.5.5.5.5.V.V.4.4.y.1.Y p X.u.B.5.5.g.V.Z.V.~.B.A.A.) t C n $ o , ;XFX6XCXpX(.<.&.<.,.a.G.G.H.h.h.OX@Xh.z.OX&X@X@X@X@XOXP.G.J.P.).OXOXH.H.G.J.).OXOXOXOX*X@XOX X#X#X&X@X@X-X%X#XE.3.N C 9 ",
"uXNXnXfXD.R.(.Z.^.!.!.^.^.`.^.^.(.(.(.^.F.g.,.( ].[.$X[.[.[.[.[.=XL.<.<.B.`.[.[.'.[.[.^.Z.Z.Z.f.4.4.]._.^._.`.}.D.H V g #   b 0XmXuXiX3.O.S.a.B.f.<.f.g.f.D.'.R.f.Z.Z.f.p.j./.).XXoX).XX@Xz.p.).).C.p.h.Z.C.C.G.OXOX).).).z.h.).$XE.h.J.XX).OXD.N S < &   A HXzXmX3XF.D.H.j.j.Z.~.B.2.y.y.5.5.f.V.Z.5.:.:.$.s a ) >.4.>.5.F.~.B.B.2.=.:.5.V.5.$.4.4.5.B.Z.~.Z.Z.(.(.Z.^.!.}.1.E g - 3 . 9.HXzXNXR.] 4.h.a.J.).).).XXXXXXXX).).).XXXXJ.J.P.P.P.P.L.L.p.h.h.a.Z.Z.C.Z.h.p.p.f.C.h.G.J.).).P.J.G.G.H.).L.r.q.w 0 * - 3 & :XHXcXbXW.<.g.Z.Z.B.B.B.B.S.>.` <.B.B.B.B.4.B.S.Z.Z.L.^.^.L.[.`.(.(.>./ :.B.B.Z.F.F.F.Z.Z.Z.Z.Z.^.^.^.Z.Z.j.j.^.B.I x g = X , DXHXMXAX&XP.oXoXXXXX).J.G.G.] d f.D.a.Z.g.f.^.^.H.Z.j.j.Z.Z.h.C.Z.Z.Z.Z.L.].).J.P.).).).).).XXXX XP.P.P. XXXoX_.E.^ Z f O X v 1XlXtX3XM.B.y.>.5.V.V.>.5.~.>.5.5.5.5.B.B.B.f.B.5.g.5.<.5.B.4.=.2...) 1.w.2.y.y.4.2.4.4.>.>.2.S.S.S.~.~.4.:.y.A.U z b , X + & 1X8XyXNXE.,.D.L.Z.^.h.,.h._._.^.H.H.).H.h.s.h.G.Z.a.<.f.h.p.s.I.P.L.).+X+X,.4.<.*.Z.h.x.a.OXkXaX).] / <.{.{.jXW.{ { ! , 1 o A 1X<XlX3XX.1.-.1.) _ ..| R J K ..y...) =.=.=.2.:.:.V.B.B.g.f.5.<.<.5.g.B.g.B.B.:.Y Y _ 2.F.F.6.5.V.Z.V.F.B.A.A.) e C k $ o , ;XcX6XiXpXD.&.( *.4.D.C.h.s.h.J.OX).G.J.@X@X@X&X@X@X-XP.s.h.J.J.).$XH.G.H.G.z.).@XOX@X@X@X*X X#XrXrX@X&X@X%X#X#XN.N N 9 ",
"uXNXnXfXD.].(.Z.^.!.!.^.^.`.^.^.(.(.(.^.Z.g.:.( ).[.}.[.}.[.[.}.[.(.g.4.g.Z.`.[.'.[.[.^.F.Z.Z.f.<.<.(.`.!.`.^.'.T.H V g #   b 0XzXuXiXM.1.F.a.f.<.*.<.a.f.Z.'.K.f.Z.Z.f.f.Z.)./.XXoX).oX@Xh.p.P.[.Z.f.C.G.G.G.L.OXOX).).).z.z.XX$X].z.J.XXXXOXD.M S < &   A HXzXmX3XD.D.Z.h.f.g.B.y.A.S.y.4.5.Z.g.V.5.>.2.>.` _ ..:.:.:.4.Z.Z.5.V.2.=.2.y.4.4.5.5.f.V.Z.!.Z.Z.Z.F.F.Z.`.!.=X1.U g - 3 . 9.HXMXNXR.O.4.C.a.J.).).XXXXXXXX).).XXXXXXP.P.P.P.).).P.P.P.h.h.h.a.Z.Z.C.Z.h.f.p.C.Z.C.J.L.)._.).P.J.H.H.).Z.3.e.z g * X 3 $ :XJXcXxXT.4.B.Z.Z.B.B.B.B.B.:.$.4.B.B.y.4.4.B.S.Z.Z.F.F.Z.F.'.(.(.F.:._ 4.B.Z.F.~.(.^.F.Z.Z.Z.Z.Z.Z.Z.Z.Z.g.g.~.B.I z g = X , DXHXVXVX*X XXXXXXXXX).P.L.L.[ ( C.C.f.^.^.Z./.^.^.H.j.j.h.h.C.Z.Z.Z.Z.Z.L.).).J.J.P.P.).).).XXXX XP.P.P. XXXoX_.E.^ Z f O X v 1X8XtX3XM.B.y.>.5.B.V.4.4.F.4.B.5.5.5.5.B.5.5.g.5.g.5.<.5.B.4.>.2.-._ -.2.2.2.4.2.2.4.4.>.:.>.S.F.S.F.F.4.:.r.A.U z n , X , , 1X6XyXsX].a.L.G.Z.^.h.,.h._._.^.H.H.).^.G.h.h.H.Z.a.<.a.p.s.G.).P.I.).+X+X,.4.4.&.^.G.p.d. XkXaXL.[ ' a.{.{.jXQ.{ { ! , 1 o A qX<XtX3X1.1.:.1.| ......) K K ..y.1._ 1.=.=.:.=.$.V.B.f.f.5.5.<.<.g.V.V.B.V.B.=.Y Y ) 2.S.V.5.5.g.Z.g.F.B.A.S.) e C k $ o , ;X0X,XiX{.a.' ' ] ,.C.G.h.h.h.P.OX).H.J.@X@X@X@X@X@X&X).s.h.J.G.).=X_.G.H.G.z.).@XOXOX@X@X*X X#XrXrX@X&X@X@X#X#XN.N N 9 ",
"uXNXnXfXD.].(.^.^.!.!.^.^.`.^.^.(.(.(.^.Z.g.:.( `.}.[.[.}.[.[.].[.`.F.B.f.B.F.'.'.[.'.^.Z.Z.Z.B.:.,.(.).^.`.^.'.T.H V g # X b 0XxXuXxXM.O.F.B.B.<.&.<.f.B.K.R.D.B.Z.Z.f.f.H./._./.oX/.oX@Xh.,.J.[.Z.p.h.H.H.H.L.@X@XXX).XXJ.H.OX&X{.G.J.XXXXOXD.N S * &   S HXzXmX3XD.C.h.f.p.f.5.5.2.1.:.:.4.B.5.B.5.:.>.>.-.-.2.=.` :.5.V.V.5.4._ ..y.y.` ` B.5.V.Z.!.!.Z.Z.Z.Z.Z.^.`.(.=XX.N g - ; . 9.JXMXCXD.O.a.C.a.L.].OXOXOXOXXXXX).XXOXXXP.P.P.).).).).P.L.h.Z.Z.f.Z.Z.Z.Z.Z.h.h.Z.G.G.).).).).).).P.P.J.H.g.3.t.V z * X 3 o :XJXmXyXN.4.B.F.Z.Z.Z.B.B.<.:.:.f.V.B.4.4.5.B.F.Z.Z.Z.Z.Z.F.(.(.~.B.` ..S.Z.Z.F.F.(.(.F.Z.Z.Z.Z.Z.Z.Z.Z.j.j.g.~.y.I z g = X , DXHXVXAX*X XJ.XXXXXXXXP.L.G.( ] Z.g.a.^._.^./.^.H.H.j.j.j.h.Z.h.C.Z.Z.C.Z.L.J.J.J.P.J.P.).).XXXX XP.P.P. XXXXX_.E.^ Z f O X v 1X8XtX3XM.y.y.4.5.5.V.4.:.B.y.B.B.5.5.5.5.5.5.5.4.f.5.<.5.B.4.4.:.=.-.=.1.r.1.y.4.5.B.B.4.2.4.S.F.F.F.F.4.:.2.T.E j n , @ 2 2 :X6XyXiXE.G.P.h.Z.^.h.<.j._._.).H.H.).).J.h.G.P.Z.C.a.p.p.C.J.).).P.).OX}.,.a.f.&.`.).h.d.I.kXhXK.] ] a.#X#XhXK.{ { 7., + o A qX2XtX3X1.2.:.1...=.;...) K K ..y.2...1.1.$.:.` ` B.B.g.5.5.5.5.5.g.Z.Z.V.V.y...a K ) 1.B.V.6.5.g.Z.g.~.B.D.D.) t S k $ O 2 ;X0X,XxXW.,.d ' ] ,.f.G.h.h.G.).OX).G.J.@X@X@X@X@X@X&XXXh.z.G.h.P.@X_.G.H.G.z.).@XOXOX@X@X*X X#XrXrX@X&X@X@X#X#XN.N C g ",
"uXBXnXfXD.].(.^.^.!.!.^.^.`.^.^.(.(.(.^.Z.g.:.( `.[.}.[.[.[.[.}.[.[.(.Z.g.Z.^.[.|.[.'.^.Z.F.Z.B.:.,.`.[.`._.`.'.Y.H V j # X b 0XmXiXiX+. .S.B.F.g.<.f.Z.Z.L.R.D.f.Z.Z.f.f.H./.oX/.oX_.+XOXs.*.J.[.C.p.h.H.H.G.H.@X@XXX).).J.J.OX&X#XJ.XXXX).OXK.M S * &   S JXzXmX3XD.C.g.a.p.f.F.2._ ) =.2.4.4.5.V.5.:.=.=._ ..r...) :.B.V.f.4.` _ -.S.4./ / <.5.V.^.(.!.Z.Z.^.Z.H.^._.`.=XO.N j - ; . 9.KXMXnXD.:.B.D.a.P.OX@XOX*XOXXXP.P.XXOXXXP.P.P.XXXX).).L.H.h.H.^.h.Z.Z.Z.C.Z.Z.G.G.J.G._._.).).).XXXX).J.H.g.4.t.N j * # , o :XJXvX4XM.a.B.Z.Z.Z.Z.B.B.4.<.4.B.S.B.B.f.4.B.F.F.Z.F.Z.Z.L.(.'.F.<._ :.~.B.Z.Z.F.F.F.Z.Z.Z.Z.Z.Z.Z.Z.j.j.j.g.~.y.I z g = X , DXLXVXAX*X XXXXXXXXXOX].G.p.d ,.Z.f.p.H.`.H.^.H.h.h.h.j.Z.Z.C.f.h.Z.Z.C.C.G.J.J.J.J.J.P.P.).XXXX XP.P.P. XXXXX_.E.^ Z f O X v 1X,XtX3X4.r.y.5.5.4.V.5.$.5.V.B.B.5.5.5.5.4.<.5.<.5.5.<.5.B.>.4.=.1.1...2.y.1.y.4.y.V.B.5.4.4.B.S.F.F.F.y.:.1.A.U j n , X 1 , :XlXiXpXL.G.).h.Z.^.h.p.G._._.).^.^.).).H.h.G.H.H.L.G.h.h.J.P.J.OXP.].OX}.,.B.D.&.).+XI.s.I.hXhXG.*.,.D.$X#XjXK.{ { 7., + o ! 9X<XtX3X2.4.1.2...=.=..._ K K ..y.2._ 1.=.=.>.$.` B.B.g.5.6.f.f.f.f.V.V.B.B.4./ i Y _ 2.B.B.5.6.f.Z.g.~.B.D.D.) t V k $ O 2 ;X0X1XNXW.] d ( :.<.C.C.h.h.H.).OXP.G.J.@X@X@X&X@X@X&XXXG.G.G.s.J.+XH.G.H.G.G.).@XOXOX*X@X*XP. X&XrX@X@X@X@X#X#XN.N C g ",
"uXBXNXjXD.].(.^.^.!.!.^.^.`.^.^.(.(.(.^.Z.g.<.( ].[.$X[.[.[.+X[.[.[.(.F.F.^.`.[.[.[.'.^.Z.Z.Z.Z.:.,.].[.`._.`.'.Y.H V j # X b 0XxXiXiX@./ B.B.Z.g.5.Z.L.Z.K.'.L.f.Z.Z.f.f.H./.oX/.oXXX+XOXs.*.L.].C.p.C.H.H.G.H.OX@X).J.J.J.J.@X$X].J.XXXX).OXK.N S * *   S HXzXmX3XD.B.f.p.f.f.y.1._ _ :.y.B.4.g.Z.f.:.=..._ ..-.) Y :.B.g.<.>...-.r.y.>._ ` 4.5.g.!.^.!.j.^.^.^.^.^.`.^.=X:.U j   3 @ 0.HXMXnXK.3.D.D.s.P.@X@XOXOXOXXXP.P.P.OXXXP.P.P.XXXXXXXX).L.h.^.).h.Z.C.C.C.C.G.G.G.J.H.).).P.).XXXXXX).H.H.h.4.N.M j * $ , X :XJXcX4XM.4.g.Z.Z.Z.B.f.4.B.f.f.B.B.B.5.5.4.B.Z.Z.Z.^.^.!.`.`.'.B.` _ 4.~.Z.Z.F.F.F.F.Z.Z.Z.Z.Z.Z.Z.j.j.g.j.g.~.y.L z g * o , DXLXVXAX&X XOXXXP.).@XOXC.[ d a.Z.f.f.Z.^.j.H.j.k.p.k.h.Z.Z.Z.h.h.H.Z.C.Z.^.J.J.J.J.J.P.).).XXXX XP.P.P. XXXoXXXE.^ Z f O X v 1X,XtX3X4.4.y.B.5.>.V.V.$.>.V.5.5.B.B.B.B.4.>.4.<.f.f.4.5.B.>.y.:.1.1...2.y.1.2.2.4.B.B.4.2.>.5.S.S.S.F.B.2.1.t.N j b 2 + + , :XvXNXpXC.h.P.C.G.^.h.k.G._._._.).).).).J.h.h.G.H.).).G.G.).).J.OX).].].{.,.B.D.*.[.$X).G.I.hXhXG.<.f.L.$X#XjXK.{ { 7., + @ ! 9X<XtX3X4.y.>.4.:.:.` _ _ Y J } r.2._ -.=.=.>.$.( 5.V.V.g.5.g.g.g.5.g.V.g.5.2./ e ) X.r.A.V.5.5.f.Z.g.F.B.D.S.) t V k $ O , n.9X<XNXK.' d *.,.4.C.C.h.h.H.).).J.h.J.@X@X@X&X@X@X&XP.G.J.J.h.J.+XG.G.H.G.G.).@XOXOX@X@XOXP. X&XrX@X@X*X%X.X#XN.N C g ",
"uXBXNXjXD.].(.^.^.!.!.^.^.`.^.^.(.(.^.^.~.V.<.&.].}.=X$X[.$X+X[.[.[.(.(.`.[.[.[.|.[.'.^.Z.Z.Z.Z.:.:.(.[.^._.^.'.Y.H V j # X b 0XtXuXiX+.' B.4.f.<.<.g.Z.C.F.'.L.f.Z.Z.h.f.H./.oX).oXXX+XOXs.x.).).Z.h.G.^.H.J.P.OX@X).H.J.H.J.OX#X].J.XXXXJ.OXK.N E * *   A HXzXmX3XD.M.a.<.<.4._ =.-.2.2.4.B.f.g.Z.5.:.2.1.;.-.-._ | 4.F.V.5.<.1.2.2.=._ $.2.5.g.g.Z.!.!.!.^.^.^.^.^.^.^.}.:.U j   ; @ 0.KXMXnXE.a.F.K.C.].$X@XXXOX*XOXXXP.P.OX).P.P.P.XXXXOXOX+X).h.).).h.Z.h.Z.h.C.G.J.G.J.P.).P.J.P.XXXXXXJ./.H.h.a.N.M j * # & X :XJXlX4XN.a.g.Z.Z.Z.C.f.<.B.B.f.f.B.f.4.4.4.B.Z.Z.Z.^.`.^.`.`.(.4./ ..A.Y.F.F.F.F.^.^.^.^.Z.Z.Z.Z.Z.j.j.g.j.g.~.y.J z g * X , DXLXVXAX&X X@XXXP.P.+XOXp.d ( C.C.h.Z.h.Z.h.^.j.f.k.f.h.h.h.H.C.Z.H.Z.f.C.).).J.J.P.).P.XXXXXXXX XP.P.P. XXXoXXXE.^ Z f O X v :X,XtX3X3.4.y.B.B.:.B.F.:.>.B.4.5.B.V.V.B.5.<.4.<.g.g.5.5.B.>.B.5.2.1.;.1.2.=.2.2.4.B.y.4.2.2.2.S.F.V.F.F.4.1.r.N j b 2 o + + :XzXNXrXC.s.P.G.G.^.h.f.H._.)._._.).).).J.h.h.z.Z.^.).P.P.OXXXP.OXP.].{.{.,.B.C.,.[.@X).G.I.hXhXG.a.C.].rX#XjXK.{ { 7., + @ ! DX,XtX4X4.y.>.4.:.:.` _ _ R J ) w.w._ 1.=.$.>.$.' 4.B.V.g.f.g.j.g.f.V.V.g.g.4._ i | 1.u.S.V.5.5.f.Z.g.F.B.D.D.) t V k $ O , n.9X<XxXN./ / ,.<.<.C.C.h.h.H.P.J.G.h.G.@X@X@X&X&X@X&XI.G.I.P.H.OX@XJ.h.H.G.G.).@XOXOX*X@XOXP. X&XrX%X%XOX#X X#XN.N N 9 ",
"gXBXNXjXK.].(.^.^.!.!.^.^.`.^.^.(.(.(.`.^.Z.<.*.[.[.$X[.[.$X+X[.[.[.`.`.`.'.[.'.[.[.'.~.Z.F.Z.Z.:.:.^.).^.`.^.'.Y.H V j # X b 0XtXuXbX+.' B.4.<.<.>.<.g.B.D.L.D.f.Z.H.h.f.H._.+X).oX_.oXOXs.p.+XL.C.C.L.^.G.G.P.OX@X).G.G.H.J.@X#XP.J.XXXXP.OXK.N E 9 *   A HXzXmX3XN.4.<.*.&.:.Y ..2.2.2.4.4.5.5.f.<.$.2.1.-.-.-.-.2.y.V.V.g.5.1.-..._ ` >.5.g.Z.Z.Z.Z.!.^.c.c.^.^.^.^.!.[.O.U j   3 X 0.KXMXnX#XC.L.K.D.OX@XOX).OX@X@XOXP.XXOXXXP.P.P.XXXXOXOX+X).h.).[.Z.Z.Z.Z.h.h.G.H.J.J.).).P.J.P.XXXXXXJ./.H.f.M.T.U z < # & X 1XJXlXtXT.B.B.Z.Z.Z.Z.f.<.B.B.f.B.B.B.5.<.B.Z.Z.Z.Z.^.`.(.`.`.F.:./ 2.'.S.F.F.F.F.F.^.^.^.Z.Z.Z.Z.Z.j.j.j.j.g.!.y.H 0 g = o , DXLXVXAX&X XXXXX).).OX).,.d ,.L.f.g.Z.f.j.j.H.j.h.j.H.H.Z.h.H.C.Z.H.f.,.a.).).).).).XXXXXXXXXXXX XP.P.P. XXXXX_.E.^ Z f O X v :X<XtX3X3.4.5.V.V.:.B.~.4.>.5.5.5.5.B.V.V.B.5.<.<.g.B.5.B.B.>.B.B.2.-.-.1.-.1.4.4.5.B.B.5.4.4.4.F.F.V.~.F.4.:.t.N j b 2 + 1 , :XzXxXrXL.s.P.z.G.^.j.h.H.).)._._.).P.P.J.G.z.G.H.L.P.).P.).XXP.OX].].].{.,.B.C.<.[.+XP.G.P.hXhXC.p.Z.].&XOXjXK.{ { 7., + @ ! DX1XtX3X4.r.>.2.:.>.` ` =._ K T 2.w._ 1.=.=.4.&.( >.B.V.g.5.g.j.f.g.V.V.B.B.y.=.a X.r.A.S.V.5.5.5.Z.g.F.B.S.S.) t S k $ O 2 n.qX2XtXM./ ( <.<.,.C.G.h.h.J.P.J.h.h.z.OX@X@X&X@X@X&XI.G.J.I.J.OX$XG.h.H.G.G.XX@XOXOX*X@XOXP. X&X&X%XOXOXOXE.E.N.M Z g ",
"gXBXNXjXK.].(.^.^.!.!.^.^.`.^.^.^.(.^.`.(.Z.f.,.].[.$X[.[.[.[.[.[.[.[.].`.(.`.'.[.[.'.~.Z.F.Z.Z.:.:.(.).^.`.`.].Y.H V j =   v 0XzXxXxX@./ B.4.5.g.<.<.f.f.D.F.f.h.H.H.h.h.H.oXOX).oX/.XXOXh.s.$XC.h.C.H.H.C.C.H.OX@X).G.G.J.J.@X].P.G.XXXX).OXK.N { 9 *   A HX8XbX{.M.,.:._ ' ` >.1.-.-.2.y.B.4.>.<.$._ -.-.| } | -.2.4.y.5.5.4.1..._ -.4.B.B.B.~.!.Z.Z.!.!.^.j.H.H.^.(.!.[.X.N j   2 X v.KXMXnXpXD.R.K.G.$X@XOX).OX&X@XOXOXOXOXXXP.P.XXXXOXOXOX).G.p.).[.G.^.^.G.h.C.G.L.J.J.).).J.J.P.XXXXXXJ.XXz.p.a.Y.{ B 9 X & X :XJXlXtXW.B.Z.Z.Z.Z.Z.f.<.B.B.B.B.S.S.B.4.B.Z.Z.Z.Z.F.(.(.(.(.F.` s y.}.Z.Z.Z.Z.Z.Z.Z.Z.Z.Z.Z.Z.Z.Z.Z.Z.j.g.g.S.w.H 0 g # X , DXIXVXZX&X XP.XXOX).].L.,.d a.(.<.f.Z.<.h.G.h.h.h.^.).).L.Z.Z.C.C.C.<.( ,.G.).P.).XXXXXXXXXXXXXX XP.J.P. XXXXX_.E.^ Z f O O v :X<XtX3X3.<.5.V.V.:.5.'.5.>.4.5.5.5.5.B.V.V.V.<.<.g.V.g.B.B.2.5.S.2...2.2.-.2.4.2.4.y.y.4.2.4.4.~.~.S.~.~.4.X.N.U j b 2 + , , :X6XuXfX#XG.P.h.G.H.Z.h.L.).).+X_.).P.P.P.J.G.H.).L.L.P.P.J.I.P.OX].].OX].,.M.B.p.].].P.I. XhXhXC.p.G.].$X.XfXK.{ { 7., + @ ! FX8XtX3X3.r.:.2.:.>.$.` =.| Y T 1.2._ -.:.>.5.>.:.=.5.V.g.5.g.g.5.5.g.B.g.B.y.=.K 1.r.S.S.V.g.5.5.Z.g.F.B.S.S.) t C k $ O 2 n.qX;X3Xe./ ` f.4.<.D.G.h.h.J.P.G.h.h.h.).@X@X@X@X@X@XP.G.G.G.z._.+Xh.h.H.G.G.XX@XOXOX*X@XOXP.E.&X&X%XOXOXOXE.E.N.t Z j ",
"gXBXnXNXK.R.L.`.`.`.!.!.[.[.).).^.^.^.^.Z.Z.g.f.`.=X=X+X=X=X_.[.[.].].].(.L.(.[.'.].`.Z.Z.Z.Z.B.4.&.Z.`.^.`.^.].D.H U j # X b 0XzXuXNX .O.A.y.y.4.>.<.B.D.a.f.C.p.h.C.h.h.^.+X+X).OX).@XP.p.G.).h.<.p.h.H.Z.h.H.+XOX).J.J.P.OX$X].C.I.OXOX@X&XT.M S < &   b FX8XJXY.) ) ` / :.2.B.y.1.=.1.r.r.w.r.2.:.-.-.-.-.-.| -.2.1.:.:.:.:._ ` -.2.y.V.F.~.~.~.~.~.(.!.Z.g.^.Z.Z.~.~.Y.q.V f # $   v.GXMXnXpXN.L.P.G.].OXOX#X].OX@XOXP.E.@X XP.OXOX XOX@XOXXXz.G.).OX).P.G.h.h.j.H.H.G.H.).).).).).).XXXXXXXXG.p.D.}.^ w = X & O :XJXvXyXR.4.B.F.F.S.B.5.>.B.4.f.Z.B.B.S.Z.Z.Z.Z.Z.Z.F.(.'.S.|.4.d <.Z.Z.^.H.Z.Z.Z.H.H.Z.Z.~.^.~.~.!.Z.g.g.g.5.y.r.0 = = & O , HXIXZXZXrX X@XXXOXOX$XL.( ( a.a.g.Z.H.G.Z.h./.).H._.).C.C.f.F.L.:.:.( ] ( ).P.P.).).XXXXXXXXXXOXOX).I.P.OX&X*XOX{.^ Z h & O l 1X,X,XtXr.1.4.B.5.>.4.V.S.5.$.B.B.5.5.V.~.F.B.:.4.B.V.B.4.4.5.4.5.y.2.=.=.2.r.y.5.4.4.5.5.4.2.5.S.F.F.S.S.5.X.e.N Z k 3 & X , ;XwXgXfXP.P.C.C.H.h.h.<.f.].).].].].).P.J.J.H.P.J.J.J.H.H.J.XX*XOXOXI.$XrX] G.s.,.OX$XJ.L.@XaXhXC.s.G.P.rX#XfXE.{ 7.7., 1 @ ! FX6XyX3X4.2.1.y.1.:.2.:.=._ K K ..1.-._ =.4.4.:.>.4.5.S.V.5.g.V.B.g.V.V.g.4.5.=.i ..t.2.~.V.g.5.6.f.Z.F.D.S.A...e C A $ X 3 n.1X<X>X}.` s >.5.:.a.C.Z.C.G.).).C.C.H.).oX).XX@X&XOXG.G.P.).H.).).h.p.H.H.J.XX@XOXOX*X-X@XP.OX$X#XOX%XOX XE.#XN.N Z g ",
"gXBXNXNXK.R.(.`.`.`.!.!._.[.)./.^.^.^.^.^.Z.g.f.(.=X=X[.=X=X_.+X[.].`.(.L.Z.(.[.].].`.F.Z.Z.Z.V.4.:.V.(.^.`.^.'.D.U C j $   v 0XzXxXNX .X.B.y.y.<.:.,.a.C.a.f.h.f.Z.Z.h.h.H._._.).OX).@XP.p.G.).H.h.h.G.H.h.G.).+XOX).J.J.P.OX@X].G.P.@XOX$X$XT.N { 9 $   b GXcXCXY.) | ../ =.:.2.y.y.y.r.y.y.r.w.-._ Y Y } -.-.;.1.2.=.=.=.:.:.=.1.4.y.y.B.F.'.~.F.Z.Z.Z.Z.g.f.j.Z.Z.Z.F.Y.t.c f # &   v.GXMXnXpXs.K.L.G.].OXOX#X#X#X&X#XE. X@X XP.OX*XOXOX@XOXP.h.G.).OXXX).J.h.h.G.H.H.H.H._.).).).).XXOXOXXX+XG.p.D.].^ w = X & O :XJXvXyXR.4.B.F.F.Z.B.f.<.B.4.f.B.f.f.B.B.B.Z.Z.Z.F.F.'.'.F.'.>.d <.Z.Z.^.H.H.Z.Z.H.H.Z.Z.Z.Z.~.~.F.Z.V.g.V.V.A.q.6 6 = # o 4 HXIXLXAXrX X*XXXOXOX[.C.( d g.B.h.Z.L.).P.J.H.z.G.L.).(.F.S.F.S.` &.' ( ( L.P.P.P.).XXXXXXXXP.OXOXP.J.I.OX&XoXOX{.^ Z h & O l 1X<X,XyXM.r.r.y.4.>.4.B.V.5.$.5.y.B.y.V.F.F.B.4.4.4.5.B.B.B.y.4.4.4.2.=.=.2.5.y.5.4.4.4.4.4.>.4.V.F.F.F.S.y.:.e.N Z k 3 & O , :XzXgXfXP.).G.G.H.Z.C.,.h.].J.P.).P.).P.J.J.J.H.J.J.J.J.J.J.XXOX X*XP.OXOX[ s.,.p.+X@XP.L.$XhXhXC.C.I.E.dX#XkXE.{ 9.7.< 1 @ ! FX6XtX3X3.1.:.y.1.:.2.>.=.| Y K | 2.1...=.r.4.:.2.4.4.V.V.5.f.V.g.g.V.Z.B.5.B.>.a -.r.1.F.5.5.5.6.f.V.Z.B.S.A.| w S D $ o 3 n.1X<X3X}.:.d >.4.:.f.C.Z.C.Z.).^.C.C.H._.oX/.).OX@XOXJ.H.).).)._.).j.p.H.H.H.XX@XOXOXoX@XOXP.OX&X$X@X@XOXOX.X#XN.t N g ",
"gXBXNXNXK.L.(.`.(.(.j.j._.[.`._.`.^.^.^.^.Z.g.f.~.=X=X[.[.[._.=X[.].(.(.L.Z.(.[.].[.`.^.Z.Z.Z.V.4.:.V.!.!.`.^.'.D.U V g $   b 0XzXxXNX .X.y.y.y.>.:.:.a.C.f.f.h.f.Z.G.h.h.G._._.).OX).@XP.p.G.).).h.h.H.G.h.G._.@X+X).P.J.P.OX@X].G.OX&XOXOX#XD.^ { 9 =   A HXcXbXY.| X.:._ =.=.:.4.y.y.y.y.u.u.2.-.) K J R | -.-.1.1.-.-.:.:.:.2.4.B.B.5.y.V.~.~.F.F.Z.Z.Z.V.g.f.Z.Z.V.S.Y.t.z f # &   v.HXMXnXrXa.D.L.L.OX$X$X#XOX#X&X&X#X#X&X X XOX*XOXOX&XOXP.s.z.).OXOXXXP.G.G.G.H.H.H.)._.).).).XXOXOXOXOXOXh.p.B.R.^ w * # & X :XJXzXyXR.B.Z.F.F.Z.B.B.4.f.<.5.B.B.B.V.B.g.g.Z.Z.Z.F.'.'.'.~.$.d <.^.Z.Z.Z.Z.Z.Z.H.H.Z.Z.Z.Z.!.!.Z.Z.V.V.V.S.y.X.6 g 8 - o 4 HXIXLXAXdXOXOXXX@XOX].f.d ( Z.Z.C.Z.L.).).P.J.d.G.C.^.[.Z.(.S.B.` ` _ ] ,.].P.P.P.).XXXXXXXXP.XXXXI.G.J.XX@X*XOX{.^ Z h = O k 1X2X<XyXN.t.B.5.4.>.4.B.V.5.:.>.5.V.B.B.B.B.B.B.5.>.4.B.V.V.y.4.4.2.:.=.=.2.y.y.y.5.5.4.4.4.4.4.B.F.S.F.F.y.1.+.M B k 3 & O 3 1XMXnXfXP.).G.G.Z.L.f.] C.).s.P.P.P.P.P.J.J.J.H.J.P.P.P.P.P.XXOX X@XOXOX].,.s.*.h.+X=X).P.=XhX=Xa.s.P..XrX.XfXE.{ 7.7., 1 . ! FX6XtX3X1.:.:.t.1.:.2.:.=...Y K _ 2.2.;.-.r.4.:.4.2.2.B.V.y.5.B.f.g.g.V.V.B.V.4.Y -.2...B.5.5.5.5.5.V.Z.B.S.B. .w C D $ o 2 n.1X<X>XW.2.( >.<.:.B.C.Z.C.Z.^.^.h.C.G.).oX/.).XXOXOXP.J.).).)._._.Z.p.H.H.G.).@XOXOXXX@XOXI.OXrX&X&X&X*XOX#X#XN.t N g ",
"gXBXNXNXK.L.(.`.(.!.j.j._.[._._.`.^.`.`.^.Z.g.f.Z.=X=X[.[._._.=X[.].'.^.Z.Z.(.}.[.}.|.^.Z.Z.Z.V.y.:.B.Z.j.^.^.'.D.U C j $   v 0XMXnXNX .| y.y.y.>.:.,.a.C.h.C.Z.k.h.h.p.h.H.OX+X).OX).OXJ.p.G.XXG.h.h.G.G.h.J.+X@XOX).P.J.).@X&XP.L.OX-XOXOX#XT.^ { 9 *   A GXzXyXT.| 2.r.:.2.>.=.2.4.2.2.y.y.y.-.-...) R K T } | ..-.1.2.2.:.:.4.y.y.y.5.5.B.F.~.F.Z.Z.V.V.V.B.a.g.Z.F.S.A.q.c f # &   v.HXMXnXrXa.C.L.L.#X$X$X$X$X&X&X&X#X#X&X X X*X@XOXOX@X@XP.s.G.XXOXOXXXP.H.G.H.^.H.H.).XXXX).).OXOXXXOXOX).h.<.a.D.U q = $ ; X :XJXzXyXR.B.S.F.S.V.Z.B.f.5.<.f.Z.B.V.F.Z.g.g.Z.Z.Z.F.(.'.'.B._ / g.`.Z.Z.Z.Z.Z.Z.H.H.Z.Z.Z.Z.~.!.Z.Z.S.V.V.5.1.| 6 z 8 X @ , DXIXLXZXdX%X*XXX@X].L.p.( *.^.Z.C.Z.H.).).J.).s._.C.Z.].4.~.B.>._ ` ` :.B.+XP.P.P.).XXXXXXXXP.XXXXI.G.J.XX@X*X@X{.^ Z h & X k 1X2X<XyXA.A.B.y.5.5.5.B.S.B.4.$.4.V.V.5.4.5.B.Z.g.4.4.B.V.B.5.4.4.2.:.=.=.2.B.y.B.y.y.5.4.4.4.2.y.S.S.F.F.B.2.@.m B k 3 & O 3 qXMXnXfXP.P.G.G.h.^.a.( Z.].a.P.P.P.P.P.P.P.H.H.).).).). X X X X X%XOXOXOXG.G.,.C.].$XP.G.+X-X].,.s.E..XrX.XfXE.{ 7.7., 1 . A cX6XtX3X:.=...r.1.:.2.:.=...) K ) -.1.-.=.2.4.>.4.:.=.5.V.B.g.g.5.5.5.B.B.B.V.4.) | -.) y.4.5.5.f.6.g.Z.B.A.B.) w S D & O 2 n.1X<X3XR.4.:.<.<.>.B.C.Z.C.C.^.H.h.C.h.).oX/.).).OXOXP.J.H.P.H._._.H.f.H.J.G.P.OXOX*XoX@XXXL.#XrX&X&X@X*XOX#X#XN.t N g ",
"gXBXNXNXK.].(.`.(.(.j.j._.+X[.+X/.`.`.`.^.Z.g.f.Z.=X=X[.[._._.=X[.].].L.Z.F.`.[.[.[.'.^.Z.Z.Z.V.y.:.g.g.j.`.^.'.D.U C j $   v 0XMXnXNX .X.y.y.y.>.:.,.a.C.D.Z.Z.k.h.h.h.h.H.OX+X).OX).OXJ.x.G.XXh.p.h.H.H.G.H.@X@XOX).P.P.).@X&XP.L.@X-XOXOX$XW.U { 9 *   A FX6X4XT.O.r.B.2.5.2.=.>.2.2.r.r.2.-._ ....| R Y I R _ _ _ ..:.2.>.>.4.4.4.5.5.y.B.B.B.B.B.B.g.B.B.B.<.,.f.F.y.1.o.L 6 # &   0.HXmXNXrXd.s.L.I.OX$X@X@X@X&X&X&X%X%X&XOX XOX*X).XX@XOX).z.J.OXOX).).P.H.G.G.H.H.H.P._.).).).OXOX).XXOXH.h.<.a.D.U q $ # ; O :XJXzXyXR.D.F.F.Z.B.B.B.B.f.<.f.S.B.B.Z.Z.B.Z.Z.Z.Z.F.F.'.'.5._ &.Z.[.^.Z.Z.Z.Z.Z.Z.Z.Z.Z.F.F.!.!.F.Z.Z.S.5.:.| X.r z 8 & @ , DXIXLXZXfX%X*XXXOX).Z.,.' a.L.Z.h.Z.H.).).J.).h.$XG.h.L.>.F.4.` ' ' _ ` C.OXP.P.P.XXXXXXXXXXXXOXOXP.J.J.XX@X@X@X#X^ C h = X k 1X2X<XyXA.A.A.B.B.B.B.V.F.F.B.` >.B.V.5.>.4.B.B.g.5.B.B.B.y.5.5.2.2.:.:.=.2.B.y.5.5.5.4.4.2.>.>.y.S.F.F.~.B.2...m B k 3 & O 4 qXMXnXfXK.P.G.H.f.H.<.( Z.].s.P.OXXX).).).).).P.XXXXXXXXXXXXOX.XOX%XOXOXOX].G.,.G.).@XP.C.+X=XL.,.C.#X#XrX.XfX.X{ 9.7., 1 . A cX6XtX3X:...` r.1.=.>.:.` ;._ K K | -.-.=.2.4.2.5.=...4.V.B.g.g.f.5.<.5.5.y.B.4.) Y ) K y.5.5.5.f.6.g.Z.B.A.B.) w S D & O 2 n.1X<X4XR.B.4.4.<.2.f.C.Z.h.h.H.Z.h.Z.h.P._._.P.).XXOXP.G.G.J.G.).).Z.h.H.G.z.P.OXOX*X*X@X).J.{.rX&X@XOXOXOX.X.XN.t N g ",
"nXBXNXNXL.].'.`.`.(.j.j._.+X[.+X_./.`.`.^.Z.g.f.g.=X=X[.[._._.+X[.[.].L.Z.L.'.}.].[.`.~.Z.Z.Z.V.4.:.5.f.f.`.^.'.D.U C j #   v 0XzXnXNX ...B.y.B.>.,.4.a.C.G.Z.H.h.G.H.h.h.H._.).).OX).OXJ.x.G.OXh.h.h.).).H.P.+XOXOX).P.P.).@X&XP.G.OX-X@X@XrXW.N { 9 *   A cX,X4XY.1.r.B.4.4.>.=.>.4.y.y.y.1.) ......| } _ } | ) K J Y _ =.>.2.4.4.5.y.B.B.B.B.y.B.B.B.g.g.g.g.<.' &.5.2.| W L 6 X &   v.HXmXNX$Xd.h.P.P.OX$X@X&X@X&X&X&X&X@X@XOX XOXOXJ.P.OXOX).G.J.OXOX).).H.H.G.G.G.G.G.H._.).P.P.OXOX).).OXG.p.<.f.L.U q # # ; O :XJXzXyXR.B.F.F.Z.B.B.B.B.B.4.B.Z.B.f.B.f.Z.Z.Z.Z.Z.F.F.'.'.<.` 4.^.`.^.Z.H.H.Z.H.Z.Z.Z.Z.~.F.!.Z.Z.Z.S.S.>.%.| -.x g 8 ; o , HXIXLXZXdXOX*X).].L.C.*.' f.Z.Z.Z.H.^.)._.XXJ.z.@XL.h.C.<.F.5.` $.` _ ' C.].).XXXXXXOXOXOXOXOXOXOXP.J.J.OX@X@X@X#X^ C h = @ k 1X2X<XtXA.t.A.B.V.B.B.V.F.F.V.$.>.5.B.5.4.4.B.4.5.B.V.B.B.B.y.y.2.:.2.:.=.1.y.4.4.2.4.4.2.:.` >.y.S.S.F.~.V.4. .t B D 3 & O 4 qXMXnXfXI.P.G.L.h.Z.<.( C.OXG.].OXOXXXOXOXXX).P.XXXXP.P.XXXXOXOXOX%XOX@XOXOXs.] ).).$X).D.+X=XC.a.L.&X&XdX#XBX.X{ 9.7.< 1 . A cX6XtX3X:...` r.1.=.>.:.` -._ K J ) ;.-.-.2.4.2.5.=.` >.V.B.g.g.g.5.<.4.5.4.y.4._ K Y a 5.B.g.5.6.6.g.Z.D.D.B.) r S D & O 2 n.1X<X4XY.B.g.5.4.4.a.C.Z.h.h.G.Z.h.Z.G.H./._.).).).XX).G.h.h.Z.).).Z.h.H.G.h.P.OX*X*X*X@XXXL.#XrX$XOXOXOXOX XE.b.t Z g ",
"nXBXNXNXL.].'.`.`.(.j.j._.[.[.[._.`.).`.^.Z.B.f.g.[.=X[.[.[._._.].].].Z.C.L.].[.].].`.F.Z.Z.Z.V.4.=.4.5.f.`.`.'.T.U C j #   v 0XzXnXNXO.:.A.y.B.,.,.a.a.D.G.H.H.h.G.).G.G.)._.).XXOX).OXJ.x.G.OXH.h.h.P._.).).@XOXOX).P.I.).@X&X].L.OX-X@X@XrXW.U { < $   A cX,XyXR.2.r.B.r.y.>.:.2.4.4.2.2.-._ -.;.........| | R J a Y ..=.:.:.4.5.B.B.B.B.B.B.B.B.V.B.f.5.5.4.B.` ' :.:.| E c * X &   0.HXmXBX#Xx.C.].P.OXOX@X&X@X&X&X&X&X&X%XOXXXOXXXG.G.).OX).G.J.OXOX).).P.H.Z.h.G.G.G.J.).).J.J.XXOXP.).OXz.p.p.C.'.U q # # ; o :XJXzXeXD.B.S.F.Z.B.B.B.B.f.<.f.Z.B.B.B.f.Z.Z.Z.Z.F.F.'.'.(.:.` f.Z.F.Z.Z.H.H.H.H.Z.Z.Z.Z.F.Z.Z.Z.V.V.V.V.$.$.-.q.x g f ; o 2 HXIXLXZXdX X@X).OXP.C.*.( f.Z.L.^.).).).).).z.H.).).Z.f.f.Z.f.` <.:.` / D.].).XXXXOXOXOXOXOXOXOXOXP.J.J.OX@X@X@X#X^ C h = X k 1X<X<X4Xt.r.y.y.B.B.5.B.V.F.F.:.:.4.B.B.5.5.B.4.5.y.B.B.B.B.y.5.>.:.:.:.=.-.4.4.>.>.4.5.4.=.' >.y.S.S.F.~.V.4. .w B B 3 & O 4 qXHXnXfXK.).L.).Z.g.<.] h.OXP.].OXOX).OXOXOX).H.OXXXP.P.XXXXOXOXOX*XOX&XP.P.,.*.OX].$X].D.+X=Xs.s.E.rX%XdX#XBX.X{ 9.9.< 1 . A cX6XyXeX1...` r.1.=.2.:.=.1.-.Y J Y -.1.1.2.4.2.4.=._ :.V.V.B.V.B.V.5.4.5.4.y.4.=.K K p 4.5.5.5.6.5.V.F.D.S.A.) r B D & O 2 n.1X<XyXY.B.V.B.5.5.4.C.Z.C.h.Z.h.h.G.H.H.)._.XX)._.XX).G.h.h.h.).).Z.h.H.G.h.J.OX*X@XOX@X).L.OXrX#XOX*XOX*X.XE.@.w Z g ",
"nXBXNXNXK.].'.`.`.(.j.j.`.[.)._._._.).`.^.Z.B.f.f.[.=X[.[.=X_._.).].`.Z.C.Z.`.].`.].`.Z.Z.Z.Z.V.4.=.4.<.f.`.`.'.Y.U C j $ X v 0XzXxXNXO.:.S.y.B.,.4.a.a.C.G.H.G.p.G.H.H.H._.XX_.XXOXP.OXJ.x.G.OXH.h.s.J.).).).@XOXXXP.P.J.P.@X&XOXI.OX-X@X@XrXW.^ { < =   A FX,XyXY.4.t.S.B.S.5.>.4.2.=...=.1.1.| | | ;.-...) I K a K ..2.2.$.` >.5.V.V.5.4.5.B.5.5.B.5.<.>.:.:.'.<._ ` ;.-.E 6 * X &   v.HXMXBX#Xd.G.].P.].OX&X@X@X&X@X&X&X&X%XOXOXOXP.h.z.).XX).G.J.OXOX).).P.G.h.h.j.j.h.G.).).J.J.XXOXP.P.OXh.s.f.K.}.U q # # ; o :XJXzXpXD.B.Z.F.Z.B.B.B.f.4.>.f.S.V.Z.F.Z.B.Z.Z.Z.F.^.'.'.~.:.$.g.Z.Z.Z.^.H.H.H.H.Z.Z.Z.Z.Z.Z.Z.V.V.g.g.g.' >.y.q.r c g & . 1 HXIXLXZXdXOX&XOX@X].L.,.( f.L.(.[.[.^.G.l.z.z.J.J.).H.a.B.B.<./ >.] ' d D.].OXXXOXOXOXOXOXOXOXOXOXP.J.J.XX@X@X@X#X^ C h = X k 1X<X<X4Xe.q.t.5.5.5.5.5.V.F.V.>.:.>.y.B.5.5.B.B.g.5.y.B.B.5.4.4.:.=.:.:.` ..2.y.2.>.5.B.y.:./ >.y.S.S.F.~.V.4. .w Z B 3 & O 4 0XGXnXfXK.).P.].^.f.<.] p.OX].].).P.).OXOXOX).H.OX).J.J.P.XX*X*XOX*X@XhXP.L.] d.OX).@X).C.+X=Xp.s.P.&X#XrX#XkXE.{ 9.9.< 1 . A cX6XyXyX3.=.` r.1.:.4.2.:.2.-.R J R 1.2.2.r.4.2.4.=._ :.B.V.B.V.V.F.g.5.5.5.B.y.=.) K p 4.5.5.<.<.5.V.F.S.S.A.) y B D & O 2 v.1X,XyXD.B.Z.B.5.5.<.C.H.C.f.C.h.h.G.H.H.)._.XXXX_.).).G.h.h.h.)._.G.h.H.G.h.J.OX*X@XXX@X).L.OXrX$XOX@X*X%X#XE.@.w N g ",
"uXBXBXNXK.L.(.[.(.(.Z.Z._.[.)._._./._.[.`.Z.g.B.4.}.=X[.[.=X+X_.[.].[.C.L.Z.[.].`.].`.F.Z.Z.g.5.1.B.5.<.g.(.(.'.Y.E V 9 = X v FXMXnXtXe.:.S.B.4.:.] <.C.h.Z.Z.h.f.h.h.h.G.)._._.OXP.@XP.G.x.P.).G.p.h.P.J.P.OX@XOX).P.P.OX@X@X@XE.OX&X&X@X&XrXW.N S 9 =   b 1X1XyXY.A.A.F.F.V.4.:.5.2._ Y -.1.| _ _ | | | _ T R Y J Y _ =.` ` $.:.<.g.V.5.4.5.F.B.5.5.V.B.>.' / B.4.` 2.-.-.x 6 * X &   v.JXmXnX#Xa.P.P.OX).OX&X@X@X@X%X@X&X&XOXP.XXP.P.OXP.J.).P.J.H.).+X+XH.h.H.h.p.f.h.h.G.H.J.J.J.).OXOXXXXXh.p.p.p.aXp 9 = # O & :XJX6XiXD.B.V.S.Z.S.S.Z.B.:.>.4.B.B.Z.Z.Z.g.g.Z.Z.F.^.'.'.B.:.$.B.`.Z.Z.^.^.Z.Z.Z.Z.H.!.Z.Z.Z.V.g.V.Z.g.<./ $.2.w.x B g & o , DXIXLXLXdX%XdXOXOX$XG.] &.Z.Z.].[.H.h.G.H.H.J.z.z.C.h.Z.Z.:.&.>.<.] / ( a.].).XXXXOXOXOXXXXXOXOXOXXXP.J.XX&X@X@X#X .C f $ X v 1X2XW.yXr.+.A.B.B.4.:.>.V.F.B.4.` >.V.B.B.F.5.4.5.4.>.5.V.S.y.>.>.:.=.` _ =.:.:.5.5.4.y.S.4./ 2.B.F.S.S.F.B.2. .w V B * $ $ < 0XJXVXfX#XI.OX[.H.f.a.[ p.OXP.$XOXOXXXXX).).).).OX).J.).XX XOX*X%X%XOXOX$X).C.C.$X].=XP.C.+X].h.s.{.&XdX#X%XfXE.{ 9.7., 1 @ A cXlXyX3X3.2.` 1.1.4.4.2.:.1.1.| Y K -.w.=.2.4.4.4.2./ $.V.B.B.Z.g.V.B.g.g.V.V.y.1.) p K 2.5.5.5.f.6.g.B.B.S.B. .r B k $ O ; n.DX1X>XY.<.V.5.B.:.:.a.h.C.h.h.Z.G.C.H.P.).).).XXXXXX).G.h.h.p.G./.H.h.G.G.h.G.P.OX@XOXXX).P.OX&X&XOXOX%X.X#X#X@.t C g ",
"uXBXBXNXK.L.(.[.`.(.Z.Z._.[.)._.[._.[.[.).Z.Z.Z.<.[.=X[.[.=X+X[.[.].[.g.L.Z.[.].`.].`.F.Z.Z.g.5.1.y.4.<.g.!.(.'.Y.U V f = X v FXzXfXpX3...B.y.5.:.*.p.C.f.h.Z.h.h.h.Z.h.Z.^.XXXXOX).@XP.G.p.P.).J.h.G._.P.P.OX@XOX).P.P.OX@X@X@X].OX&X&X@X&XrXW.N S 9 =   A qX8XyX}.A.B.S.Z.5.>.4.>.=.$.=.-.-...-._ Y K Y Y I J J R ;.:.` / $.4.$.:.<.5.>.&.:.4.5.5.4.:.$.$.' s :.:./ 1.;.X.x 6 * X &   0.JXmXnX#Xp.P.L.OXP.OX@X@X&X@X%X%X&X@XOXXXOXP.P.OXP.H.P.P.P.P.).+X_.H.G.H.j.h.h.h.G.H.).P.P.P.).).).P.P.h.h.h.C.aXU 0 * # O & :XJX6XiXD.B.V.S.Z.S.S.V.B.4.4.B.B.B.B.B.B.g.j.Z.Z.F.F.'.'.B.&.` f.^.Z.Z.^.Z.Z.Z.Z.H.Z.Z.Z.Z.Z.V.g.V.Z.5.&.%.>.y.t.G B g % o , HXIXLXLXdX%XOXOX].OXD.] ] a.Z.`.).Z.h.H./.J.J.G.G.C.f.Z.Z.<.` >.4.,.` &.a.L.).).XXOXOXOXOXXXOXOXOXOXP.J.XX&X@X$X#X{ C f $ X k 1X<X<X4Xe.X.1.B.5.4.>.4.5.V.V.5.$.:.5.4.5.V.B.4.4.4.>.5.B.V.B.=.:.:.:.=.` =.:.2.5.4.2.5.V.4._ =.y.S.S.F.F.B.4. .w Z B * $ $ < 0XJXVXfX#XG.].).^.Z.a.( ,.).L.OX].).).).).P.P.H.XXJ.J.P.XX XOX*XOXOXOXOX@XOXL.).$X].&XP.h.].L.p.s.].$XrX%XrXkX.X{ 9.7., 1 @ A cX6XtX{.1.2.` 1.1.2.4.2.:.2.1...) K ..r.2.1.4.4.2.4./ $.B.B.B.V.g.V.g.5.4.y.B.y.1.| a Y 2.5.6.5.6.6.f.B.B.S.B.) w B k $ O ; n.DX1X>XT.<.V.4.5.=.:.f.C.Z.C.h.Z.Z.h.H.H././.XXXXXXXX).G.h.h.p.G./.H.G.H.H.J.J.XXOXOXOXXX).P.OX&X&XOXOX*X X#X#X@.t C g ",
"gXBXNXNXK.L.'._.(.`.!.Z._.[._._.+X_.[.[.[.^.Z.Z.*.`.=X_.[.=X[.[.].(.].f.Z.C.].`.`.].`.F.Z.Z.g.5.1.y.4.>.g.Z.F.F.Y.U c f $ X v FXzXfXpXe...B.B.B.:.,.f.C.p.f.Z.Z.h.Z.G.h.h.H._.+XXX).@XP.z.s.P.).).G.J.OX).).OXOXOXP.P.P.OX*X&X@X].OX&X&X@X&XrXW.U { 9 =   A 9XzXxX}.A.B.S.B.4.>.5.%.` 2.y.:.-.2.-.) K Y | -.| T | -.w.2.=._ =.4.>.>.4.5.4.:.=.:.>.4.` a a Y / a / ) Y 1.;.X.x 6 % X &   9.MXmXBXOXp.P.J.OX).OX@X&X&X@XOXOX%X%XOXP.XX).).OXP.J.).).)._.OX[._.H.G.H.h.h.h.h.G.J.).J.P.).).).).P.P.h.s.h.C.{.t 9 * # O & :XJX6XiXD.B.S.F.Z.Z.Z.B.f.4.5.B.B.B.B.B.f.B.Z.Z.Z.F.F.~.'.B.&.` f.F.Z.Z.^.Z.H.Z.H.H.H.Z.Z.Z.Z.Z.g.V.Z.5.( >.5.A.u.L B f % o , DXIXLXZXdX*XOXOX].P.C.,.,.a.L.^.H.h.h./././.J.H.J.G.f.g.Z.5._ :.<.>.] :.M.L.P.).XXOXOXOXOXOXOXOXOXOXP.I.XX@X@X$X#X .C f $ X j <X,X>X>Xq.X.) y.5.>.>.>.4.B.V.B.:.:.>.>.5.V.B.f.<.>.4.5.5.y.B.>.2.4.y.2.$...=.4.5.4.:.2.B.5.$.` 2.V.F.F.~.S.r. .q B B ; O $ 3 0XJXVXfX#XJ.].).^.Z.a.( *.P.L.P.P.P.).).P.P.H.J.).J.J.P.XX XOXOXOXOXP.OX&X$XOX$X$XOX@XP.C.).G.p.G.OX$XrXrXdXkX.X{ 9.7., 1 @ A cX6XyX3X1.4...2.1.2.2.2.2.2.2.-._ K ) 2.r.=.:.5.:.4._ $.5.B.B.V.V.V.B.5.4.5.B.y.2.-.K Y 4.g.5.5.6.6.f.B.B.D.M.) w B k $ O & n.DX,X3XY.4.V.4.4.$.:.C.Z.H.Z.h.Z.C.h.G.H.)._.XXXXXX).).G.h.h.f.G./.H.h.G.H.J.P.OXOXOXOXXX).P.OX&X&XOX XOX X#X#X@.t N g ",
"nXBXNXNXK.].'._.`.`.!.Z._.[._._.[._.[.[.`.^.Z.Z.>.`.[.[.[.[._._.).(.'.f.Z.C.`.(.`.`.`.F.Z.Z.V.f.>.r.>.&.5.Z.Z.F.Y.U c f $ X v FXmXnXiXN.1.S.F.~.<.<.h.h.p.h.Z.Z.j.G.j.h.h.H._.+XXX).@XP.h.s.P.).XXJ.P.OX).).OXOXOXP.I.P.XX*X&X&X].OX&X&X@X&XrXW.U { q =   S 0XcXbX{.D.B.B.5.<.>.>.` ` 4.y.2.1.r.=._ _ -.r.r.-.| -.....-.1.2.>.:.5.<.4.g.B.5.4.4.>.>._ a p s Y a a / ) 2.;.X.x 6 % X &   9.mXMXBX$Xh.).L.OXOX@X@X@X@XOXOXOXOXOXOXP.).P.P.OXP.J.).G.H._.+X+X/.H.Z.G.h.h.h.h.h.z.H.G.P.).).).).).).h.h.h.K.R.t 9 * # o & :XJX6XiXD.B.S.F.Z.Z.Z.B.f.>.<.4.f.B.B.B.B.Z.Z.Z.Z.F.F.F.(.B.:.` 4.Z.Z.Z.Z.H.H.H.H.^.H.Z.j.Z.Z.Z.g.V.Z.5./ 5.5.A.A.L B f % o , DXIXLXZXdX*X%XOXP.C.4.,.a.B.^.^.H.j.l./././.J.J.).L.f.f.B.f.:.>.>.&.` ,.D.+XP.).XXOXOXOXOXOXOXOXOXOXXXP.XX@X@X$XeX{ C f $ X v 1X,X,XW.8.X.K 2.5.4.:.$.4.B.B.V.4.>.>.>.5.B.V.V.4.>.4.5.5.5.B.y.5.y.y.2._ ) ` 4.5.4.>.4.B.y.:.=.4.B.F.F.~.S.B.X.q m B ; O O 3 0XJXVXfX#XP.@X+X^.L.<.' *.L.P.P.P.P.P.P.P.P.H.J.J.J.J.P.XXXXOXOX&X%XXXXX$X$XOX@X@XOX@X).L.].G.C.OX&X&XrXrXdXkX.X{ 9.7., 1 @ A cXlXiX3X4.4.:.r.2.2.2.2.>.2.2.-.| K J 1.r._ =.5.:.4.` ` 4.B.V.V.V.V.V.B.5.B.B.B.r.1.K Y 2.B.5.g.f.<.5.g.B.A.M.) w B k & O & n.9X,X4XR.4.Z.5.4.$.>.g.Z.Z.Z.h.j.C.h.G.H.)._.XXXXXX).).G.h.h.h.H./.Z.f.h.h.G.P.OX*XOXOXXX).P.#X&X&XOXP.OX X#X#X@.t N j ",
"nXBXNXNXK.].'._.`.`.!.!._.[._._.[._.[._.`.^.Z.B.<.`.=X[.[.[._._.).(.`.f.Z.g.(.^.].'.(.F.^.^.Z.g.1.r.>.$.<.B.Z.F.Y.U B f $ X v FXmXNXiXD.4.F.~.'.f.<.p.h.h.h.H.j.j.h.h.p.h.H.)._.).OXOXP.s.G.P.).).J.P.).P.).@X@XOX).P.P.OX*X&X@XP.#X&X&XOX@XpXW.U S 9 $   S 0XcXbX{.S.D.B.4.4.5.>.>.>.>.2.1.2.4.=.-.1.1.-.;.| T ) Y K ) 2.y.5.>.5.>.>.4.B.B.g.B.B.4.:.$.` ` _ ) a / ) w.i.i.x 6 % X & . 9.MXMXBX&Xh.P.H.XXXX@X@XOXOXOX XXXOXOXOXP.).P.P.).J.G.).h.G.).+X+X/.H.h.h.h.f.h.h.h.h.G.G.P.OX).).).).P.G.G.Z.].R.U q < # O & :XJX,XyXD.B.Z.F.Z.Z.Z.B.f.:.>.4.5.B.B.V.Z.Z.Z.Z.Z.F.F.F.~.B.:.$.4.Z.Z.Z.Z.H.H.H.^.^.H.Z.j.Z.Z.V.g.V.Z.5.$.5.5.A.A.P V f $ o , DXIXLXZXdXOX#X#XE.C.4.,.a.B.^.^.H.H./././.J.J.J._.).h.a.B.4.<.<.<.:.:.4.L.+XP.XXOXOXOXOXOXOXOXOXOXOXXXP.OX@X@X$XeX{ C 9 $   n <X8X,XT.X.X.I _ 5.B.$.` 5.V.5.B.B.4.>.5.B.B.B.Z.5.>.5.y.5.y.V.B.5.4.4.:./ / ` 4.4.4.2.5.B.y.2.2.5.V.S.F.F.F.S.@.q z B ; % O 3 9XGXMXfX#XI.OX].^.L.:.( p.L.].P.P.OX).).P.P.H.J.J.J.J.P.XXOXOXOX&X%XP.P.$XOXOX&X@XOX$X).].].C.D.#X&X#XrXrXdXfX.X{ 9.7., 1 . A cXlXiX3X3.r.1.r.1.2.4.2.:.1.1.-.| Y a ;.r._ =.5.:.4.=.` >.B.V.B.V.g.V.B.B.B.V.y.2.2.K Y 2.B.5.5.5.<.5.f.B.A.M.) w B k & & ; n.9X<X4XY.<.Z.5.4.$.>.f.h.Z.h.h.Z.C.h.G.J./._.XXXXXX).).G.h.h.h.H.`.j.h.h.h.z.J.OX@X*X*XXXP.P.{.$X&XOX XOX X#X#X@.t C j ",
"nXBXNXNXL.].'.`.`.`.!.!._.[._._._._.[.`.^.!.Z.g.<.`.=X[.=X[._._.[.(.].f.Z.f.^.L.'.'.(.F.^.(.Z.g.1.r.:.' *.g.Z.Y.Y.E V f = O v FXmXnXiXD.4.F.F.(.f.<.p.h.h.G.H.h.Z.h.f.p.h.)._.).).OXXXP.p.H.P.).).J.P.).P.).@X@XOXXXP.P.OX*X*X%XP.OX&X@XOX@X$XW.N C 9 #   A 0XcXbX{.S.S.B.4.4.B.5.V.B.>.=.:.1.=.-.1.-...) R } | | ;.-.:.1.4.5.5.4.>.:.4.B.V.V.Z.V.4.4.5.5.:.=...K / K 2.w.q.x = * X & . 9.mXzXfX$Xs.J.h.P.P.OXXXP.). X XOXOXOXXXXXOXJ.J.J.G.h.G.h.G.^._._./.G.h.h.h.h.h.h.h.h.H.J.).OX).P.).P.G.J.G.Z.].D.U q * $ O & :XJX,XyXD.B.Z.F.Z.Z.Z.B.f.4.4.f.B.B.V.Z.Z.Z.Z.Z.Z.F.F.F.(.B.>.&.4.Z.Z.Z.Z.H.H.Z.H.H.H.Z.Z.Z.g.f.g.V.B.5.<.4.5.u.A.P B f & o , DXIXLXZXdXOX X#X].L.D.a.B.Z.(.^.^.^./././.J.J.J._.].Z.a.4.4.:.>.<.<.<.a.F.].].XXOXOXOXOXOXOXOXOXOXOXXXP.OX@X@X$XeX{ C 9 $   n 1XlX,XW. .} | a 4.B.:.` 5.V.5.B.V.5.4.B.V.5.B.F.B.4.5.5.5.y.B.V.5.5.y.2._ _ 2.2.4.4.4.y.B.y.4.5.y.V.S.F.~.F.S.+.q j B ; % O 3 0XJXMXfX#XG.).).^.Z.] *.h.L.].].OXOXXX).).P.H.H.J.P.J.J.).OX*XOXOXOXP. X@X$XOX&X$XOX@X).].).p.h.].OX#XrXrXrXfX.X{ 9.7., 1 . A cX6XyX3X1.4.1.2.-.2.2.2.:.-.-.;.| ) J _ 2.:.:.5.4.4.1.` $.B.Z.g.V.5.g.B.B.B.B.y.2.t.) ) 2.5.5.5.<.<.5.g.B.A.M.) w B k & + ; n.9X<X4XD.:.B.4.<.` :.f.h.Z.h.h.Z.C.h.G.G.J.).XXXXXX).).G.h.h.h.H.`.h.G.G.G.G.P.OX*XOX*XXXP.I.].$X&XOXOXOX XOX#X@.t C j ",
"nXBXNXNXR.].].`._.`.!.!._.[.)._._._.[.`.^.Z.Z.g.<.^.[.[.=X[._.[.[.].].f.Z.f.^.F.].'.^.F.^.`.!.B.2.r.=./ &.g.F.'.Y.E V h = O v HXmXnXiXD.B.~.F.F.f.<.h.C.h.h.H.j.H.h.p.p.G._.OX).).OX).).x.J.P.).P.J.).OX).OX@XOXOXXXP. XOX*X*XOXP.OX&X&XOX@XrXW.N C 9 $   A 0XcXbX{.S.D.B.<.<.B.V.Z.V.5.2.2.-._ -.-.-.| ) ) | -.w.u.S.y.r.r.y.5.5.<.4.V.F.Z.Z.Z.B.5.5.4.4.4.1...) ) a 1.r.t.x = ; X &   b.HXzXuX#Xs.J.h.P.).OXP.P.XXOXOXOX*XOXP.).).H.h.G.h.h.J.).H.H.^.).).H.h.h.h.h.h.h.h.h.H.J.XXOX).).OXP.z.G.h.f.(.M.U q # $ O & :XJX,XyXD.B.V.S.Z.Z.S.V.B.5.f.B.B.B.V.Z.Z.Z.Z.Z.Z.F.F.~.'.B.:.&.f.Z.^.Z.Z.Z.Z.Z.Z.H.H.Z.Z.^.f.5.V.V.<.<.g.5.5.u.A.L B f & + , DXIXLXZXdXOX#X#X].E.D.4.B.'.(.^.^././././.J./.J._._.h.<.4.4.<.<.<.<.4.f.F.L.OXOXOXOXOXOXOXXX@XOXOXOXXX).OX@X$X$XeX .C 9 $   n 8XlX4X>XI U X.a $.5.4.:.>.5.V.5.F.5.4.V.V.5.B.Z.V.5.4.4.y.B.5.V.5.y.B.4.` ..4.2.>.>.2.4.y.y.4.4.5.B.F.F.~.F.S.+.q j B ; % O 3 0XJXVXfX#XG.).).(.Z.] p.^.J.].].OXOXXX).).P.H.H.J.P.J.H.J.OX*XOXOXOXP.OX&X@XOX$X$X+X@X).+XL.,.C.P.OXOXdXrX&XdX.X{ #.7., 1 . A cX6XiX3X:.4.1.2...:.>.2.:.-.-.-..._ K Y =.2.2.2.5.5.2._ ` B.Z.g.Z.f.g.B.g.B.B.y.r.y.) R 2.5.5.<.<.6.5.g.B.S.B.) w B k & & ; n.9X<X4XA.` f.4.4.` :.g.Z.Z.C.h.h.C.h.G.G.H.).).XXXXXX).G.h.s.h.^.^.h.G.G.G.H.P.OXOX X*XXXP.L.E.$X&XOXOX*X X.X.X@.t C j ",
"nXVXNXjXR.].].)._.`.^.!._.[.).[._.[.[.`.Z.^.Z.g.*.F.[.[.=X=X[.+X+X].].f.Z.f.L.Z.].`.^.F.(.`.!.g.<.4.../ $.B.~.'.Y.I V f = o v HXJXnXiXD.B.~.Z.Z.<.a.C.G.h.h.H.H.H.h.p.f.H.@X@X).).@XP.).x.P.P.).P.P.OX@XOXOXOXP.OXXX XOXOX*XOXOXE.OX&X&X@X&XrXW.N S 9 =   S 0XcXbX}.D.D.B.>.>.B.Z.V.B.B.B.4.-._ 1.1.1.-.| T T ) 1.r.y.y.y.V.B.5.5.6.g.F.(.~.V.V.f.V.B.>.4.B.y.-...) p -.u.u.L = ; % &   v.HXzXrX%Xh.J.s.P.).OXP.P.OXOXOXOX*XOXP.J.J.h.s.z.h.h.).@X).H.H.H.^.H.h.h.h.h.h.h.p.h.G.J.).).).).@X).G.H.C.f.'.M.U w # $ o & :XHX>XyXD.B.V.S.Z.Z.S.Z.B.4.4.5.B.B.V.Z.Z.Z.Z.Z.Z.F.F.~.'.4.:.&.f.^.`.^.!.^.Z.Z.Z.Z.H.Z.Z.^.f.6.V.g.&.>.S.5.5.u.A.L c f & + , DXIXLXZXdXOXOXE.K.C.,.] f.[.(.^.^.H./././.XXXXJ.).).h.<.4.4.F.B.f.4.4.C.'.+XOXOXOXOXOXOXXX).@XOXOXOXXX).OX&X@X@X#X .C 9 $   h 8XlXtX3XH e X.K _ 2.B.4.:.4.~.5.F.5.>.V.S.y.B.V.V.5.>.2.B.B.4.B.4.4.y.1./ / =.:.:.:.:.2.5.5.4.>.4.B.F.~.F.F.S.+.q j B 3 % O 4 0XJXVXkX#XP.@X+X).Z.( h.].G.).].OXXXOXXX).P.J.J.J.J.J.G.J.XX*XOXOXOXOXOXrX@XOXOXOXOXOX].@X).p.J.OX$X&XjXdXpXfX.X{ 9.7., 1 @ A cXlXxX3X1.4.2.2...=.:.:.-.-.-.-.;.) K a _ 2.:.:.5.5.4.` ` B.Z.g.Z.V.V.V.f.5.B.B.B.r./ Y :.5.5.5.<.5.f.g.B.S.A.) w B k $ $ & n.9X2XtXA.` f.5.5.$.:.Z.Z.H.Z.h.h.h.h.G.G.H./.).XXXXXXXXG.h.s.h.H.^.h.h.h.h.G.).OXOXP.*XXXP.L.].#X@XOXOX*XP. XE.@.t C j ",
"gXMXBXNXR.].).)._._.^.j./.[.[.[.[._.[.[.[.F.Z.B.:.V.=X[.[.=X_.[.+X=X^.f.B.Z.Z.`.`.[.[.'.`.(.F.Z.f.,.:.;.-.S.|.(.S.p V k $ X A FXmXVXuXD.a.Z.^.Z.g.p.f.D.h.j.H.j.j.H.s.p.z./.).).XXXXOXz.s.H.H.XXJ.P.XXXXXXXXOXOXOXP.P.OX&X&X$X X#X&X#X&X@X@XrXW.C C 9 $   S FXcXyXpXD.B.( :.<.F.5.g.B.B.4.1.:.-.w.2.-.| | | | ) ) X.1.:.:.4.f.a.<.f.g.f.Z.^.`.Z.Z.^.F.g.4.4.4.<.1./ K ..r.u.Q = % # ;   9.cXzXiX#XG.I.G.OXOXOXOX XOX XOX#X@XOXP.P.L.J.h.h.G.H.G._.P.G.h.h.h.G.G.h.G.G.h.s.s.z.z.J.XXOX_./.).^.j.^.^.Z.}.Y.M = # $ o   :XGX6XtXD.B.S.F.S.F.F.V.f.4.>.4.B.f.B.S.Z.Z.g.Z.^.Z.F.'.~.4.` ' <.F.(.F.^.L.H.H.H.H.Z.Z.Z.Z.^.5.g.F.>.>.S.5.>.y.Y.E z f $ + 1 DXIXLXLXdXP.].).h.G.4.&.R.].].].).).)././.J.J.L.)._.Z.<.*.p.Z.Z.Z.C.h.C.L.].OX@X@XOXOXOXOXXXOXOXOXOXXXP.XX@XOX@X#X^ ~ h $ $ h 1XlXvX4X^ H I -.u ;.S.y.B.y.4.B.B.B.B.B.S.S.B.5.Z.Z.g.4.5.5.5.4.B.2.>.5.` s _ >.2.4.2.4.y.B.B.4.4.y.S.~.F.F.'.M.q q b 3 O O 5 0XLXgXAXOXOX).).L.p.' L.).P.OX].@XOXXXXXXXJ.J.J.OX).P.P.P.XXOXOXOXOXOX%XrXrX&X#X&XaX#XOX$XL.h.).OX$X$XdXrXpXfX.X{ 9.7.4 1 > ! 0XlXyX3X4.r.:.2.1.` =.=.1.1.-.-.-...) J ..2.-.2.2.4.>.>.$.5.(.B.V.g.~.[.(.4.<.g.4.5.` p =.2.S.5.4.4.<.V.f.B.A.I w B j $ o & v.9X<X4XY...5.~.F...1.B.h.Z.Z.Z.Z.h.h.h.H.H.J.).OX).OXP.C.h.h.Z.).`.f.h.h.G._.@X@XOXXX@XXXJ.P.OX$X$XOXOXOX X#XR. .t N j ",
"gXMXVXNXR.].).)._._.^.j.).[.[.[.[._.[.[.[.F.Z.B.:.V.=X[.[.=X_.[.}.[.^.g.Z.Z.Z.^.`.[.[.'.`.(.F.Z.f.<.2.1.w.Y.|.!.Z.p V k $ X A FXmXVXuXC.a.Z.^.Z.f.p.C.D.h.j.l.j.j.j.k.p.l.).).XXXXXXOXz.s.J.H.).J.P.XXOXOXXXOXOXOXP.P.OX&X&X$X].OX&X#X&X@X@XrXW.C C 9 $   A FXcXiXpXD.B.:.4.5.Z.B.(.F.4.2.A.A.1.1.w.w.-.....X...| :.1.:.:.<.4.4.f.g.f.f.g.Z.Z.Z.Z.Z.Z.f.4.4.4.4.4.) K Y -.t.o.6 # X ; X 9.cXzXgX#XG.I.G.OXOX XOX XOXOX#X%X@XOXP.J.L.H.h.h.G.H.H.).P.H.J.G.G.G.h.G.G.G.h.s.s.z.G.J.XX+XOX_._./.H.j.^.Z.}.T.w - # $ o . :XGXtXyXD.B.V.S.Z.Z.S.B.5.4.>.4.B.B.B.S.Z.Z.g.Z.^.F.F.'.F.<._ / <.F.F.Z.F.L.L.H.H.Z.Z.Z.Z.Z.^.f.Z.V.$.:.V.V.5.y.Y.P z f & + 1 DXIXLXLXdXOX].).C.C.:.] F.L.L.L.L.J.J.J.J.J.).P.).P.h.<.<.h.Z.Z.Z.h.h.G.P.OX).OXOXOXXXOXOXXXOXOXOXOXP.P.XX@XOX&X#X^ ~ h # $ v 1XlXyXtX .p p | u | w.w.y.4.4.B.B.y.5.y.B.y.y.5.V.Z.g.4.5.5.5.4.B.2.>.4.` s _ :.4.4.4.4.y.B.B.4.4.5.S.F.F.F.Y.M.q q b 3 O O 4 0XLXgXAXOXXX].P.].C.] ].).).OX].@XOXXXXXXXJ.J.P.OXOX).).XXOXOXOXOXOXOX%XrXrX&X%X&XrX#X#X@XL.s.P.OX@X$XdXrXpXfX.X{ #.7.< 1 > 7.DX8XtX{.3.r.:.2.1.=.=.=.1.1.-.-.-.| R a | -._ 1.>.5.4.>.$.5.~.g.B.g.Z.|.(.f.6.f.5.f.` s =.w.S.y.2.<.<.B.a.B.A.I w Z k $ & , n.9X<X4XY.1.B.V.y._ 4.Z.Z.C.C.C.Z.h.h.h.L.H.J.).OX).OXL.C.a.C.Z.(.`.g.h.h.G.).+X@XOXXXoXoXJ.J.OX$X$XOXOXXX X#XR. .t N j ",
"zXVXVXBXR.].).).`.`.^.j.).[.[.[.[._.[.[.[.Z.V.B.>.B.=X[.[.=X_.[.[.[.^.g.Z.Z.Z.F.`.[.[.'.`.(.F.Z.p.<.4.q.w.S.(.Z.Z.p V k $ X A FXmXMXuXC.a.Z.^.Z.f.a.C.G.h.j.l.j.j.H.k.p.G.).).XX).XXOXG.h.J.H.).J.P.XXOXOXOXOXOXOXP.P.OX@X&XOXE.#X&XOX&X@X@XrXW.~ C 9 $   S FXcXxX{.M.M.>.B.g.V.B.~.F.y.B.Y.A.| ) 1.r.1...X.1.-.2.r.4.4.4.f.f.g.Z.B.g.B.Z.Z.Z.^.^.Z.Z.g.5.4.4.B.r.` K Y | t.o.g # - ; X v.HXzXgX#XG.I.G.OX XP.P.OX#XOXOX@X@XOXI.J.H.H.G.h.G.H.P.H.P.).).).H.G.h.P.G.z.G.s.s.s.J.J.).+X_.).)./.^.k.^.^.}.A.0 - - $ + @ :XGXlXyXD.B.B.Z.Z.Z.Z.B.5.f.>.4.B.B.Z.F.C.Z.g.Z.^.F.F.'.F.:./ / <.F.F.Z.F.F.F.Z.Z.Z.Z.Z.Z.Z.^.g.!.B.' $.V.!.5.y.A.L g 8 & o 1 DXIXLXLXjXOX].).C.<.` &.Z.D.K.L.L.).J.J.J.J.).P.P.J.h.<.p.Z.j.j.j.h.h.G.).OXP.OXOXOXXXOXOXOXOXOXOXOXP.P.XX@XOX@X#X^ ~ 9 # $ b 8XlXlXyX1.K e } H T -.r.y.:.4.B.B.B.y.y.y.y.y.5.B.V.B.5.5.B.y.5.B.4.>.2.` Y / =.2.4.2.4.y.B.B.4.4.5.V.S.V.F.F.M.q q b 3 + O 4 0XLXgXAXOXXX].).+XC.*.+X].].].].@XOXXXXXXXP.P.XXOXOXOXOXOXOXOXOXOX#XOX%XrXdXrX&X#XrXOX].OXG.a.L.OX@X&XhXrXpXfX.X{ #.7., + > 7.FX8XtX{.1.4.:.2.1.=.=.-.1.1.-.;.;.;.} K ..-._ 1.4.5.5.4.` 4.F.g.B.V.V.(.`.V.5.g.5.B.$.' _ y.u.y.2.>.>.g.4.B.t.I 0 Z k & & , n.9X<X4XY.4.B.4.:.) 2.F.Z.C.C.h.Z.h.h.h.L.H.J.).OX).OXL.h.p.h.C.^.`.g.h.h.C.H._.OXOXXXoXXXJ.).OX$X$XOXOXXXP.#XR. .t N n ",
"MXVXVXBXR.].).).^.`.^.j.).[.[.[.[._.[.[.[.Z.Z.B.>.g.}.[.[.=X_.[.[.[.^.g.Z.Z.Z.L.`.[.[.'.`.(.F.Z.<.,.2.1.-.B.~.j.Z.p V k $ X A FXmXmXuXN.a.h.^.Z.f.a.D.K.C.j.H.j.^.^.h.k.H.).J.XXXXXX@XJ.z.P.H.).J.P.XXOXOXOXOX@XOXP.P.OX$X@XOXP.%X&X%X&X*X@XrXW.^ C 9 $   S FXcXiX{.4.4.>.B.f.g.B.B.V.~.~.r.` K ) 1.w...| ..1.-.y.B.B.B.B.g.g.g.Z.f.f.Z.Z.Z.Z.`.`.Z.Z.Z.V.4.4.B.<.` ) | i.t.8.g # X ; X v.HXzXgX%XG.P.G.OXOXP.P.OXOXOXOX@X@XOXI.G.H.H.G.h.G.H.P.G.H._.XX).H.G.G.).G.z.J.G.d.s.I.J.P._._.`.^.H.H.p.^.~.'.N.w #   o & @ :XGXlXiXD.r.B.S.Z.Z.Z.B.f.f.>.<.B.B.Z.F.B.Z.h.Z.F.S.F.'.V.` / ' 4.F.F.F.^.F.F.Z.Z.Z.Z.Z.Z.Z.Z.g.!.g.' :.V.V.V.y.u.G g % $ o 1 DXIXLXLXjXOX].^.g.*.( <.L.Z.G.L.).).)././.).).P.P.J.f.p.f.Z.j.j.Z.h.h.G.).@X).OXOXOXXXOXOXOX@XOXOXXXP.I.XX&XOX@X#X^ ~ 9 # $ k 8XlXtXyXt.| J P u K | y.y.=.2.B.y.B.B.B.y.y.V.5.g.B.B.g.g.B.B.B.5.5.4.5.:._ s ' =.>.2.2.4.5.5.4.4.y.B.S.F.F.F.M.q q k 3 : + 3 0XLXgXkXOXXX].].+Xh.,.+X].OX).OXOXXXXXXXOXXXXXOXOXOXOX@XOXOXOXOXOXOXOX@XrXhXdXdX&XrXOX].OXG.s.P.OX@X&XhXrXpXfX.X{ 9.! , o > 7.FXlXyX3X3.r.:.2.:.=.=.-.1.1.1.-.;.-...Y ..-._ 2.y.5.5.4.` >.F.B.V.Z.g.Z.(.Z.g.g.g.5.$.$.) y.y.S.4.>.>.g.4.B.M.I 0 Z k & & , n.9X<X4XT.:.5.=.` Y >.F.Z.C.C.Z.Z.h.h.h.L.H.J.).OX).OXL.h.p.h.C.(.`.h.Z.Z.C.J._.OX@XOXoXXXJ.XX$X@X@XOXOXXXP.#XK. .t N j ",
"nXVXVXBXE.].)./.^.`.^.j.`.[.[.[.[._.[.[.[.Z.Z.B.<.f.[.[.[.=X_.[.[.}.^.g.B.Z.Z.`.`.[.}.'.`.(.F.Z.<.,.2.-.-.y.~.!.Z.a V k $ X A wXmXMXuXN.<.j.^.Z.f.a.D.L.C.Z.l.j./.^.k.s.H.).J.XXXXXX@XJ.G.).J.).J.XXXXOXOXOXOXOX).P.P.OX$X@XOXP.%X&X%X&X*X%XrXW.^ C 9 $   S FXcXiX{.r.4.:.B.5.B.F.V.B.V.4.` K a X.1.-.| | ..1.1.t.r.B.B.Z.g.f.p.g.4.4.B.Z.g.g.Z.^.Z.Z.^.~.B.f.B.:._ _ ;.w.t.o.g % X 2   v.MXMXgXrXI. XG.OXOX XOXOXOXOX%X&X&XOXI.h.J.H.G.z.G.H.H.G.P._._.).H.G.H.).G.G.P.J.h.s.J.P.)._._.^.H.j.j.k.^.Z.Y.t.M = # o , o :XGXzXxXD.r.B.F.S.Z.Z.B.B.f.>.4.B.Z.S.F.B.Z.j.Z.Z.S.~.'.B._ / ` B.(.F.F.(.L.F.H.Z.Z.Z.Z.Z.^.Z.f.Z.f.$.5.V.V.S.y.t.L g % O o 1 DXIXLXLXjX].].Z.f.&.] D.].(.D.G.).).)./././.P.P.).H.h.p.f.Z.h.Z.Z.h.C.J.].@XXXOX@XOXOXOXOXOXOXOXOXXXP.I.XX@XOX@X#X^ C 9   X h 9XlX4X4XM.1.| u e J _ y.y.` =.5.4.5.B.B.y.B.S.f.g.B.B.B.B.B.B.B.5.B.B.B.4.` s Y ` :.2.2.4.5.5.5.y.B.B.V.F.~.F.M.q q k 3 : + 3 wXLXgXkXOXXXOX].+Xp.p.+X].@XP.+XOXXXXXOXOXXXXXOXOXOX@X@XOXOXOXOXOXOXOX%XrXdXhXhXrXhX#X#XOXL.h.].$X&X&XjXrXpXfX.X{ #.! < o > 7.HXcXyX{.3.r.:.:.=.` ` ;.-.1.2.-.-.-.| K | ..) 2.y.4.4.4.' >.F.V.Z.Z.5.V.(.Z.g.g.g.4.:.:./ w.y.S.5.>.>.g.a.B.A.I w B j $ $ , v.9X<X4XA...4.` ` ) :.F.Z.C.Z.Z.Z.f.p.h.L.H.J.).OX).OX).C.f.h.C.).).h.H.Z.G.H._.OX@XOXoXXX/.OX@X@X$X@XXXXXP.#XK. .t Z j ",
"MXVXVXBXL.].^.`.^.`.^.j.`.[.].[.[._.[.[.[.F.Z.B.<.f.[.[.[.=X_.[.[.}.^.f.B.Z.F.'.`.[.[.'.`.(.F.Z.f.4.r.1.;.y.(.`.Z.a V k $ X A wXmXMXuXN.<.j.^.Z.p.p.K.L.Z.Z.^.l./.H.k.s./.XX).OXXXXX@XJ.H.)./.).P.XXXXOXOXOXOXOX).P.OXOX@X@XOXOX&X&X%X&X*X%XrXW.^ C 9 $   S FXcXiX{.M.r.:.B.g.Z.~.~.5.' s K K i 1.X.| ) Y ) ..1.t.4.5.B.Z.j.f.f.B.f.B.B.Z.g.g.g.Z.Z.F.(.(.S.B.f.:.` ) | ;.q.o.g * # &   9.MXnXnXdXI.OXK.OXOXOXOXOX%X%X%X&X&XOXI.G.H.H.H.H.).H.G.J.).XX).H.G.G.H.H.G.H.P.P.G.G.J.OXOX+X+X/.H.h.h.k.^.Z.A.e.M 6 # X , o :XGXvXxXD.4.B.F.F.Z.Z.V.B.5.>.4.Z.Z.Z.F.B.Z.j.Z.Z.Z.(.~.5./ / ` B.~.F.Z.F.L.L.H.Z.H.Z.Z.Z.H.Z.g.g.<.&.V.V.V.~.u.r.L g % & o 1 DXIXLXLXdXP.].C.f.] &.L.].].C.G.).).J.J./.).J.P.).L.h.f.g.Z.j.Z.Z.C.C.J.].@XXX@X@XOXOXOXOXOXOXOXOXOXP.I.).@XOX@X#X^ C 9 X X k cXvXtX3Xe.1.-.I u P | r.S.1.=.2.>.2.y.5.4.y.S.B.f.B.V.V.B.B.B.B.5.B.S.B.y.:.a K _ 1.4.4.y.y.y.5.B.B.B.V.F.~.F.N.w q h ; : & 3 0XLXgXkXOXXXOXOX$Xh.h.$X].$XL.OXOX).XXOXOXXXOX*XOXOXOXOXOXOXOXOXOXOX%X%X&XdXhXhXhXjX#X].OXI.G.+X$X&XrXjXrXpXfXW.{ #.! , o . 7.HXcXyX{.:.4.` =.` ` ` ..-.2.2.1.-.-.| K | ;._ 2.y.2.5.4.' :.F.V.Z.Z.f.V.Z.V.g.Z.g.>.>.:.) -.y.S.4.>.>.g.a.B.A.I w B h $ o , v.9X<XtXN.` 4.$.=...:.S.C.C.Z.Z.Z.p.,.h.L.H.J.).OX).OX).D.f.h.C.^.`.h.H.H.G.H._.OX@XOXoX/.J.OX@X@X@X@XXXP.P.#XK. .t Z j ",
"zXVXVXNXL.P.L.^.^.`.^.Z.`._.].[.[._.[.[.[.F.Z.B.<.4.[.[.=X=X`.[.[.[.^.g.Z.Z.Z.`.`.[.[.'.`.(.F.Z.f.a.y.q.;.y.(.`.Z.a V k $ X A DXmXMXuXN.p.h.^.Z.p.a.K.P.G.Z.^.l./.l.p.h./.XXXX@XXXXXOXG.z.).H.P.P.XXXXOXXXXXOXOXP.P.OXOX&X&X$XOX&XrX@X&X*X%XdXW.C C 9 $   S FXMXxX{.r.3.:.B.V.F.F.F.5.` / / a y -.) ) ) I H ) 2.t.4.<.f.Z.j.j.Z.B.B.B.B.B.Z.Z.B.Z.Z.F.F.F.F.B.4.1.` ` _ | X.Q g * X &   v.GXMXnXdXI.E.G.OXOXOXOXOX%X%X@X&X&XOXJ.J.P.).)._._.).h.H.).+X_.G.h.G.H.H.H.H.J.J.J.J.J.XXXX+X@X_.j.f.k.k.`.Z.B. .0 =   X , 1 :XGXcXxXD.4.B.F.S.B.B.B.B.4.>.f.S.V.V.F.Z.Z.Z.Z.Z.Z.(.~.4./ / &.V.(.F.Z.F.H.L.H.H.H.Z.Z.Z.Z.Z.Z.g.` $.F.V.V.~.y.q.L g % ; + , DXPXLXZXdXP.[.f.a.] *.L.L.).C.H.)./.P.J./.).P.)._.H.h.f.h.Z.Z.Z.Z.C.C.J.).@X).OXOXOXOXOXOXOXXXOXOXOX).I.P.OXoX@X#X^ ~ h X X v 9XvXyXtXe.1.1.-.u P _ ;.A.y.:.2.:.2.5.4.>.4.V.B.5.g.V.V.B.5.B.V.4.B.V.y.B.2.a a _ 1.4.4.y.y.y.5.B.B.B.B.F.~.F.N.w q f ; : & 3 wXLXgXkXOXXXOXOX+Xa.h.$X).$XG.OXOX).XXOXOXXXXXOX@X@X@XOXOXOXOXOXOXOX%X%X&X&XdXhXhXhX#XP.OXL.G.$X@X&XrXjXiXpXfXW.{ #.#., 1 . 7.HXcXtXW.:.4.=.=.` =.` ..-.2.w.1.-.-.| J _ -.` 4.y.>.5.5.' :.F.B.V.V.g.V.V.f.g.Z.f.<.4.:._ _ y.y.2.>.>.g.4.B.A.I w B j $ $ , v.9X<XtXM...5.` =.-.1.F.C.B.C.Z.C.a.,.h.L.H.J.).OX].OX].D.f.f.h.^.^.g.H.H.G.H._.OX@XOX*XJ.H.XX@X$XOX@XXXP.P.OXK. .m Z h ",
"gXVXCXNXL.L.H.^.^.`.^.Z.`.).`.].[._.[.[.[.~.Z.B.<.4.'.[.=X=X`.[.`.}.^.g.Z.Z.Z.^.`.[.[.'.`.(.F.Z.f.a.y.q.| r.~.^.Z.a V k $ X A DXMXMXuXN.p.h.H.Z.p.p.K.P.G.G.H.l._.^.k.h./.XX).OXXX).XXz.h.).H.J.P.XXXXOXXXXXXXXXP.P.OXOX&X&X@X#X&XrX@X&X*X%XdXW.C C 9 $   S FXmXyXW.1.1.:.Z.V.F.F.g.B.'.'.<.a y -.) | ..) p Y u.r.:.:.<.f.f.h.Z.4.B.r.<.5.Z.F.Z.Z.^.Z.Z.Z.F.Z.4.1.:.:.=.-.X.E 6 * X &   v.JXVXVXdXI.P.s. X X#X%X%X%X@X&X&X&X#XJ.P.).)._.+X@X).h.H._.$X_.H.h.G.H.H.H.J.G.G.P.P.I.P.P.OX@X).j.p.p.p.`.Z.4.^ 7 -   X , 1 :XGXcXbXD.<.B.S.Z.B.B.B.B.4.<.B.F.V.B.F.Z.Z.Z.Z.Z.Z.(.~.4./ / :.F.'.F.Z.F.H.H.H.H.H.Z.Z.Z.g.^.~.f./ ` ~.V.y.~.r...x 0 # ; + , HXPXLXZXdXP.$Xf.a.] *.Z.D.H.G.P.XXXX)./.).).P.]._.G.h.f.j.Z.Z.Z.Z.C.C.J.).@XP.XXOXXXXXOXOXOXXXXXOXOXXXP.P.OXOX@X#X^ C h X X k 1XlXyXyXM.1.1.r.u p J K 2.y.=.2.2.4.y.5.>.4.V.V.g.g.V.Z.B.5.B.F.4.5.B.4.B.4.Y p ) 1.2.4.5.y.y.4.B.B.f.B.Z.F.Z.D.w q f & : : 4 wXLXgXkX XXXOXOX).,.p.+X).$XG.+XOX).XXOXOXXXXXOX@X@X@XOXOXOXOXOXOXOX%X%X&X&XdXhXrXrXE.L.P.G.G.$X$X&XrXjXiXpXfX.X{ #.#.< 1 . 7.HXcXtXW.:.4.:.:.` =.=...-.2.2.-...;.R u ) .._ 2.4.2.5.5.` :.F.B.B.V.V.V.g.<.g.Z.f.<.B.:.=.R y.2.>.>.&.f.4.B.t.I 0 Z k & & , n.9X<X4Xr.=.y.' ` =.>.F.C.f.f.C.C.a.,.h.L.L.J.).OX].OX].D.f.a.h.L.^.f.H.Z.Z.H.).OXOXXXoXJ.z.).@XOXOXOX XJ.P.OXK. .m C h ",
"zXMXnXNXK.E.L.^./._.`.^.^._.[.].`._.[.[.'.Z.Z.Z.<.f.=X=X[.=X[.[.}.[.`.^.Z.Z.Z.Z.`.}.[.[.(.(.`.^.Z.<.1.-.-.y.~.!.Z.a V j & X A KXHXVXnXI.C.Z.H.h.p.D.].).G.G.H./.^.^.h.l./.J.OX).OXXXXXz.z.XX/.J.J.OXOX).XXXXP.XXP.OXOX@XaX$XOX&X&X&X#X&X@X@XrXK.N C 9 # $ A HX8XtXT.....` B.B.V.V.>.4.4.>.Z.4.y K -.r.-.| ..1.2.t.1.=.$.:.<.f.Z.B.B.4.4.f.f.B.'.Z.Z.^.^.Z.F.F.f.B.r.1...;.i.E 6 6 # &   v.LXMXgX%X@XG.s.P.OXP.&X@X@X#X#X&X&XOXI.)._.OX_._.XX).H.).XXOX).H.G.G.H.).).P.J.J.J.J.J.OXXX_._.^.j.k.k.^.Z.^...H 7 6 # X , 1 :XGXtXiXT.<.f.B.B.B.B.B.B.4.:.B.F.f.B.F.B.Z.Z.Z.Z.(.F.V.B./ / ~.F.(.F.F.Z.L.H.Z.H.^.H.Z.j.h.j.Z.5.$.>.B.5.V.y.2...6 6 % & + , DXPXLXZX%X#X].L.a.:.<.Z.).^.).OX@XOXOXOXXXJ.).P.).H.f.f.H.^.Z.j.Z.H.C.G.).].).XXOXOXOXXXXXOXXXOXXXOXOXP.I.@XOX@X#X{ ~ f X O h 8XlXtXeXM.2.2.-.} e p K ) y.=.1.4.y.V.V.>.:.B.B.V.V.V.B.B.B.B.5.V.B.5.B.S.2.Y p J | 1.1.4.B.y.B.B.g.B.B.V.Z.F.N.N q f ; : O 4 MXLXgXkXI.G.s.s.h.] C.OX).OX).).OXOXXXXXXXXXXXXXOX@X@XOXOX@X$X].OX%X#X%XhXdXrXjXkXrX#X#XC.,.h.-X$X&XrXjXjXfXfX.X{ 9.! , o o v qX8XyXyX4.r.>.:.` ` ` =.=.1.-.;.| | Y p Y =._ ..4.2.>.V.:.$.V.V.B.g.V.V.B.5.6.f.V.Z.:.4.=.K 1.B.>.>.<.>.B.r.A.^ w Z h X o < ;X0X<X>XT.=.:.=./ _ / B.<.,.a.D.Z.a.<.L.G.L.).OX@XOX].).p.a.D.C.h.Z.Z.h.Z.Z.G.).OX@XXXoX/.J.).OXOX).XX XJ.J.P.K. .M Z 3 ",
"MXMXnXNXK.E.L.^.`.`.`.j.H.).[.).[._.[.[.'.Z.Z.Z.<.f.=X=X[.=X[.[.}.[.`.^.Z.Z.Z.Z.`.[.[.'.(.(.`.^.Z.<.1.1.-.y.~.(.Z.a V j & X A KXHXVXnXW.C.G.H.h.<.G.{.P.G.G.l.l.^.^.j.H./.).OX).OXXXXXz.z.XX/.J.J.OXXXJ.XXXXP.XXP.OXOX@X&XOX].@X&X&X%X&X&X&XrXW.N C 9 # X b HX8X3XT. ...` B.B.V.5.>.f.V.4.F.A./ e Y 2.r.-.| -.u..._ / / :.4.B.S.r.r.:...f.F.Z.Z.Z.Z.^.^.Z.F.F.B.f.B.2.=.-.q.E 6 f # &   v.LXMXfX&X*XG.G. XOX X&X@X@X%X@X&X&XOXG.P._.OX_._._._.)._.+XOX).H.G.G.G.).).P.P.P.P.P.P.XX).OX+X/.j.f.k.^.Z.Z.` I 0 6 * X & o :XGXtXiXD.<.4.B.B.B.f.f.B.:.$.B.(.B.B.Z.f.Z.Z.Z.Z.(.~.S.B./ / F.F.(.F.F.Z.L.Z.Z.H.H.H.Z.j.j.Z.Z.6.$.>.V.y.V.y.2.| 6 6 # $ + , DXPXLXZX#X#X}.L.a.,.a.^.]._.P._.+X+XOXOXXX).P.J.J.C.<.<.h.j.Z.j.H.G.h.C.].@X).OXOXOXOXXXXXOXOXOXXXOXOXI.J.@XOX@X#X{ ~ f X O h 8XlXtX4Xr.1.:.-...i u K R w.2.-.r.y.B.V.4.>.B.g.V.V.V.B.B.B.B.y.B.B.B.B.V.2._ J J | 2.2.4.B.B.B.B.g.g.B.V.Z.F.N.N q f ; : O 4 cXLXgXAX XG.s.d.p.[ G.$XOX+X].].XXXXXXXXXXXXOXOXOX@XOXP.P.@X@XOXOX#XOX%XhXdXrXjXhXrX$XP.s.s.P.@X@XrXrXjXfXrXfX.X{ 9.! , o o v qX8XyX3X<.r.>.1.` $.=.-.=.1.-.;.| -.) a Y ..` ` 2.2.>.V.:.` B.B.V.g.V.V.B.f.5.f.g.V.>.2.1.Y ..y.:.&.<.>.B.r.A.^ w Z h $ o < ;X0X<X>XA.` $.$._ ..` ] *.<.C.Z.f.,.*.G.K.L.).OX+XOX].].p.a.Z.Z.C.Z.h.Z.Z.G.G.).OX@XXXoX).J.).OXXXXXXXXXXXJ.P.K.@.t g < ",
"nXVXNXNXK.E.L.^.`.`.^.j.Z.`.].).[._.`.[.[.^.Z.B.<.f.}.=X[.=X[.[.}.[.[.^.Z.Z.Z.Z.^.'.[.`.(.(.`.^.Z.<.1.1.1.y.(.`.Z.a V j = X A KXHXLXnXE.G.H.H.h.,.L.#XL.h.G.H.j.^./.j./.oXXXOXP.XXXXXXz.z.XXJ.J.P.OXXXJ.P.P.P.OXOXOXOX@X&XOXP.OX&X&X%X&X&X&XrXW.N C 9 X X b HXqXtXT.....` B.4.f.:.&.g.~.B.S.(.r.a a ) ....) X.t.H p i u ) 2.B.r.1.t.1._ <.F.F.g.F.Z.F.F.Z.L.~.B.a.B.4.=.-.q.Q 0 f # &   v.LXMXfX&XOXG.G.OXOX#X&X@X@X&X@X&X@XP.G.P.)._.).)._.).P._.OXOX).H.G.G.H._.).P.P.I.P.).XX).).XX+X/.j.f.f.Z.Z.f._ X.w 9 h X + o :XGXtXiXD.<.4.B.B.f.5.f.f.:.` 4.F.B.B.Z.f.Z.Z.Z.Z.(.(.S.V._ _ F.F.'.F.F.F.L.Z.Z.Z.H.H.Z.j.Z.Z.Z.<.` >.V.y.V.y.2...6 6 # $ o , DXPXLXZX#XE.].Z.,.] <.H.).).H.).oX+XOX@X@XXXP.G.J.C.<.<.f.g.j.j.H.G.p.C.+X&X).OXOXOXOXXXXXOXOXOXOXOXOXJ.G.OX@X@X#X{ S h # $ j 8XvXtXeXM.1.1.1.1.p e K Y -.w...r.y.y.B.B.5.B.g.V.V.V.B.B.B.B.B.B.B.B.B.B.2.:.R J ) 2.w.2.B.V.B.B.g.g.B.V.Z.F.N.N q f ; : O 4 cXLXgXAXOXJ.s.x.,.( G.$XOXOX).].).).).XXXXOXOX@X@X@X).J.I.OX@XOXOX#XOX%XhXdXrXjXrXjX&XG.s.P.$X$X&XaXrXjXfXrXfXW.{ 9.! , o o v qXlXvX3X1.4.>.2...=.=.-.-.1.-.;.| -.) a Y -.=...4.2.4.F.>.' 4.B.Z.g.V.V.B.5.5.g.g.B.4.:.4._ Y y.=.$.<.>.B.y.A.{ w Z h $ o , n.9X<X3XA.` ` $._ :.:.' ] 4.D.C.4.,.,.D.K.).].OXOX].].].a.p.Z.H.Z.Z.g.Z.Z.G.J.).OXOXXXoX).J.).OXXXXXXXXXOX XI.K.@.w = = ",
"mXVXNXNXK.E.L.^.`.`.^.j.Z.`.].).[._.`.[.[.^.Z.B.4.f.[.=X[.=X[.[.}.}.[.(.Z.Z.Z.Z.^.`.[.`.^.(.`.^.Z.<.2.q.-.y.~.(.Z.a V j = X A IXLXLXnXE.G.H.H.h.<.].&XP.h.H.H.h.^./.j./._.).OXP.XXXXXXz.z.XXJ.J.P.XXP.J.P.P.P.OXOX$XOX@X@XP.L.OX&X&X@X-X&X&XdXW.N C 9 X X b HXqXxXW.1.+.| 4.2.<.$.$.5.F.B.B.F.F.:./ p K ....} T r e r r H ..w.-.-.t.r.....<.f.Z.F.Z.Z.F.Z.F.(.B.4.B.B.:.2.w.o.g f # &   v.JXMXBXdXOXG.P.@X#XOX&X@X&X&X@X&X@XE.G.J.).).).).).).P._._._.P.H.J.H.P._.).P.J.J.P.XXOX).)._.).^.h.h.h.^.f.&./ r.U 0 b X + o :XGXtXiXD.4.5.B.B.f.5.f.f.<.` >.B.4.4.S.B.j.j.Z.Z.(.(.F.S._ _ (.F.(.F.F.Z.F.Z.Z.Z.Z.Z.Z.j.Z.Z.Z.6.$.>.B.5.y.y.2.-.w 6 # $ o , DXPXLXZX#XP.'.B.] ( <.H.).).J./.oX+XOX@X@XOX).J.L.G.f.f.Z.Z.Z.Z.H.G.h.G.@X@X).OX@X@XOXXXOXOXOXOXOXOXOXI.G.OX@X&X#X{ S h # $ v cXvXyXyXM.3.1.-.w.Y i Y R R 1.) 2.y.4.B.V.B.g.g.B.V.V.B.B.B.B.B.5.B.V.B.5.4.4...J Y 1.2.2.y.V.B.B.g.g.g.V.Z.F.N.N q f ; : O 4 cXLXgXAX%XP.G.p.p.[ G.+X).].).).).).).XXXXOXOX@X@X@X).J.I.OX@XOXOX#XOX%XhXhXrXhXrXhX&XL.J.OX@XOXaXhXrXjXiXrXfXW.{ 9.! , o o v qXlXvX3X>.4.>.4.:.=.=.-.-.1.1.-.;.;.R p Y -.=.=.5.4.5.V.>.( >.V.Z.B.V.V.B.f.5.f.g.B.B.$.y.;.a 1._ ( >.>.B.y.A.} w Z h $ o , n.9X<XtXT.` ` =.=.2.4.:.,.4.B.a.,.,.a.C.L.].].OX].].OX].p.<.Z.H.Z.Z.f.Z.Z.G.H._.OXOXOXOX).P.).OXXXXXXXXX*X XI.K.@.w # = ",
"mXVXVXNXL.E.L.^.`._.`.^.H.).}.).[._.`.[.[.^.Z.B.4.4.[.=X[.=X[.=X[.[.[.`.Z.Z.Z.Z.^.`.[.`.^.(.(.^.Z.4.r.q.-.4.Z.Z.Z.a V j = @ v IXLXLXMX.XL.L.H.h.p.OXaX].C.H.H.h././.j.H./.).OX).XX).XXz.z.XXJ.J.).XXP.P.OXXXP.XXOX@X$X@X@XP.L.OX&X&X%X&X@X&XrXW.N Z 9 X X v HXqXbX3Xe.1.X.r.>.>.:.&.<.V.V.B.Z.F.4.-.) Y ..1.} e r F F e F } -.-...-..._ ..:.4.(.Z.Z.Z.Z.Z.F.(.B.<.B.B.2.2.r.o.z f # &   v.JXMXBXhXI.G.OX&X%X%X@X&X&X@X@X@X@XOXP.P.).).).)._._.).+X_.).J.H.H.H.H._.).P.J.J.P.XXOXOX).).J.j.k.h.j.^.<.d / T.{ j A X + o :XGXzXiXD.4.f.B.B.B.f.B.B.4._ :.B.4.4.Z.Z.g.j.Z.Z.(.~.F.F._ _ ~.F.(.F.F.F.L.H.Z.Z.Z.Z.j.j.j.j.Z.5.&.<.V.5.5.y.y.w.x g * O o , HXPXLXZX#XP.'.4.( ] a.^._.).).oX+X+XOX@XOX).P.J.H.G.f.h.H.H.Z.Z.H.G.C.).@XOXOXOX@X@XOXOXOXOXXXOXOXOXOXI.J.OX@X&X{.{ S f # $ j 8XzXtXeXM.1.>.-.w.| J } Y u ) Y 1.2.2.B.V.B.g.g.V.V.V.B.B.B.B.B.5.y.V.B.5.4.y.1.K K -.1.1.2.y.B.B.g.g.g.j.Z.F.N.N j f ; + O 4 cXLXgXAX*XXXP.J.C.*.G.+X).).).].).).XXXXXXXXOXOXOX@XOXP.P.@X@XOXOXOX X%XhXhXrXhXhXrX#X#XOX@X@XOXhXhXaXjXrXrXfXW.{ 9.! < o @ v 1XlXyX3X:.4.>.4.1.=.=.-.-.1.1.-.-...Y p R 1.:.-.4.y.B.5.>.` :.V.V.g.V.V.g.f.f.f.f.B.Z.=.y.1.a =./ / &.>.B.r.A.} z B k $ & , n.9X<XyXY.` ` =.=.4.4.a.4.4.a.a.4.4.a.D.L.].+XOXOXOXOX].a.p.Z.H.G.Z.f.H.Z.G.J.OXOXOXOXOX).P.).XXXXXXXXXXXX XI.K.@.w # & ",
"nXVXVXNXL.].^.^._._.`.H.H.).[.).[._._.[.[.^.Z.B.5.<.|.=X[.=X[.=X[.[.[.`.Z.Z.Z.Z.^.'.}.'.(.(.(.^.Z.a.r.q.-.2.V.Z.Z.a V j = @ v IXLXLXMX.XL.L.H.h.a.OXaXOXG.H.H.l././.h.H.).).OXXXOX).XXz.z.XXJ.J.XXXXP.P.OXXXP.OXOX@X@X@X@XP.I.@X&X&X*X&X@X@XrXT.N Z 9 # X b HXqXvX3Xe.e.1.B.2.>.4.<.4.g.Z.V.B.D.4.4...a p ) } I r G G x x P o.o.| Y K ) 1.<.5.F.B.g.Z.Z.Z.F.F.B.:.B.S.2.2.r.o.z f # &   v.GXMXAXjXI.G.%X&X%X@X&X&X&X&X%X%X@X%XOX).OX+X_._.+X+X_.$X+X).H.G.G.J.H._.).P.P.I.P.).XXOXXX).H.j.k.h.Z.^.( s ..W.o.k A o & o :XGXvXiXD.<.5.B.B.B.B.B.B.<.' >.Z.B.f.B.f.g.j.Z.Z.F.(.~.F.` _ (.F.(.F.F.F.L.H.Z.Z.Z.Z.j.j.j.j.V.6.&.4.V.5.5.V.y.t.G g * $ o 4 HXIXLXZX#XP.R.<.' ] f.^.)./.XXoX+X+X+XOXOX).J.C.C.h.p.k.j.j.Z.Z.Z.C.Z.].$X).OX@X@X@XOXOXOXOXXXOXOXOX@XP.J.OX@X&X3X{ S f # $ j cXvXyXpXN.<.<.=.2.2.| .._ i J J ..1.2.B.V.5.g.g.V.V.V.B.B.B.B.y.B.B.B.B.y.5.4.w.Y J _ -.1.r.4.B.B.g.g.g.j.Z.F.N.N m h ; : O 4 cXLXgXAXOXXXOXOX).p.L.+X).OX].OXOXOXXXXXXXXXXXXXXXOXOX).XX@X@XOXOXOX X%XhXhXrXhXjX&XOX$X@XOXOX+XhXhXaXjXrXrXfXW.{ 9.! < o o v 1X8XyX3X:.4.1.r.1.=.=.-.-.1.1.-.-.-.T J ) 2.=.` :.5.B.4.4.$.:.V.B.V.V.V.V.g.f.5.5.5.V.>.y.2.Y _ s s $.:.B.r.A.{ z B k $ & , n.9X<XtXD.) _ =.=.2.2.4.<.<.a.B.f.<.,.K.L.).].].OXOXOX+Xh.a.D.Z.Z.Z.g.H.Z.G.).+XOXOXOXOX).P.).XXXXXXXXXXoX XI.K.@.w * * ",
"nXVXNXNXR.].(.`._._.`.Z.Z.`.].(.[._.[.[.'.Z.Z.Z.f.<.`.[.[.=X[.=X[.[.[.`.Z.B.Z.F.`.[.[.'.(.(.`.^.Z.a.r.w.-.2.S.Z.Z.a V j & @ v IXLXLXVX#XL.L.H.h.p.].aX#XL.G.l.l././.j.H./.).OXXXOX).XXz.z.XXJ.J.XXXXJ.J.OXXXP.OXOX@X@X&X@XP.P.&X%X&XOX&X*X%XrXT.N Z 9 $ X b HXqXlXW.e.r.3.B.2.:.4.g.5.5.Z.Z.D.D.A.y.1.Y J J T } x x x x x G L E } .._ ..4.B.5.B.f.f.Z.Z.Z.F.F.f.:.B.S.4.2.t.o.z f X &   b.MXMXAXkXG.G.@X&XOX&X&X%X&X&X%X@X@XOXOXXX+XOX_._.OXOX_.+X_.).J.G.H.P.)._._.).P.P.P.).XXOXOX+X).H.k.f.j.j.s d y.3Xo.B b $ & o :XGXxXxXD.1.4.B.B.B.B.B.B.5.` >.Z.B.f.V.g.g.j.Z.Z.F.F.~.~.` ` (.F.~.F.F.F.L.H.Z.Z.Z.Z.j.h.j.h.g.<.$.4.S.V.5.y.r.r.G g ; & o 2 DXIXLXZX%XI.L.,.' ] C.).).H.XXOX+X+X+XOX+X).G.h.h.p.*.<.f.p.f.f.h.h.h.).@XOXOX@X@X@XOXOXOXOXXXOXOXOX@XP.G.OX@X$X3X{ S h # $ v cXxXiXiXD.M.4.2.-.y.2.-.;.u u J ) ..2.B.5.<.f.g.V.V.V.B.B.B.B.5.B.B.5.y.B.y.2.w.T J ) ;.r.A.4.B.B.g.g.g.j.Z.Z.N.N m h ; O O 4 cXLXgXAXOX).OX@X+Xp.L.+X].+XOX].OXXXXXXXXXXXXXOX).OXOXP.P.@X@XOXOXOX XOXhXhXrXhXjXrXOX#X$X@X@X$XhXhXrXjXrXrXfX.X{ #.! < o o v 1X1XyX3X1.4.<.r.2.2.:.1.1.1.1.-.-.-.T J _ 2.=._ ` 2.B.5.5.$.` V.V.V.V.V.V.g.f.f.6.5.B.5.1.2.=.Y i a ( &.B.r.A.^ w B j $ $ & v.9X<X3XN./ _ =.=.2.1.<.,.<.B.D.B.a.4.K.K.L.L.].].OXOX+Xh.a.C.Z.h.Z.Z.H.Z.G.).+XOXOXOXOX).P.).XXXXXXXXXXXX XP.K.@.w 9 ; ",
"nXVXNXNXR.].)./.`._.`.j.Z.^.].^.)._.[.[.`.Z.V.Z.f.<.(.[.[.=X[.=X[.[.[.`.Z.B.Z.F.`.}.[.[.(.(.`.^.h.a.r.w.-.r.F.~.Z.H V j $ @ v KXLXLXVX.XL.L.G.h.p.].&X$XL.h.h.H././.l.).oXXX@XP.OX).XXz.z.XXJ.J.OXXXJ.H.XXP.P.OXOX@X@X&X&X X XdX%X&XOX&X*X#XrXT.N Z 9 $ $ b HXqXtXW.r.M.4.B.:.$.<.g.g.<.B.Z.D.Z.F.B.B.S.y.| H e P G x x x x G H | A.S.4.2.4.<.4.f.f.Z.F.Z.F.F.5.&.B.F.4.2.t.o.z f O $   b.MXnXZXBXG.G.&X&XOX&X&XOX@X&X&X@X@XOXP.).OX_.).)._.).).).).J.G.H.P._.+XOXOXXX).).).).).OXOX$X+X^.h.f.Z.p.i ' F.3X^ m v & , X 1XGXcXxXD.>.<.f.B.B.B.B.B.Z.$.:.B.4.4.S.Z.Z.Z.Z.F.F.F.F.~.` ` (.F.~.F.F.F.L.Z.Z.Z.Z.Z.j.g.Z.g.f.*.( 5.~.!.5.y.4.w.x g 8 3 @ , DXIXAXAX.XI.'.4.` ,.H.[._.)._.OXOXOXOX@X+X].L.C.h.p.,.<.p.<.<.p.h.p.p.L.@X@XOX*X@X@XOXOXOXOXOXOXOXOX@XI.G.).@X$X{.{ S h X # h 8XvXyXyXB.4.4.4.=.y.r.1.1.J u J Y _ 1.B.4.>.f.g.V.V.V.B.B.B.B.5.V.V.5.5.V.y.:.2.) J Y ..y.S.y.B.B.g.g.g.j.Z.F.N.N m j ; + O 5 wXLXkXAXOXP.].OX].p.G.].).+X].).).XXXXXXXXXXOXOX).OX).J.P.OX@XOXOXOXI.OXhXhXrXhXjXrX#X].OX&X&X&XhXhXrXjXdXrXjX7X{ 9.! < o o v 1X,XyX3X1.4.<.r.1.4.2.1.1.1.-.;.....Y a _ w.1._ ` :.B.B.B.$.' V.V.V.V.V.V.g.g.f.5.5.B.y.:.1.1.a i a ( :.B.r.N.^ w B k & $ & v.8X<X>XN.) ` >.:.y.4.4.<.4.f.B.B.B.D.L.G.G.G.P.].].].+XC.p.C.C.h.Z.Z.H.Z.G._.@XOXOXOXOX).P.).XXXXXXXXoXXX).].K.{ q 9 f ",
"gXVXNXNX].[.^._._./.^.l.G.^.[.[.[.[.[._.).^.L.F.g.4.L.=X=X[.[.+X[.[.[.[.Z.f.f.Z.'.'.'.`.^.^.`.).Z.a.4.4.` B.y.~.Y.H M g # X A HXLXLXnXE.K.E.P.C.s.G.$X$Xz.h.P.G.=X^.h.h.).OXOXP.OXOXP.G.I.P.J.P.@XP.J.P.OX].OX%X#X#X&X&XOXI..X&X&X&X*X&X*XOX#XD.N Z 9 $   ! FXcXxX{.3.1.4.4.B.4.` :.5.Z.Z.f.4.g.f.5.F.~.B.S.r.J e F J F e u W w.S.F.B.>.$.>.<.>.5.V.~.F.F.F.B.<.>.r.S.B.2.w.o.z f = & o 9.IXMXVXkXI.K.#XrX&X%X%X%X&X&X&X&X%XOXI.P.OXXX).XXXX).XXXXP.H.H.z.z.H.).)._.).).XXXXP.P.XXXX$X_.h.h.(.^.p.d ,.].{.^ M n   $ X :XGXxXxXD.>.>.5.B.B.B.B.B.B.` >.5.4.4.4.V.B.B.Z.~.~.S.Z.F.&./ B.(.Z.~.F.F.!.Z.Z.Z.^.Z.Z.j.Z.V.f.>.>.6.V.S.g.5.u.A.G g f ; + 1 HXIXMXVXpXI.Z.$.( a.Z.G.).).P.P.OX$XOXP.L.L.L.D.4.:.,.4.f.g.Z.h.*.<.a.G.&XOXOX*X@X%XOX XOXOXOXOXOX@XOXL.G.J.$X$X{.^ S n $ X v zXvXyXyXC.B.5.>.<.4.4.2.-.) I J p K | 1.B.B.>.B.B.V.B.g.f.B.V.B.f.f.B.V.B.5.4.2.` p =.=.5.V.B.V.y.V.V.5.g.F.S.N.N m k ; : O 4 MXVXBXkX*XP.@X].L.p.C.+X+X).).).).).XXXXXXXXXXXXOX@XXXJ.J.XX@XOXOXOXOX%XrXdXdXrXjXrX#X#X#X#X#X#XrXjXrXjXdXdXkXW.{ #.7., 1 o A :X<XlX3X1.r.5.B.1.2.4.2.1.1.1.-...| | a R y.1.Y 1.2.V.>.4.4.` f.!.g.g.g.g.y.5.5.5.f.f.5.4.2.>._ Y i _ 2.2.q.q. .w S D & X , v.qX<XyXN._ 1._ 2.>.4.<.,.,.4.4.a.a.a.L.G.G.).).).XXOXOXD.C.G.Z.Z.Z.f.h.H.G.H.+XOX).XXOXH.J.XXP.P.XXXX+XoX/.).D.U = q * ",
"MXVXNXNX].}.`._._././.G.Z.H.].[.[._.[._.).^.L.Z.f.<.Z.=X=X_.[.+X[.[.[.[.L.f.f.Z.'.'.].`.^.^.(.`.Z.a.4.4.$.B.y.Y.Y.U M w # X A HXJXZXnX.XK.I.E.G.L.P.@X@XJ.G.P.h.+X^.h.h.).@X@XOX*XOXI.G.P.P.J.P.OXP.I.XXOX].P.OXOXOX&X&X.X X.X&X%X&X*X&X*XOXrXD.N Z < $   ! FXzXyX{.1.O.1.4.V.4.s ' 4.~.(.Z.f.<.5.<.B.B.>.2.1.K y e u e r J w.'.V.V.B.<.$.$.&.:.g.Z.F.Z.Z.F.B.:.>.4.B.y.2.t.8.z 9 = $ o 0.IXHXVXBX.XI.pXrXpXrX%X%X&X&X&X@XOXP.L.P.+XXX).XXXX).XXXXP.J.J.H.H.J.XX_._.).).XXXXXXXXXXXX+X).f.f.F.L.[ d p.].#X .N n   $ X :XGXxXxXD.>.>.5.B.B.B.B.y.B.` >.B.5.5.4.F.B.B.Z.F.F.S.Z.F.:./ B.'.S.~.F.F.!.Z.Z.Z.^.Z.Z.j.Z.V.f.<.>.6.V.Z.g.5.y.u.x 0 * & + 1 HXIXJXVXpXG.Z.( ' p.H.).XXXXP.).#X%XOXP.I.L.D.B.4.<.5.V.Z.Z.Z.C.p.h.G.P.&XP.OXOX%X%XOX XOXOXOXOXOX@XOXP.G.J.+X=X{.^ ~ h $ X n 8XvXyXyXC.B.5.4.4.f.y.4.2.1...Y a K _ -.4.y.>.5.B.B.B.B.B.B.V.B.g.g.B.B.B.5.4.5.$.i $.` 4.V.B.V.y.B.B.5.B.F.S.N.N m k 3 : O 4 MXVXkXfX.XI.@X).C.p.h.].OX).].].).).XXXXXXXXXX).P.OXOXP.P.OX@XOX XOXOX%XrXrXdXrXrXpX#X%XrXpX#X#XrXjXrXjXdXrXkXW.{ #.7., 1 o A :X<XyXeX3.r.4.B.<.2.2.:.:.:.:.-.....;.Y R r.1.) -.2.S.4.B.5.( 5.Z.g.g.g.f.y.y.y.y.f.g.B.5.5.2.=.) p _ -.1.q.q.^ 0 B D & X , v.qX,XtXt.) :.` 4.>.4.4.3.4.a.a.,.,.a.L.G.G.).).).).OX].C.f.Z.Z.Z.Z.f.h.Z.j.H.+X@XOX@XOXJ.J.OX X XXXXX_.oX`.^.C.U 7 g * ",
"MXVXCXNX].}.`._.)./.).H.C.Z.(.[.[._.[.[.).`.L.Z.f.<.Z.+X=X_.+X+X[.[.[.[.L.a.a.Z.'.'.'.`.^.^.^.(.Z.a.4.4.%.V.y.Y.Y.U M w $ X A HXLXZXMX.XI..XE.L.L.P.$X$X).P.P.C._.^.j.G.).@X@X@X@XOXI.G.P.P.J.P.OXP.I.OXOXP.P.P.OXOX&X&XOXI.OX&X%X&X#X&X*X%XrXT.N Z < $   S FX8XtX{.3...:.4.S.5.' ` >.V.~.^.Z.Z.V.V.Z.V.5.B.S.w.w.| P J | y.S.Y.B.B.B.4.$./ ` >.B.Z.V.B.V.Z.g.:.:.1.4.2.2.t.8.z 9 $ O o v.IXHXVXVX#X.XrXrXpXrXrX&X&X&X&X&XOXP.I.J.OXXX).OXXX).XXXXP.J.J.J.J.).XX].].XXXXXXXXXXXXXXXX+XH.a.a.Z.C.a d C.+X#X@.N n   , o :XGXcXbXD.>.>.5.B.B.B.B.y.B.` >.V.B.B.5.F.f.B.B.F.F.S.S.F.>.' B.'.F.~.F.F.!.Z.Z.Z.^.Z.Z.j.Z.Z.g.6.6.5.V.V.g.5.y.y.r 6 * & o 1 HXIXLXZX#XG.(.&.&.Z.).].).P.XXXXOX@XOXP.K.K.S.B.4.4.B.F.(.(.C.C.a.h.C.J.@XI.#X%X&X%XOXOXOXOXOXOXOX@X@X).J.G._.@X#X^ ~ h X X n 8XvXyXyXC.B.5.B.f.B.B.y.t.t.t.| K Y ) _ :.4.>.4.5.B.V.V.B.B.V.B.g.g.B.B.B.5.5.y.=.i ` ' >.g.5.V.5.g.B.5.B.F.S.N.N m k ; : O 4 FXVXkXfX.XI.@X].h.,.h.].OX].OX].).).XXXXXXP.P.P.J.).OXOXOX@X@X).I. X#X%X&XrXrXdXrX#X#XrXfXrX%X#XrXjXdXjXdXdXkXW.{ #.7., 1 o A :X<XyXyX4.4.4.B.4.1.2.:.=.=.:.-._ ..1.) Y 1.2.| | :.B.5.B.5.%.>.V.g.g.g.5.y.y.y.y.4.f.B.f.5.2.1.=.J Y _ -.q.1.J q B D $ o < v.8X,X3Xq.K -.=.5.4.<.4.,.4.D.f.] ] a.L.G.J.).).)._.OX].h.a.Z.H.H.Z.h.h.Z.h.G.OX@XOX@XOXJ.P.OXOX XXXXX/.oX_.^.C.^ q g f ",
"MXLXCXNX].}.(._.)./._.H.h.h.L.[.[._.[.[.).^.^.L.C.<.Z.+X=X[.+X+X[._.[.[.Z.<.<.B.(.'.'.`.^.^.^.^.Z.a.4.4.%.V.y.Y.Y.U M w # X A HXLXLXBXeX.X#X#XI.C.L.+X+X).).P.L./.H.Z.G.).OX@X@X*X XG.z.P.).J.P.OXP.I.).OXP.P.OXOX%X&X&XOX XOX&X%X&XOX&X@X@XrXT.N Z < $   S FX8XtX3Xr.....1.V.4.4.:.$.` :.4.S.(.V.Z.Z.V.B.A.A.r.3XY.r.y.Y.'.S.4.B.B.B.5.$./ ` 5.B.Z.V.B.B.V.g.>.>.>.2.:.2.u.8.z 9 $ O o v.IXHXVXVXrXpXdXpX#XrXrX&X%X&XrX&XOX].P.J.XXXX).+X+XXXXX).J.J.P.).).).XX].OXXXXXXXXXXXXXXXXXXXH.p.p.B.a.i [ ].+X{.@.N n   , o :XGXcXbXD.>.>.5.5.B.B.B.B.5.` >.V.B.B.5.F.5.f.B.S.F.Z.S.F.>./ f.'.F.~.F.(.Z.Z.Z.H.^.Z.Z.j.V.Z.g.6.6.V.V.g.5.5.y.u.x 6 * % o 1 HXPXLXZX%XG.~.>.*.H.).).P.J.XXXXOX@XOXI.G.K.S.4.:.>.4.B.Z.F.Z.Z.a.h.s.G.@X X#XOX%X%X*XOXOXOXOXOXOXOX@XOXL.h.).@XpX{ ~ f X X n 8XvXyXyXC.B.5.f.f.f.f.y.y.y.y.1.) ) ) / ..4.4.4.4.g.V.V.V.V.B.B.B.B.B.B.B.g.5.5.=.a $._ >.5.5.B.5.B.f.>.4.Z.F.N.N m k ; : O 4 HXZXBXgX.XI.@X].h.p.h.].OX].OX].XXXXXXXXP.P.J.J.J.).@XOXOX@XOXP.P. XOX%X&X&XrXdXpX#X#XrXjXrXrXpXrXjXdXjXdXdXkXW.{ #.7., 1 o A :X<XvXyX4.4.<.B.5.4.4.2.:.:.:.-.` _ 1._ K ..2.;._ ..2.5.g.5.$.&.f.V.B.g.5.5.y.B.B.>.4.g.5.>.>.>.=.R K Y ..w.X.H q D k $ X < v.1X<X>Xq.K -.=.5.4.,.<.:.a.L.B.( ] C.L.G.J.)._.).).OX+Xh.a.Z.H.G.Z.f.H.H.Z.G._.OX).OXOXJ.P.OXOX XXXXX/.+X/.H.D. .w q f ",
"MXZXNXNX].}.`._././._./.C.f.Z.[._._.[.[.).(.^.L.L.f.Z.=X=X+X+X+X[._.[.[.Z.*.&.4.L.(.(.`.^.^.^.^.Z.a.4.4.$.V.B.'.Y.H M g $ X A HXLXVXfX7X.X#XE.G.p.P.$X+X).P.P.].).^.G.J.).OX@X@XOXP.s.z.P.).J.).OXP.J.P.OXP.OX@XOX%X&X&XOX XOX-X%X&XOX&X*X%XrXT.N Z < =   S 0X8XyXeXr...` ..y.2.4.:._ s a d :.a.Z.F.V.B.S.B.2...y.S.~.Y.B.5.4.5.V.B.B.f.:.` >.F.g.V.Z.g.5.g.f.4.<.<.>.:.2.u.X.w * $ O @ v.IXJXJXVXrXrXdXpX#XrXrXrX%X&XrX&XOXI.I.J.XXXX).OXXX).XX).J.H.J.).).).XXOX].XX).XXXXXXXXXX).).h.<.p.f.*.a p.=X].]. .N n   , o 1XGXmXbXD.>.>.4.5.B.B.B.B.5.' >.B.B.B.5.F.5.5.B.Z.S.Z.S.~.:.d 4.(.F.(.~.(.^.H.Z.H.Z.Z.Z.j.Z.Z.g.f.g.Z.Z.5.5.5.u.u.x 0 * O o 1 HXPXLXZXpXG.f.&.*.H.^.H.P.).XXXXOXOXOXI.K.K.L.4.&.&.>.4.f.Z.Z.H.C.G.h.G.&XOXOXOX%X%X%X*XOXOXOXOXOXOX@X@XP.h.P.@XpX .C 9   X n 8XzXyXyXC.B.5.5.5.f.B.y.y.r.r.2.X.| ) / ..4.y.>.4.f.V.Z.Z.V.B.B.B.B.B.B.f.f.f.4.:.a =.` 2.B.4.4.5.V.g.:.>.Z.(.N.N m k ; : O 4 HXLXAXkXOXP.@X].s.,.h.).].OXOX].XXXXXX).P.P.J.J.P.OX@XOXOX@XOXP.I.E.%X%X&X&XrXhXrX#X#XrXdXdXrXrXrXjXrXjXdXdXkXW.{ #.7., 1 o A :X,XxXyX4.B.<.B.B.y.y.4.2.:.>.=...) -._ K _ 2.1._ -.2.y.5.5.$./ <.V.B.f.5.5.y.B.V.>.4.f.4.>.2.2.1.;.Y P ..w.1.U q D k $ X , v.<X2X4Xq.K =.=.5.>.>.<.:.a.L.B.' [ C.L.G.H.).).).).).+Xh.a.G.H.C.h.f.H.^.Z.G._.OX).OXOXH.J.OXOX XXX/._.oX^.Z.R.@.w 9 f ",
"MXZXVXNX].}.`._._././.).Z.f.Z.[._._.[.[.].(.(.L.`.C.H.=X=X+X+X+X[._.[.[.Z.&.` 4.F.L.(.(.^.^.^.^.Z.a.4.f.$.V.V.'.Y.H M g $ X A HXLXVXfXeX#X#XE.G.h.@X-X$X_.H.J._.).^.H.H.).OX@X@XOXP.s.z.P.P.J.OX+XP.G.P.OXOXOX@XOX%X&X&XOX XOX-X%X&X%X&X*X%XrXT.N Z < =   S FX8XiX3Xr.O.` _ <.2.=.:.=.' a a K / >.4.>.4.F.S.2.=.=.2.y.y.4.>.4.5.V.V.B.5.<.<.g.~.g.Z.V.5.4.5.5.>.4.4.4.>.2.u.X.w * $ O o v.PXJXLXBXrXpXrXpXpXrX&XdX%X%X&X#XI.C.h.H.XXXX).XXOX).XXXXJ.H.J.P.).).XX].].).).XXXXXXXXXXJ.H.p.<.f.4.( d C.=X].]. .M n   , o 1XGXmXbXD.>.>.4.5.5.B.B.B.5.' >.B.B.5.4.V.f.f.B.Z.S.Z.F.(.>.d <.~.F.F.F.(.^.H.Z.H.Z.Z.Z.j.Z.Z.g.f.V.!.S.g.5.5.y.A.x g * O + 1 HXPXLXZXpXG.Z.<.f.^.).G.P.XXXXXXOXOXOXI.K.K.'.4.` ` :.<.4.g.f.Z.Z.P.G.J.@XP.OXOXOX*X%X*XOXOXOXOXOXOX@X$XP.h.).$XpX^ C 9 X X n 8XzXyXyXC.B.5.f.B.B.B.B.y.r.4.4.:.:.../ _ 2.4.>.4.5.B.V.Z.V.B.B.B.B.B.B.f.f.B.2.>.Y :.` 4.B.4.4.5.V.B.:.>.Z.(.N.N m k ; : O 4 FXVXAXAX%XP.$XP.d.*.p.L.).OX+X].XXXXXX).P.P.J.J.P.OXOX).).OXOXP.P.P.OX%X&XrXrXdXrX#X#XrXrXdXrXrXrXjXrXjXdXdXkXW.{ #.7., 1 o A :X8XxXyX4.B.<.B.B.B.B.y.2.2.2.:.=._ ;._ K ) 2.w.| 4.4.B.5.5.:./ &.V.B.B.5.5.B.V.S.4.f.B.5.4.4.4.2.1.) K | q.1.H 0 D k $ X , v.:XU.>Xe.Y =.=.5.>.,.4.,.B.L.f.( ( h.L.G.H.).XX).).).+Xh.p.L.G.f.f.g.Z.H.h.G._.OXXX@X).z.J.OXOX XXX/.oX_.l.H.R.@.w 9 f ",
"MXLXVXNX].}.`._._.)././.G.h.L.[._._.[.[.].`.^.L.`.g.Z.+X=X+X+X+X[.).[.[.Z.&.] f.Z.F.^.(.^.^.^.(.Z.a.a.f.$.V.S.'.Y.U M q #   A HXGXVXBXrX.XE.P.L.G.=X=X+XOXJ.h.L.).H.G.H.OX@X&X@X*X XG.G.P.J.H.OX@XP.L.).OXOXOX@XOX@X&X&XOX XOX&X%X&XOX&X*XOXrXD.N Z < $   S FXzXyX{.r.3.X.) 1.4.1.4.4.:.` _ ) / a / Y / 2.2.=.:.y.4.>.>.4.5.<.>.B.B.B.5.5.B.V.V.V.V.5.4.4.5.>._ <.4.f.4.4.u.X.z 9 $ & o v.PXLXLXBXrXpXrXpXrXdXrXdX%X#XrX%XI.G.G.G.).XX).XXXX).).OXJ.z.H.J.).).XX_._.).).P.XXXXXXXXJ.h.p.p.h.f.d d C.$X).{.@.m n   , o 1XGXcXbXD.>.>.4.5.5.B.B.B.B._ >.5.5.5.4.V.B.f.B.Z.S.Z.F.(.4./ 4.(.F.F.S.F.^.H.Z.Z.Z.Z.Z.j.Z.Z.g.f.V.!.S.g.g.5.y.u.x 0 * & + 1 HXIXJXZXrXG.].g.h.).).H.).XXOXXXOX@X].L.G.K.F.<.` :.<.4.4.f.<.C.Z.P.G.G.OXP. X XOXOXOX*XOXOXOXOXOXOXOX@X).G.).$X#X^ C f X X n 0XzXyXyXC.y.5.f.B.B.B.B.y.4.4.4.1.2.:./ / :.>.4.4.5.B.V.Z.V.B.B.B.V.B.g.f.B.B.y.4.' >.$.4.B.4.5.5.V.V.4.5.Z.L.N.N m k 3 : O 4 cXMXBXkX%XI.OXJ.,.*.a.L.P.].+X).).).XXXXXXP.P.J.P.XXOXP.P.OXOXP.I.P. X%XrXrXdXrXrXpX%XrXjXfXrXrXrXjXrXjXdXdXkX.X{ #.7., 1 o A :XvXxXpX4.B.4.B.B.B.y.4.2.>.2.1.-.;.-...R ) 2.r...B.4.B.4.5.>.d &.V.V.B.y.B.B.V.V.B.B.B.5.5.5.5.2.1.| Y ) 1.q.U 6 k k $ o < v.<XQ.>Xq.K -.` 4.>.<.4.<.B.F.a.( [ f.L.G.L.).XX).).).].a.f.L.Z.f.f.Z.Z.H.h.G._.OXOX@XJ.h.G. X X XXX/.oX/.l.H.R.^ q 9 f ",
"MXLXVXNX].[.`._._.).).).H.h.L.=X_._.[.[.].`.^.^.(.f.Z.[.=X+X=X+X[.).[.+XF.*.&.B.D.Z.L.(.(.(.^.`.Z.a.a.f.$.V.S.'.Y.U M q #   A HXzXBXBXpXE.K.K.J.G.$X$X_.OXJ.s.G.H.G.h.J.OX@X&X@X&XOXJ.J.).J.H.@X@X).P.OX@XOXOXOXOX@X&X&XOX XOX&X&X&X*X&X*XOX%XD.N Z 9 $   ! FXzXyXW.3.3.:./ =.y.y.y.2.=.=.:.:.` ) =._ _ 2.:.$.4.4.5.5.>.:.&.&.<.f.B.B.5.B.F.V.4.F.V.4.>.4.f.:.s <.4.g.5.5.A.X.z 9 & & + v.PXLXLXBXrXpXrXrXdXjXrXrX#X#XrX&X XL.I.G.).).).XXXX).).OXP.H.H.J.).).XX_.).P.P.P.).XXXX@X).z.p.f.H.B.' d h.+X).#X@.m n # , o 1XGXcXbXD.>.>.4.4.5.B.B.B.B.` >.5.5.5.4.F.B.B.B.Z.S.Z.F.(.B.' 4.'.F.F.Z.F.!.Z.Z.Z.!.Z.Z.j.!.Z.g.f.V.!.!.g.g.5.5.r.w 9 * 2 + 1 DXIXJXZXrXL.(.<.<.H.).J.XXOXOXOX@X@X].J.C.D.B.:._ :.4.4.4.f.f.Z.Z.L.G.G.&X#X X X XOXOXOXOXOXOX$XOXOXOXOX).J.).$X#X^ C f X X n 0XzXyXyXB.y.5.f.f.f.f.y.4.4.4.4.4.4.:./ Y ` :.4.4.4.g.V.V.V.B.B.V.V.B.g.f.B.B.V.B.` >.` 4.B.4.B.5.B.V.g.V.~.F.N.N m k ; : O 4 0XMXBXkXOXJ.].G.p.,.h.L.P.].OXP.).).XXXXXXP.P.P.J.).XXP.P.OXOX).P.P. XOXrXdXdXrXrXpXrXfXkXjXdXrXrXjXrXjXdXdXkX.X{ #.7., 1 o A :XcXxXeX4.B.4.B.B.4.4.2.:.:.2.1.:.1.-.;._ ) 1.r...5.:.4.>.4.4./ :.V.V.B.B.B.B.V.V.Z.V.B.5.5.B.5.2.2.=.) ) X.1.U 7 j k $ o < v.1X2XW.+.K =._ >.>.4.,.,.f.Z.a.] *.C.L.J.L.).XX).).).).p.f.L.Z.a.g.Z.H.^.G.G._.OX).OXJ.h.G. X X XXX)././.l.^.D.^ 7 9 f ",
"MXZXJXsX}.'._._.).)././.H.h.Z.[._._.[._.).`.`.(.(.Z.h.H.=X=X[.+X[.[.[.[.L.f.<.4.B.(.].^.H.).[.`.Z.D.g.&.>.5.y.'.A.U M q # X v DXzXfXiXpX#XL.C.h.G.+X_.OX&XJ.p.)._.h.h.).OX@X&X*X-X@XP.J.).).H._.OXC.).].OX@XOXOX@XOX@X&X@XOXOXdX&X&XOX&X*XOX%XN.N Z < =   ! FXzXtXN...' | X.;.-.r.r.2.-.| ..X.X.1.1.2.4.4.4.5.5.` <.5.<.&.>.f.V.5.5.5.5.g.V.V.Z.5.&./ ' <.B.5.:.f.<.<.>.4.A.q.M f   2 @ v.PXIXPXBXrXrXdXpX%XrXrXdXrX&X&XOXE.P.P.J.).OXXX).).)._.).H.z.H.J.).).XX).H.H.J.P.).J.XXXXXXJ.p.f.H.Z.,.] G.].].#X .N n   $ o 1XJXxXxXT.1.>.4.B.B.5.5.V.5.$.:.5.5.5.B.V.B.4.4.V.F.Z.S.F.f.' f.'.F.F.F.F.Z.Z.Z.Z.Z.Z.!.!.!.!.Z.6.6.g.Z.!.g.5.2...7 6 * $ + 1 DXPXJXVXrX].^.f.p.G.).P.).*XXXXXOXOX).).L.K.Z.:.` :.:.:.<.<.g.f.Z.G.G.P.OXOXI. XOXOX%X*XOXOXOXOXOXOX@X@X].J.H.$XpX^ C h X X n 8XvXiXsXC.r.y.B.B.B.B.B.f.4.4.B.y.4.:.` ) ` ..4.>.<.5.B.V.V.Z.B.B.V.B.g.g.g.B.y.V.$.>.B.4.B.4.5.5.5.B.V.B.V.F.N.N m D 3 O + 4 FXJXBXfX*XXX@XL.p.,.p.C.L.@X@XJ.P.).XXXXXX).P.H.P.).P.P.P.XXOXP.P.P. XOX&XrXdXdXfXrX%XrXfXjXjXjXrXjXrXjXrXrXjXW.{ 9.! , 1 @ A ;XlXxXyX4.B.f.V.B.y.4.4.4.4.2.1.-.-.-.| _ Y ) r.r.4.>.>.4.4.:.' / B.B.B.V.V.V.V.F.B.B.B.5.5.5.5.y.2.=.) ) X.1.I 6 k k $ X , v.<XQ.W.t.) :.=.>.:.4.<.<.a.B.f.,.,.p.G.G.L.).).XXXXOX].p.a.K.H.f.*.f.j.h.Z.H.).OXOXOXH.h.J.OXOXXXXXXXoX_.^.Z.L. .9 Z f ",
"MXZXJXsX{.'._._._./._._.L.C.H.[._._.[.[.).).`.(.(.Z.h.H.=X=X[.+X[.[.[.).L.C.f.4.Z.(.[.(.^.`.[.(.Z.C.B.>.5.V.y.'.A.H M q $ X v DXmXnXiXeXE.K.C.h.L.=X+XH.XXJ.h.P.).h.h.P.XXOX@X*X@XOXP.J.).).H._.+XG.].].OX@X@X@X@XOX@X&X@XOXOXrX%X&XOX&X@X%XrXK.N Z < =   ! FXcXxXR.:.....| | ..1.2.2.1.-...| | ..-.1.1.2.:.:.:.&.<.5.<.:.<.5.5.( $.:.>.<.4.<.<.` ' ' $.5.V.V.f.f.f.5.<.5.S.q.c h X 2 @ v.PXIXPXBXrXrXfXpXpXrXrXhXrXrXrX@XOXP.).P.XXOXXX).XXXXXX).H.z.H.H.J.J.)._.L.J.P.XXXXXXXXOXOXH.s.h.H.C.*.*.L.+X].#X .N n   $ o 1XJXcXxXR.<.>.4.5.B.5.B.V.4.` $.5.5.5.B.V.B.4.5.Z.F.Z.Z.~.f./ 4.'.F.F.F.^.Z.Z.Z.Z.Z.Z.!.!.!.Z.Z.g.g.Z.S.S.Z.V.y.1.0 0 3 & + 1 DXPXLXVXrX].Z.p.p.J.).J.J.XXXXXXXXXX_.).^.^.D.<.:.:.<.>.<.f.C.f.Z.G.C.P.OXOX X.XOX*X%X*XOXOXOXOXOXOX@X@X].J.H.$XpX^ C f X X n qXvXiXsXC.B.B.B.B.B.B.B.B.f.4.4.4.4.>.` / ) _ >.>.<.5.V.Z.V.V.B.B.V.B.g.g.B.B.5.B.` :.y.4.5.4.B.5.g.B.B.B.V.F.N.N Z D 3 O + 4 cXVXBXfXOXP.@XG.,.,.p.C.J.].OXL.P.).XXXXXXXXXXP.P.P.P.P.).OXOXOXI.P. XOX&XrXdXdXfXpX%XrXfXfXfXjXdXjXrXjXrXdXjXW.{ 9.! , 1 @ A :X1XyXyX4.B.f.V.f.y.y.4.2.2.2.1.=.-.-.| | Y R r.2.>.<.4.4.4.:.' s 5.B.V.V.V.B.B.V.B.B.B.5.5.5.5.5.2.=.) Y ..X.I 6 k l $ X , v.<X2X>Xt.) :.=.4.:.4.<.4.B.D.a.,.,.h.G.L.L.).).XXXXOX).p.a.K.^.f.( *.Z.G.H.)._.OXOXOXJ.h.J.OXOX XXX).oX_.^.Z.R. .q Z 9 ",
"MXZXJXsX}.'._._._._._._.^.Z.L.[._._.[.[.[.).`.`.`.^.j.Z.=X=X[.=X[.[.[.^.L.Z.B.<.Z.(.[.].^.).).^.Z.C.Z.4.5.B.2.S.A.U M q $ @ v DXxXiXiX#XL.C.C.C.(.aX+Xh.J.J.G.).XXh.h.P.XXOX@XOXOXOXJ.H.).).^.[.].C.).).P.OX).].@X@X@X&X$XOXOX&X%X&XOX&X@X@XrXT.N Z < $   S FXcXNXW.3.O.X.| _ | ..-.1.2.1.-.....| ;.-.2.2.>.>.>.4.4.>.:.:.>.4.>./ ' ` &.>.<.<.<.>.<.5.B.V.V.V.g.j.g.g.g.V.F.e.M g X 2 @ n.PXIXPXVXdXrXfXrXrXdXrXdXrX&X&X#XP.P.P.P.XXOXXX).XXXXXX).H.z.z.H.H.J.).].P.J.).XXXXXXXXXXXXJ.h.h.H.Z.,.,.P.+X].#X .N n $ , o 1XHXxXbXW.4.>.>.5.B.B.B.V.>.' ` 4.5.4.B.V.B.4.4.V.F.Z.S.F.f./ 4.~.F.F.F.^.Z.Z.H.H.Z.Z.!.!.!.Z.Z.Z.Z.Z.S.S.Z.S.B.r.w g f & + 1 HXIXJXVXrX].f.p.p.P.XXJ.J.J.J.XXXXXX_.).).^.f.4.:.:.5.4.<.F.Z.C.C.C.h.P.@XOXOXOX%X%X%X%XOXOXOXOXOXOX@X@XOXJ.H.@XpX^ C 9 X   v qXvXiXsXC.B.B.B.B.B.B.B.f.f.4.4.4.4.<.=._ ) / $.>.4.5.V.~.F.B.B.B.V.B.B.g.B.B.4.y.` =.5.4.5.4.B.B.g.B.B.B.V.F.N.N m S 3 O + 4 cXVXBXfXOXI.OXh.,.,.h.G.J.).].L.P.).XXXXP.XXXX).P.P.).).XXOXOXOXI.P. XOX&XrXdXhXrXpX#XrXdXdXdXfXrXjXrXjXrXrXjXW.{ 9.! , 1 @ A :X<XtX3X4.B.f.V.f.y.y.4.2.2.2.1.:.-.-.....Y Y w.4.>.4.5.2.>.>.` a :.B.F.V.5.B.B.B.B.B.B.5.5.5.5.B.2.=.) K | X.E 0 k l $ X < v.1X2X4Xt.) =.:.5.>.4.4.4.B.D.a.,.,.C.G.L.L.).).).XXOX).p.a.L.^.h.( [ f.Z.H.)._.OXOXOXJ.h.J.OXOX XXX).oX_.^.Z.R. .q Z f ",
"nXZXJXsX}.'._._._././._.^.Z.L.[._._.[.[.[.[.].`.`.^.j.Z.[.=X+X=X[.=X[.^.Z.^.B.&.B.L.].].`.).`.^.Z.C.V.<.2.>.` 4.u.U M q $ X v DXzXiXiX#XK.C.C.G.L.+X_.G.G.J.G.).OXG.G.XXOXOX&X@XOXXXH.G.).).^.+X+XG.).).J.).L.P.&X@X@X&X@X].OX&X%X&X%X&X*X#XrXT.N Z * $   S FXcXbXW.e.1.1.......) ) } | | | | X.| ;.-.2.2.4.4.5.5.>.&.$.:.2.2.:.>.:.:.:.<.5.V.Z.Z.F.~.~.V.B.B.g.Z.Z.Z.Z.F.~.e.x j X 2 @ n.PXIXPXVXfXdXjXrXrXdXrXrX&X&X%XOXP.I.I.P.).XX).)._.XXXX).J.G.H.H.H.J.XX].P.J.).XXXXXXXXJ.J.h.h.Z.^.Z.<.p.P.].].#X .N n $ , o :XGXxXNXW.r.4.4.4.5.B.B.B.4.' ` 4.5.4.5.B.B.4.4.B.S.V.V.F.f./ <.F.F.F.F.^.Z.Z.Z.H.Z.Z.!.!.!.Z.Z.Z.Z.g.Z.Z.g.B.B.r.z g 3 O + , HXPXJXVXrXL.f.p.h.).XX/.J./.J.J.).XX_.).H.H.4.B.` ' B.B.4.`.L.Z.C.h.h.).@XOX%X%X&X&X%X%XOXOXOXOXOXOXOX@XOXP.J.$XpX^ C f X @ v qXzXiXsXD.B.B.f.B.B.B.f.f.4.a.4.5.5.4.1.=...` ' <.B.f.B.F.~.B.B.B.V.B.B.g.g.B.y.y.=.$.4.B.g.B.V.B.g.B.B.B.V.F.N.N Z S 3 : + 4 0XMXBXkXOXP.OXs.*.*.p.G.L.).).G.P.).XXXXXXXXP.J.P.).).).P.OXOXOXI.E.OXOX&XrXdXhXrX%X#XrXdXdXrXrXdXjXrXjXrXdXjXW.{ 9.7., 1 @ A :X2X4X3X<.B.f.B.5.B.y.4.2.2.2.1.1.1.-...;.Y Y 2.4.>.5.5.>.>.4.=.Y ` y.F.V.5.B.V.B.B.B.B.5.5.5.5.g.4.:.) K  .X.E 0 k l $ X , v.1X<X4Xt.Y -.:.5.>.<.4.4.B.S.B.<.<.a.K.L.L.).).).XXOX).p.a.K.^.h.( [ <.f.G.P._.XXOX@XJ.s.G.XX XP.XXXX/./.^.H.R.@.q C h ",
"nXVXJXsX{.'._._._.).)._.^.Z.Z.`._._.[.[.[.[.].].(.^.Z.Z.[.=X=X+X[.=X[.H.Z.L.f.` a.Z.(.`.`.`.`.^.L.C.B.<.>.:._ 1.r.H M q $ X v DXtXiXsX#XD.a.a.p.C.G.J.P.P.G.G.].OXJ.J.OXOX*X&X@XOXXXH.G.).)./.+X$XJ.].).L.].).OX@X$X@X&XOX).OX&X%X&X@X&X*XOX#XD.N m * $   S FXcXxXW.e.1.1.X...-.| Y J J p H I | | ..;.-.-.=.>.>.5.:.$.:.2.r.2.2.B.g.5.5.5.B.F.~.~.F.V.V.B.V.Z.Z.Z.j.Z.Z.F.~.e.z j X ,   n.PXIXPXVXfXdXjXfXfXhXrXhXrX&X&X%XOXP.).).XXXX).).XXXXXXJ.H.G.H.H.H.J.XX).L.J.).XXXXXXXXJ.H.h.h.Z.H.B.<.,.P.].).#X .N n $ , o 1XGXxXNXW.B.5.4.4.5.B.B.5.5.` $.4.5.4.5.f.f.<.4.B.Z.B.B.F.B./ <.F.F.F.F.(.Z.H.H.H.Z.Z.!.!.Z.Z.Z.Z.g.6.g.~.<.4.r.r.z g f O O , HXIXJXVXrXG.f.p.h.J.).J.J.).J.).XXXX_.).H.Z.f.B.` ' B.V.f.(.^.Z.Z.h.h.OX&XOX@X&X&X&X%X%XOXOXOXOXOXOXOX$XOX).z.+X#X^ C h $ X h qXzXyXsXD.B.B.B.B.B.B.f.f.f.f.f.5.4.4.1.1.1.1.s <.Z.V.g.V.F.Z.B.V.V.B.B.g.B.B.y.5.:.` 2.B.5.B.B.B.f.g.g.g.V.F.N.N Z S 3 : O 3 wXMXBXkX%X XOXC.,.*.p.G.).OX).G.P.).XXXXXX XJ.z.P.XXXX).P.P.OXP.P. XOX%X&XrXdXhXrX%X#XrXfXdXrXrXrXjXrXjXdXdXkXW.{ 9.7., 1 . A :X;X>X{.3.B.4.B.4.B.y.2.2.2.2.1.1.1.-.=.-.R K 1.4.&.<.4.>.>.5.2._ / 4.S.B.4.B.V.B.S.A.B.5.5.5.5.5.4.:._ I } o.U 0 k l $ X , v.1X<X4Xt.K -.>.5.>.<.4.<.a.F.Z.a.,.<.L.L.L.).).).).XXL.p.f.G.^.Z.*.<.p.f.l.J._.OXOX@Xz.s.z. X X XXXXX/./.^.H.R.O.q C j ",
"nXVXJXsX{.'._._.)./.)._.^.Z.Z.`.[._.[.[.[.[.[.].(.^.h.g.).=X=X+X+X=X[.^.L.Z.f.&.4.B.L.(.`.^.^.^.L.C.B.4.4.>._ 2.q.e z q $ X v 0XzXiXsX{.N.O.] *.p.p.h.).P.G.G.OXXXG.J.OXOXOX@X*X@XOXG.h.^.^./.+X[.G.).).L.OXOX$X@X$X@X&X@XOXOX&X%XrX@X&XOX X#XD.N m = *   A FXmXxXW.r.3.2.X...-.w.| K H e e H T ........` ` $.=.4.:.:.2.y.y.y.y.y.B.V.V.V.V.B.g.(.F.V.V.V.F.~.^.Z.Z.!.Z.F.'.e.z j X &   n.PXIXPXVXfXdXjXfXfXhXrXdX&X&X&X%XOX].OXOXOXXX).).XXOXOXH.H.H.J.H.H.J.).).L.J.).XXXXXXXX).J.G.h.Z.Z.f.*.,.L.).).#X .N n $ , o 1XGXxXNXW.r.5.5.5.5.B.B.5.B.$.$.5.5.5.5.5.f.<.4.B.Z.B.B.F.V.' <.F.F.F.F.(.Z.H.H.H.Z.Z.!.!.Z.Z.Z.Z.g.>.5.V.<.4.r.t.x z f & O , HXIXJXVXrXC.p.p.h.H.J.J.J././.XXXXoXoX^.Z.h.B.B.>.:.B.Z.f.Z.L.Z.Z.h.s.OXaXOX@X&X&X@X%X%XOXOX$X$XOXOXOX@X@X).h.OX#X^ C h $ o h 6XlXyXsXD.B.B.B.B.S.Z.B.g.g.Z.f.f.4.<.<.2.r.r.s >.Z.Z.g.B.Z.F.B.V.V.V.B.g.B.B.y.4.:.' :.B.4.5.5.5.5.f.g.g.V.F.N.N Z S 3 : O 3 wXMXBXkX%XXXOXG.p.*.p.J.).OX).G.P.XXXXXXP.P.G.z.P.XXOX).I.P.P.P. X#XOX%X&XrXrXdXrX%X%XrXjXfXrXrXrXjXrXjXdXdXkXW.{ 9.7., 1 . ! 1X2X>X{.>.r.4.B.4.y.4.2.2.2.2.2.1.1.-.=.=.R J 1.4.>.<.<.:.>.5.2.=./ 2.B.B.5.g.V.V.A.A.B.B.5.5.5.5.4.2...) } o.P w k k $ X , v.1X<X3Xt.Y -.1.5.:.>.4.<.a.F.F.f.,.,.L.L.).).).).).).L.a.h.Z.^.Z.<.f.Z.Z.H.).OXOXOXOXz.s.z.XXOX XXX)./.^.^.Z.R.@.q C h ",
"MXVXJXsX{.'._._._./.)._.).G.Z.`.[._.[.[.[.[.[.[.(.(.g.f.^.+X+X+X=X+X[.[.`.Z.f.<.f.D.L.`.`.^.^.`.L.C.Z.g.5.>._ 1.1.e w 9 $   5 0XtXiXiXE.3.[ [ *.p.p.h.H.G.H.).OXP.G.P.@X@X*X@X*X@XOXG.h.G.^.^.+X].C.P.L.G.).].$X$X@X@X&X$X].OX-X%XrX&X&XOXOX#XK.N m = $   A 0XmXxXW.N.r.w.1.-.-.w.X.} T J e e J } | ..;...$.` $.:.:.2.y.y.r.y.u.B.V.V.Z.Z.V.g.5.F.F.F.F.F.F.~.^.Z.j.!.Z.~.'.e.M k X &   n.UXIXPXVXdXrXjXfXfXjXrXrX%X%X&X@XOX].OX@XOXXXJ.P.XX@X@XJ.J.P.).J.H.H.J.).L.J.).OXXXXXXXXXP.J.G.H.Z.f.*.p.P.].].#X .N j # $ X 1XGXxXxXR.<.5.y.5.5.B.B.B.B.` $.5.5.5.B.5.B.4.4.B.Z.B.V.F.F._ <.F.S.~.F.F.Z.H.Z.Z.Z.Z.!.!.!.V.V.!.Z.5.>.5.<.a.B.t.c z f & + , HXIXVXVX$Xh.p.p.h.J./.J.J. XJ.J.).XX).H.h.f.,.4.5.B.B.V.B.B.C.Z.Z.s.p.).&X%X@X&X&X%X%X%XOXOX@X@XOXOXOX@X$XOXh.OX#X^ C h X X h 6XlXyXiXD.B.V.B.B.S.S.B.g.C.Z.g.f.5.4.4.r.t.r.' :.B.Z.V.B.V.F.B.B.V.B.B.g.B.B.B.4.>./ =.V.>.5.4.4.4.5.g.g.V.F.N.N V S 3 : + 3 wXMXkXkX*X XOXC.p.*.p.L.).].].J.P.XXXX).P.P.J.G.P.XXOX).I.P.OXOXOXOX%X%X&XrXrXrXrXpXpXrXjXjXfXrXrXjXdXjXdXdXjXW.{ 9.7., + . ! 1X2X,X{.:.4.<.B.<.4.4.2.2.2.4.2.2.1.=.=.1.) a -.2.4.<.>.>.2.2.2.1._ :.y.B.5.5.g.V.A.A.S.B.B.5.5.5.5.2.-.)  .o.P z D k $ X , v.1X<X>Xt.) 1.2.B.>.,.<.4.B.F.B.<.,.p.L.L.P.).).).).).G.a.C.K.L.Z.<.f.^.H.H.).+X@XOX).z.s.G.OXOXP.P.J.l.c.l.Z.R.@.q C j ",
"MXVXZXiX{.].).)._././.+X_.H.H.`.[.[.[.[.[.[.[.[.L.L.g.a.^.+X+X+X=X[.[.[.[.L.C.g.C.Z.(.`.`.^.^.`.L.Z.Z.Z.B.:.Y ;.-.w z 9 $   5 0X>XpXeXK.:.' ` ,.a.h.G.h.p.L.@XOXP.G.P.&X&X&X&X@X&XOXG.s.G.G.^.+X$XH.].).G.).).+X$X@X@X&X$XOXOXdX%XdX&X-X*XOX&XT.N m = *   A 0XmXxXW.A.r.r.1.1.2...) T } I e r e J Y _ ..;.=.` ` =.=.1.y.r.2.w.y.~.~.F.Z.Z.Z.Z.Z.<.f.Z.F.F.Z.~.^.Z.Z.!.Z.~.'.r.M k X &   n.UXIXPXVXrXrXjXfXfXdX%XrX&X&XrX&X#XOX@X@XOX).J.J.XX@X@XXXXXOXOXXXJ.J.J.).P.P.XXOXOXXXXXXX).H.G.^.H.f.,.p.).OX].$X .N q   $ X 1XGXxXxXR.>.5.B.5.5.B.V.V.5.` ` 4.5.5.B.B.B.4.4.V.F.Z.Z.F.F.` <.F.S.~.F.F.Z.Z.Z.Z.Z.Z.!.!.~.g.g.~.(.g.>.&.a.f.B.t.c z f $ o , HXLXMXVX$Xs.p.h.H.).XXXX). Xz.z.H.J.H.h.p.<./ ] B.F.B.B.C.f.f.h.C.p.p.P.&X$X@X@X%X%X%X%XOXOX@X@XOXOXOX@X$XOXh.+X#X^ C h X @ h 6XlXyXiXD.B.B.B.B.S.Z.B.g.g.Z.Z.B.B.B.B.B.y.r.$.:.4.V.Z.V.V.V.B.B.V.V.B.g.B.B.V.5.4./ =.S.4.B.2.>.4.5.g.g.V.S.N.N V S 3 + O 3 cXVXBXfX*XI.OXh.d.*.s.P.P.P.].P.).OXXXJ.J.P.XXP.J.XXOX).P.P.OXOX#XOX%X%X&XrXrXrXrX&X&XdXjXjXfXfXrXjXdXjXdXdXjXW.{ 9.! , + . ! 1X<X4X{.:.<.<.y.<.2.2.2.2.4.4.2.2.1.=.-.1.) a -.2.g.<.:.>.2.2.1.1.-.1.y.B.B.4.5.V.B.A.S.V.V.5.5.<.5.4.:.|  .o.P z B k $ X , v.1X<X>Xt.) 2.2.B.:.<.,.4.D.D.a.*.,.C.L.L.P.).).).).).C.a.Z.L.L.Z.<.f.^.Z.h.H.OX@XOX).G.s.G.OXOXI.J.z.l.l.j.Z.R.@.q C j ",
"gXLXVXNXE.].(.[.`._._.)._.^.H.[._._._._.[.[.[.).H.[.Z.<.^.=X[.[.=X+X+X[._.^.Z.g.g.g.Z.).[.^.^.`.L.f.g.Z.6.$._ R W x g f %   v qX7XeXCXD.` s :.g.f.Z.G.h.G.OX+X).G.J.).@X@X@X@X@X@XOXJ.G.J.h.G.+X+XH.^./.P.).OXOXOXOX@X@XP.P.*X%X#X&X*X@XOXXX$XD.U B * * X A 0XcXyXW.r.M.r.:.2.1.=.1.-.| } T H e u p Y -.-.) ) X...` -.2.2.-.2.A.S.Z.V.V.Z.Z.Z.V.Z.f.4.Z.F.Z.Z.Z.Z.Z.Z.Z.~.'.r.M k X ,   v.UXIXPXAXdXdXfXdXfXfXdXdX&X%X%X&X&X%X#X).OXP.L.].OX].OX).OXOXOXOX+XXX_.XXXXXXXXXXXXXXXXXX).G.C.^.H.f.p.J.OX].].#X^ m j X & o 1XJXxXiXD.<.4.4.5.B.B.5.4.:.` $.4.B.5.5.5.f.5.5.g.B.V.V.V.V.>.&.V.|.F.B.'.Z.Z.Z.!.^.Z.Z.Z.Z.Z.g.Z.!.Z.5.&.:.<.A.q.x 0 f % O + FXIXJXVX$XC.p.] J.OXJ.J.J.J.z.s.G./.^.f.<.*.d ] a.Z.h.f.h.G.^.h.h.s.s.J.@X&X@X@X@X@X%XOXOXOX%XOXOXOXOXOX@X@XH.+XpXU ~ 9 $ X h qXzXxXiXB.M.B.B.Z.S.S.Z.Z.Z.Z.Z.S.Z.B.B.B.f.4.5.( >.F.V.f.V.B.B.B.V.V.V.B.B.B.B.B.>.` $.B.B.4.5.4.>.4.B.5.5.Y.N.N Z Z 3 O O 4 0XJXVXBX#XP.].h.,.,.C.G.J.P.L.@XXXP.P.J.J.J.J.J.P.XXXXXXXX).XXOX&X@X@X@XOX&XaX#XaX%X&XhXhXrXrXhXdXjXrXfXrXrXjXW.{ #.9.< 1 @ ! qX2X>X}.:.4.2.r.2.>.>.>.>.<.<.<.2.1.-.:...a p _ 2.5.>.:.>.2.:.-.-.2.r.y.4.4.5.5.5.B.B.B.B.y.y.5.5.=.2.1...| } H w B b & o , v.1X:X<Xt.1.<.<.<.4.<.a.B.C.C.C.*.*.C.G.H.L.H.P.P.).).C.p.C.G.).Z.*.<.^.Z.h.H.OXOXOXOXh.p.).P.L.].P.).^.^.!.Z.R. .q ~ j ",
"gXZXVXNXE.].'.[.`.[._._._.^.H.[.[.[._.[.[.[.[.).^.[.Z.<.^.$X[.[.=X+X[.[.[.`.Z.g.f.h.H.)._.^.^.`.(.C.Z.Z.6.>.=.) E c c f % X v qX6X7XbXr._ _ >.4.4.Z.G.s.C._.[.^.G.J.).@X@X@X@X@X@X@XJ.J.J.G.G.@X+XH.H.H.J.).OXOX@X@X-X&X X X@X&X%X&X*X*XXXXX$XD.N B * * X A 0XwXxX3Xt.M.r.X.2.:.=.=.=.| ) } I J H ) X.| | -.1.....) _ -.1...-.4.2.4.f.4.4.4.V.(.V.f.f.Z.F.Z.Z.Z.Z.Z.!.~.'.}.t.M k   , . v.UXIXPXAXdXdXfXdXfXfXdXdXrX%X%X&X&X%XOXOXOXP.J.].+XOX@XXXOXOXOXOX+XXXXXXXXXXXXXXXXXXXXX].).Z.h.L.G.f.p.J.XX].].#X^ m j X & o 1XJXxXsXR.4.4.4.4.5.B.B.B.4.:.:.5.B.5.5.5.g.5.5.B.B.V.V.V.Z.>.$.5.'.F.B.(.Z.Z.Z.!.^.Z.Z.Z.Z.Z.Z.Z.Z.Z.f.<.:.>.S.r.L g g % $ , FXIXJXZXrXG.*.( C._.J.).).XXJ.z.J./.H.h.<.*.( ( ,.h.G.G.G.H./.z.z.h.h.P.@X&X@X@X@X@X%XOXOXOX%XOXOXOXOXOXOXOXH.+XyX^ { 9 $   h qXzXxXiXN.M.B.B.V.S.S.Z.Z.Z.Z.F.F.S.Z.B.B.B.B.B.$.>.F.V.g.V.V.V.V.V.V.V.B.B.B.5.B.4.%.$.4.B.4.5.5.>.4.B.5.5.F.N.N Z Z < O O 4 0XGXVXBX#XP.OXh.*.*.C.G.G.L.G.OX X X).P.P.J.H.G.J.P.XXXXXXXXXXOX@XOX@X@XOX&XaX@X&X$X%XdXhX&X&XdXdXjXrXfXrXdXjXW.{ #.9.< 1 @ ! qX<XtX{.:.r.2.t.r.>.:.:.>.>.>.1.<.2.:.1...K p _ 1.4.>.:.>.2.:.=.-.1.r.y.4.4.5.5.5.y.B.B.V.V.5.5.5.=.1.-.| | { H q B v & o 2 n.1X2X<Xt.1.<.<.<.4.<.a.g.C.Z.Z.<.,.C.P.P.P.).P.P.).).C.a.C.Z.).Z.*.p.^.Z.h.H.OXOXOXOXh.s.).P.L.].).).^.^.Z.Z.R.@.q ~ n ",
"gXZXVXNXE.].'.[.`.[._./._.H.Z.).+X+X[.[.+X[._._.`.[.Z.p.Z.[.$X+X=X[.[.[.[.`.Z.j.f.h.H.).).`.^.`.(.Z.Z.Z.f.g.4.| P c c 8 % O v :X6XW.eX+.) $.5.<.4.C.D.s.h.L.).H.h.G.P.@X@X@X@X@X@X@XJ.G.J.G.J.@X_.Z.h.G.G.P.OX$XOXOX@X@XP.P.*X%X%XrX*X*XoXXX$XD.N B * * X A 0X8XxX3Xr.r.r...:.=.=.=.=._ ) |  .} H } ..} } X.-.| -.| | 1.2.1.2.4.4.<.>.>.>.<.B.V.B.B.f.B.F.Z.Z.Z.Z.Z.~.~.'.}.t.V j   &   v.UXIXPXAXdXdXfXdXdXfXdXdXrX%X&X&X&XOXOXOX@XP.G.].@X@X$XOXOXXXXXXXXXXXXXXXXXXXXXXXXXXXXXOX_.G.h.H.Z.p.p.P.XX].].$X^ m j X & o :XJXxXsXR.B.5.4.4.5.B.B.V.4.:.:.5.B.5.5.5.g.5.5.B.V.Z.Z.Z.F.4.$.4.~.F.V.~.Z.Z.Z.Z.Z.Z.Z.Z.Z.Z.Z.Z.Z.Z.g.f.*.:.A.r.P z g & & , DXLXVXZXrXL.] ' h._.J.).).XXJ.J././.Z.Z.g.*.] ] ,.h.(.).)././.z.H.H.G.).@X@X@X@X@X@X@X*XOXOX%XOXOXOXOXOXOXOXH.[.yX^ { 9 $   h qXzXuXiXC.M.B.B.Z.S.S.S.Z.Z.S.F.F.F.S.Z.Z.V.B.Z.:.>.Z.Z.B.V.V.V.V.V.V.V.B.B.B.4.B.5.:.$.>.5.4.5.5.4.5.B.4.5.S.N.N Z Z < o O 4 0XHXVXBX#XP.OXh.,.<.G.L.L.P.J.OXP. XXXXX).J.H.z.J.P.P.XXXXXXOXOX@X$X@X@XOX@XaX@X&X#X%XrXrX&X&XdXdXjXrXfXrXrXjXW.{ #.9.< 1 @ A qX<XtX{.1.4.2.t.r.>.>.>.>.>.>.1.1.4.1.2.-.K K | 1.4.>.>.>.4.2.-.=.:.4.y.5.4.5.5.5.y.B.B.V.V.5.5.2.>.1.-.|  . .H q B v $ o 2 n.1X2X>Xt.1.<.<.<.4.<.<.g.C.Z.Z.p.<.C.).).).).P.P.).).C.p.f.D.^.H.*.f.H.Z.j.H.OXOXOXOXh.s.).P.L.].)._.^.^.Z.Z.L.{ q ~ n ",
"gXZXVXNXE.].'.[.`.[.`.`._.H.Z.^.+X[.[.[.+X[.[._.).[.H.f.Z.[.=X+X=X[.[.[.[.`.Z.j.f.Z.H.`.).`.`.`.(.H.Z.j.g.Z.V.-.H z c 8 % o A :X<XQ.W...) =.y.4.5.D.D.s.h.K.L.Z.h.z.P.OX@X@X@X@X@XOXJ.h.G.G.J.OX_.j.h.H.G.P.OX@XOXOX@X@XP.P.*X*X&XrX*X*XoXXX$XK.M B * *   A 0X8XxXW.e.e.4...:.=.2.1.-.| | |  .} I H L | -.| ) | X.....1.1.1.1.2.4.` Y / 1.4.<.:.B.B.B.B.B.B.Z.Z.Z.Z.!.~.'.}.A.V k X &   v.UXIXPXAXdXdXfXdXdXfXdXhXdX%X&X&X&XOX].OX@XP.L.OX$X$X$XOXOXXXXXXXXXXXOXXXXXXXXXXXXXXXXX+X].G.C.H.Z.f.p.P.OX].].$X .Z j X & o :XJXxXbXR.B.5.5.4.5.B.V.V.>.$.$.4.B.B.5.5.g.g.g.B.V.Z.F.Z.F.5.$.:.V.F.V.~.Z.Z.Z.Z.Z.Z.Z.Z.Z.Z.Z.Z.Z.Z.Z.Z.<.>.A.w.L g g & o o DXLXMXBX#XG.,.( G._.J.J.J.J.J.J./.H.h.Z.Z.p.<.,.a.Z.)._.)././.J.J.J.J.XX@X@X@X@X@X@X@XOXOXOXOXOXOXOXOXOXOX).Z.).pX^ { 9 $   h qXzXuXiXD.B.B.B.B.Z.F.S.S.S.F.F.F.F.F.S.S.Z.S.F.>.:.B.F.B.B.V.Z.Z.Z.V.V.B.B.g.5.B.5.:.:.>.4.4.5.5.4.5.B.4.4.S.N.N Z Z < o O 4 0XJXVXBX#XP.OXG.,.<.L.L.P.).J.). X XXXXXP.J.H.G.J.J.P.).XXXXOXOX@X@X@XOXP.$XaX$X@X$X@X&XrX&X&XdXrXjXrXfXrXrXjXW.{ #.9.< 1 @ A 7X,XtX{.:.2.1.r.2.<.>.>.>.>.>.1.<.2.1.2.:.Y K X.1.4.<.4.4.5.4.1.=.=.2.y.5.4.5.5.5.y.B.B.B.5.5.5.4.2.2.-.| X.o.U 0 j k $ O 2 n.1X2X,XN.1.<.<.<.4.<.<.f.C.Z.Z.f.p.C.).).).).P.P.).).h.,.p.C.^.H.<.Z.H.Z.Z./.+XOXOXOXh.p.).P.L.).)./.!.!.Z.C.D. .q ~ n ",
"gXZXVXNXE.].'.].`.[.`.`._.H.h.H._._._._.[.+X[.[.[.[.^.g.g.].=X=X+X+X[.[.[.).^.Z.g.Z.^.`.).).).`.(.H.Z.j.g.!.S.1.L z g 8 $ o A :X<XQ.3XO.) =.y.4.4.C.D.C.C.G.^.G.h.h.J.OX@XOX@X@X@XOXH.h.J.J.J.].).h.h.H.H.).OX@X@X@X&X@XP. X*X&X&XrXOX*XXXXX$XD.M B * %   S 0X8XyXW.1.1.1...2.:.1.1.-...| |  .T } J H W X.X.| X.....X...) K K ) K p y a _ :.../ B.B.y.4.4.B.V.F.B.C.Z.Z.~.'.t.V k X ,   v.UXIXPXVXdXdXfXdXdXfXdXhXdX&X&X&X&XOX].OXOXP.P.$X&XOXOXOXOXXXXXXXXXXXOXXXXXXXXXXXXXXXXX+X+XL.G.^.H.f.f.).OX).].$X .Z j X & o :XJXmXNXR.f.5.5.5.y.B.B.V.4.$.$.4.B.B.5.5.B.g.g.B.V.Z.Z.Z.F.B.&.$.B.F.Z.Z.Z.Z.Z.F.Z.Z.Z.Z.Z.Z.Z.Z.Z.Z.Z.Z.g.4.y.q.c 6 8 = X o DXLXVXVX#Xh.p.] G.+XJ.P.J.J.J.J./.l.f.j.Z.p.a.a.C.L.).)./.).XXJ./.XXP.XX@X@X@X&X@X@X%X#XOXOXOXOXOXOXOXOXOX).h.^.#X^ { 9 $ X h qXzXuXiXC.B.B.B.Z.S.F.F.S.F.F.S.S.S.S.S.S.S.S.F.<.$.5.F.B.5.V.Z.Z.V.V.B.B.f.5.5.g.4.:.:.4.4.>.5.5.5.5.B.4.4.S.N.N Z S < O O 4 0XJXVXfX#XP.OXG.*.<.L.L.H.P.G.I.XXXX XP.P.J.J.J.J.J.J.P.XXXXOXOX&X&X&XOXP.OX&XOX$X@X&XrXrX&XrXhXrXjXrXfXdXrXjXW.{ #.9.< 1 @ A qX,XtX{.X.1.:.w.1.2.1.2.2.1.2.4.4.1.1.2.-.Y ) 1.4.4.4.5.5.B.y.1.=...2.y.y.4.5.5.5.B.B.5.5.5.5.5.5.2.2.1...X.o.U 0 j v $ O 2 n.1X2X,XN.>.<.<.<.4.<.<.C.Z.Z.H.h.a.C.L.L.P.).P.P.).).p.,.a.C.(.H.<.Z.H.Z.G.).OXOXOXXXp.p.).).L.).L.^.!.!.Z.Z.D.{ 9 ~ n ",
"gXZXVXNXE.].'.].`.[.`.`._.^.C.H._./._._.+X+X[.[.[.[.`.Z.f.`.aX+X+X+X[.[.[.[.^.Z.g.Z.^.^.`.).).).).Z.Z.Z.g.Z.Z.r.W z g 8 = X v :X7XW.eXe..._ 2.2.<.f.D.C.C.G.^.).h.h.J.XXOXOXOX@X@X@XJ.z.J.P.P.].).f.h.).P.P.XX@XOXOX@X@XP.P.*X%X&XrXOX*XoXXX@XD.M B 8 % X ! FXwXyXW.+.+.1...2.:.-.=.-.....X.| } } } L u H o.-.o.X.X.| I u r e p p a K K K K K a 2.4.4.<.<.4.B.S.g.g.V.Z.F.'.t.V k X &   v.UXIXPXVXdXdXfXdXdXfXdXdXdX%X&X&X&XOX XOXOX).P.@X&XOX].OXOXXXXXXXXXXXXXXXXXXXXXXXXXXXXX].+X^.H.).H.g.h.).OX).).$X .Z j X & o :XJXxXNX'.4.5.B.B.B.B.B.B.B.>.:.4.B.B.5.5.B.B.g.B.V.Z.V.V.Z.V.>.$.5.F.Z.Z.F.Z.Z.Z.Z.Z.Z.Z.Z.Z.Z.Z.Z.Z.Z.Z.F.5.y.1.x 6 8 % o , FXIXVXBX#Xs.,.[ G.+XJ.)./.).).J.).H.f.f.g.<.<.a.Z.).).J.).XX).J.J.XXP.OX&X@X@X&X@X@X%X#XOX#XOXOXOXOXOXOX#XOXh.^.#X^ #.9 $ X v qXuXuXiXD.B.B.B.Z.F.F.F.S.S.F.Z.Z.Z.Z.S.S.S.S.F.<.` >.F.B.4.V.V.V.V.V.B.B.f.5.B.5.4.:.>.4.4.>.5.5.5.5.5.>.4.F.N.N Z S < O O 4 cXJXVXfX#XP.@XJ.,.p.^.L.H.P.G.I.OXXX XP.P.P.).).J.J.J.P.XXXXOXOX@X&X&XOXI.#X&XOXOX@X&X&XrX&XrXhXrXjXrXfXdXrXjXW.{ #.9.< o @ A qX6XyX{...:...2.1.:.>.>.<.4.4.4.2.1.:.1...Y _ 2.r.4.5.5.B.B.y.2..._ 1.y.B.5.5.5.5.B.B.5.5.5.5.5.5.2.4.1..... .H 0 j v $ O 2 n.1X2X,XN.3.4.<.<.4.<.a.Z.Z.Z.H.Z.f.Z.H.L.H.).P.).).].p.*.<.C.(.H.<.Z.H.Z.G.).OXXXXXXXp.p.).).L.).L.^.!.!.!.Z.D.^ 9 ! n ",
"gXZXVXNXE.].'.].`._.`./.[.^.Z.H._._._.[.+X+X[.[.[.).).Z.f.(.=X[.+X+X+X+X[.[.^.H.g.Z.^.^.^.[.[.).).Z.Z.Z.j.V.S.A.o.z g f &   5 qX7XQ.eXA.1.$.1.4.<.f.D.C.C.G.H.H.h.h.J.).OX).XXOX@XOXH.z.P.).P._.).k.h.H.H.J._.@XOXXX@X@XI.P.OXOX%X&X*X*XoXXX+XN.t B ; = X ! HXcXxXW.+.1.1.X.2.:.-.=.-.....X.X. .} o.W u r H T T -.X.T p e u J T _ ..-...Y a p a ` 1.r.4.2.4.B.B.f.f.V.V.F.'.t.V k X , . v.UXIXPXVXdXdXfXdXdXfXdXdXrX%X%X&X&X%XOXOX$XP.P.@X@XOX).OXXXXXXXXXXXXXXXXXXXXXXXXXXXXXXX).].^.H.).H.g.h.OX@X).P.#X .Z j # & o :XJXcXNX'.4.5.B.B.5.5.B.B.V.>.$.4.B.B.5.5.B.B.g.B.V.V.V.B.V.F.5.$.4.Z.F.Z.Z.Z.Z.Z.Z.Z.Z.Z.Z.Z.Z.Z.Z.Z.Z.Z.(.B.A.q.x 6 8 & & , FXLXVXBX#Xs.*.( G.XXJ.)./.XX/.J.).).j.p.p.<.,.p.C.)._./.P.)./.J.J.XXP.XX&X@X@X&X&X@X%X#XOX#X%XOXOXOXOXOXOXOXG.).pX^ { 9 X X v qX6XuXiXD.B.B.V.Z.F.F.F.Z.Z.Z.Z.Z.Z.Z.Z.Z.Z.Z.F.4.' :.F.V.4.Z.B.B.B.B.B.B.f.5.5.5.4.>.:.>.4.5.5.5.5.5.5.>.4.Y.N.N Z S < O O 4 cXJXVXfX#XP.@XJ.p.f.].L.L.).J.P.P. X).).XXXX).).J.J.J.P.XXXXOXXXOX@X@XP.G.#XaX$XOX$X&X&X&X&XrXdXrXjXdXfXdXdXjXW.{ #.7.1 o . ! qXlXyX{...:...2.1...=.:.2.4.2.2.1.1.1.1...K _ 2.4.>.4.5.B.B.y.2._ ) 1.y.B.5.5.5.5.y.y.y.B.V.y.5.5.2.r.2.X... .H 0 j l O O 2 n.qX<X,XN.3.4.<.<.4.<.a.Z.Z.C.Z.C.f.C.P.).).).P.).).).,.] ,.C.(.H.<.h.H.Z.H.).OXXXXXXXh.s.).P.L.).)./.!.^.^.Z.D.^ q { n ",
"gXZXVXNXE.].'.[.`._.`./.[.`.Z.H.+X+X[.+X=X=X[.[.[.`.[.H.a.(.aX[.+X+X+X+X+X[.^.H.g.Z.^.^.^.[.[.).[.Z.Z.^.Z.g.V.S.-.z 6 f & . 5 qX6XQ.{.S.y.:.2.5.4.B.D.D.h.h.Z.C.h.h.J.).XX).).OXOXOXJ.h.P.).J.).).k.p.G.G.G.).$XOXOX@X@XP.P.*X%X%X&X*X*XoXXXOXN.t B 8 = X ! HXcXbX{.1.1.2.:.2.:.1.1.-...| X.X.| o.} } } H r e I X.T u r e I -.w.1.1.-...| ) K a Y -.4.4.4.4.r.4.f.f.V.V.F.'.t.U j   , . v.UXIXPXVXdXdXfXdXdXfXdXdXrX%X%X&X&X%X#X$X$XP.L.OX@XOX).XXXXXXXXXXXXXXXXXXXXXXXXXXXXXXXXL.).L.L.).H.g.f.OX@X).P.$X .Z j # & o :XJXxXNX'.4.5.B.5.5.5.5.B.5.:.` >.B.B.5.5.B.B.g.B.B.B.B.B.V.~.g.&.<.Z.F.F.Z.Z.Z.Z.Z.Z.Z.Z.Z.Z.Z.Z.Z.Z.Z.Z.(.B.A.r.L 6 8 & & , DXJXnXNX{.s.,.[ G._.J.P.J.J.).H.)._.Z.p.p.p.,.p.C.)._.P.J.J.J.z.J.).P.XX&X@X@X&X&X&X%X#XOX#X%XOXOXOXOX%X%X@X).[.pX^ { 9 X X v qX6XtXiXD.B.B.Z.Z.F.F.F.Z.Z.Z.F.F.Z.Z.Z.F.Z.Z.~.4.' &.F.V.4.F.g.B.B.B.B.B.f.g.4.5.5.>.$.:.4.B.5.5.5.4.5.>.4.'.N.N Z S < O O 4 cXJXVXfX#XP.$XH.<.f.).G.G.P.G.J.P.P.XXXXXXXX).P.J.J.J.P.XXXXOXP.OX$X@XP.G.OXhX&XOX$X&X&X&X&XrXdXdXjXdXfXdXdXjXW.{ #.#.1 o @ ! qXlXxX3XX.:...2.1.` ..:.1.2.2.1.1.2.1.1.` K ) 2.4.:.4.5.5.B.y.1.) ) 1.y.B.5.5.5.5.4.5.B.V.S.V.5.5.4.t.r.+... .H 0 j l & O 2 n.qX<X,XN.3.4.<.<.4.<.a.C.C.f.h.f.a.h.).).).).).).).).*.[ ,.C.(.H.<.g.Z.Z.H.).OXXXXXXXl.h.).P.L.)._.[.!.^.^.Z.D.^ q { n ",
"gXZXVXBXE.{.L.[.`._._._.`.^.^.H._._.+X=X=X=X[.[.`.[.[.g.,.Z.=X$X+X[.[.[.[._.`.^.Z.Z.H.^.^.`.).[.[.^.H.^.!.Z.V.Y.i.6 g g * X 5 qXQ.>XeXN.S.5.y.>.>.a.C.C.h.h.Z.G.h.G.H.).OXOXOX_.).OX).G.G.h.G.+XH.f.h.H.G.H.OX@X@XOX&X@XI.P.*X&X#X%XOXOXXXJ.].M.w B * =   A FXcXmX{.1.e.4.:.2.=.:.:.-.-...X.X.X.o.W W } I F e e u r r H I ) ..1.1.1.1.q.1.-.) K K _ r.r.1.y.A.<.Z.g.g.g.V.Y.q.w j X , . v.UXIXLXVXdXdXfXdXdXfXdXrX%X%XrX&X%X%X&X&X$XI.L.OX@XOXOXP.).).P.J.J.P.P.XX).).XXXXXXXX).].G.H.H.).H.<.H.@XXX).].#X .N 9 $ o o :XGXmXsX{.<.4.4.4.5.5.5.5.5.4.$.:.5.5.4.B.f.g.B.B.B.B.B.B.B.V.~.4.' <.(.Z.Z.F.F.F.F.Z.Z.Z.Z.Z.Z.Z.Z.Z.Z.Z.B.5.S.r.x 6 f * X , DXLXVXjXE.C.] ] s.P.P.J.XXJ.J.z./.H.f.Z.Z.*.,.C.).).P.).).J.J.J.J.J.J.XX@X@X@X%X%X@X@X@XOXOXOXOXOX%X%X%XOX@X).^.aX^ { h X X h qXzXuXiXD.D.F.^.Z.Z.Z.Z.Z.V.B.Z.Z.Z.Z.Z.Z.Z.Z.~.B.f.&.5.(.5.B.g.g.B.B.B.B.B.g.B.B.5.>.=.:.4.B.B.4.5.V.B.>.4.S.N.N Z S < o o 4 FXLXVXfX.XP.&X).,.L.).G.L.).P.P. X XXXXXXXXXXXXX).P.XXXXXXXXP.P.OX&X@XP.P.$X@X].OX$X&X&X&X&XrXhXrXjXrXfXfXiXjX.X{ #.9.< 1 @ ! cX,XyX3X..` ) 1.1..._ 2.2.r.r.1.r...2...a / :.2.4.:.5.B.4.4.y.2.) _ 1.y.y.5.5.5.f.V.V.V.V.y.y.5.5.4.t.t.2.X. .x 7 j f & & 2 v.qX<X>XT.3.>.f.4.>.4.F.Z.f.a.,.*.p.h.G.G.H.).).).).).,.,.h.C.(.(.a.Z.j.h.j.)._.XXXXXXh.z.J.).].L.).[.!.k.!.H.D.N t Z n ",
"gXZXVXBXE.{.L.[._._._._./.^.^.H._._.+X=X=X=X[.[.^.).).f.,.Z.$X[.=X=X+X[.[.[.).^.Z.H.H.^.^.`.).[.[.^.^.^.^.!.~.Y.q.6 0 g & @ 5 qX<XeXeXN.Y.y.u.5.<.B.F.D.h.C.Z.Z.h.G.H.).XXOXOXXX).OXP.h.h.h.G._.^.h.h.H.G.G._.@X@XOX&X@XI.P.*X&X#X%XOX*XoXXXOXM.w B 8 *   A FXcXxXW.1.1.4.X.:.=.1.1.1.1.-.X.X.| } W } | } I L I H u H I ) | | X.1.1.1.1.1.1.-...| ..2.r.2.B.S.B.f.g.V.V.V.S.q.w j X , . v.UXIXLXVXdXdXfXdXdXfXdXdXrX&XrX&X%X#X%X&X$XP.I.@X&XOXOXXXXX).P.P.J.J.P.XXXXXXXXXXXXP.J.).G.).^.^.Z.<.H.@XXX).].#X .N 9 $ O o :XGXmXsX{.4.4.5.5.5.5.5.5.5.4.$.:.5.5.5.B.g.B.B.B.V.V.V.V.B.V.F.4.' <.~.Z.Z.Z.F.F.Z.Z.Z.Z.Z.Z.Z.Z.Z.Z.Z.B.B.5.S.r.L 6 f & o , DXLXVXNXE.C.,.,.h.).).).XX)./.J./.H.j.h.f.&.a.G.).).J././.J.J.J.J.J.J.XX@X@X@X%X@X%X@X@XOXOXOXOXOX%X%XOXOXOX).^.rX^ { h X X h qXzXtXiXD.D.(.Z.Z.Z.Z.Z.Z.Z.Z.Z.Z.Z.Z.Z.Z.Z.Z.~.V.B.$.4.(.B.V.V.V.V.B.B.B.g.g.B.B.B.4.:.>.5.V.B.5.5.V.B.4.5.S.N.N Z S < o o 4 FXLXVXfX#XP.@X).,.^.).G.P.].).P.XX XXXXXXXXXXXXX).XXXXXXXXXXXXP.OX&X@XP.P.OX$X].OX@X&XrX&XrXdXjXrXjXrXfXdXdXjX.X{ 9.7.1 1 . A cX,XyX3X| ` ) 1.1..._ 2.2.2.r.1.r.-.2...K ) 1.2.4.:.5.5.4.4.y.1.) _ 1.y.y.5.5.5.f.V.V.V.B.y.5.5.5.4.t.t.2.X. .x 7 f 3 O + 2 n.9X<X>XD.>.<.f.>.:.4.Z.C.f.f.<.*.p.h.J.H.H.).).).).).x.,.h.C.).).f.Z.h.h.j.).XXXX).XXh.z.J.).E.L.L._.^.c.(.Z.D.N w ~ n ",
"gXZXVXNXE.{.L.[._._._._._.`.^.H._._.+X+X=X+X[.[.^.`.(.g.,.B.[.[.=X=X=X=X+X[._.`.H.H.H.^.^.`.).[.[.^.^.^.`.(.~.'.w.6 6 f $ @ 5 qX6XeX3XM.Y.V.S.4.>.f.K.G.C.C.j.h.h.G.H.)._._._._.).[.H.h.h.h.h.)./.h.h.H.h.G.).OX@XOX@X@XI.P.*X@X#X%XOX*XoXXXOXa.w c 8 * X S 0XzXxXW.1.1.2.X.2.:.2.2.2.2.1.X.X.| } W } | | } } | I I I } | | | | -.1.1.1.1.1.2.w.-.) | 1.1.4.B.B.a.g.Z.Z.V.S.+.0 g   , . v.UXIXPXAXdXdXfXdXdXfXdXdXdXrXrX&X%XOXOX&X@XP.P.@X&X@X@XXXXX).P.P.J.J.J.P.).XXXXXXXXP.J.L.G.).).^.h.*.H.OXXX).].#X .Z 9 $ o o :XGXmXsX{.4.5.5.5.5.5.4.4.5.4.:.>.B.B.5.B.B.B.B.V.V.V.V.V.g.B.F.5.( >.~.Z.S.S.S.F.S.Z.Z.V.F.S.S.S.S.S.B.B.B.4.S.r.L 6 f & o , FXLXVXNXE.G.p.p.G._.).).XXJ./.).H.H.H.p.&.&.C.P.].P.J./.J.J.l.J.J.J.J.XX@X@X@X%X@X@X@X@XOXOXOXOXOXOXOXOXOXOX).H.yX^ { h X X h qXlXtXeXN.D.'.Z.Z.Z.Z.Z.Z.Z.Z.Z.Z.Z.Z.Z.Z.Z.Z.~.Z.V.$.:.F.F.V.F.Z.V.B.B.g.g.B.B.B.B.5.>.>.4.B.B.B.B.B.B.B.V.A.N.N Z S < o o 4 FXLXVXfX#XP.@XP.,.^.).G.P.OX].OXXX XXXXXXXXXXXXXXXXXXXXXXXXXXXXX$X&X@XI.I.OXOX].OX@X&X&X&XrXdXhXrXjXrXfXdXdXjX.X{ #.7.1 1 . A 0X6XyX{.` _ ) -.1.| ) 1.1.1.2.X.2.-.2...K _ 1.4.4.>.5.5.4.4.y.1.) _ 1.y.y.5.5.5.f.B.y.B.5.5.5.5.5.4.y.t.q.1. .x 7 f 3 O + 2 n.9X<XW.N.>.4.B.:...B.B.f.f.a.<.<.p.f.H.L.H.P.P.).).).p.d.h.C.).].g.Z.h.f.h.P._.).).XXz.G.P.).P.L.L.).^.^.!.f.B.t w { n ",
"gXZXVXNXE.{.L.[.[._._._._.`.H.Z._._.[.+X=X+X[.[.(.`.`.Z.<.g.[.[.=X=X=X=X+X[._.`.^.^.^.^.`.`.).).[./.`.^.`.(.~.'.t.6 6 9 =   5 qX6XeXW.3.S.B.V.>.` <.C.C.C.C.Z.h.h.G.H.)._._._._._.+XH.f.p.f.h.)./.h.h.H.h.G.).OX@XOX@XOXP.P.*X%X%X%XXX*XoXXXOXa.w z 8 * X S 0XwXxX{.e.3.4.:.2.:.-.:.1.1.-.X.|  .} } } } } } } } ) ) } | | _ ) ) ..-.1.1.-.1.2.r...K Y :.1.2.y.B.a.g.Z.Z.V.S.+.w g   , . v.UXPXPXAXdXdXfXdXdXfXdXdXdXrXrX&X%XOXOX&X@XE.E.&X&X@X@XOXXXXX).P.P.J.J.G.G.J.XXXXXX).P.L.G.).).^.h.*.h.OXXX].].#X^ m 9 $ O o :XGXmXsX{.4.5.5.5.5.5.4.4.4.4.:.:.5.B.5.B.B.B.V.V.V.V.V.V.B.g.F.B.$.>.F.Z.S.S.F.F.S.S.Z.Z.F.S.S.S.S.Z.B.f.B.4.S.t.L 0 f & o , DXLXVXNXE.C.,.,.C.).P.J.J.J.J.).H./._.p.( *.G.).).P.J.J.J.J.l.J.J.J.J.XX@X@X@X@X@X@X&X@XOXOXOXOXOXOXOXOXOXOX_.H.pX^ { h X X h qXzXtXeXM.B.F.Z.Z.Z.Z.Z.Z.Z.Z.Z.Z.Z.Z.F.Z.Z.Z.Z.F.V.&.$.V.~.V.F.Z.V.B.g.g.B.B.5.5.B.5.>.$.>.5.B.V.B.4.5.V.V.B.N.N Z Z < o o 4 FXJXVXfX#XP.@XJ.,.H.(.G.L.].].OXXXXXXXXXXXXXXXXXXXXXXX).).XXXXOX@X&XOXI.L.OXOXOXOXOX&X&X&X&XrXhXrXjXdXfXdXdXjX.X{ 9.7.1 1 . A 0XlXyX{. ._ / -.-.| ) -.-.-.1...2.1.2...) ..2.4.4.>.5.5.4.4.5.1.) _ 1.y.y.5.5.5.5.y.y.5.5.5.5.5.5.5.y.t.w.q. .x = f 3 O O 2 n.9X<XeXD.4.B.V.:...B.B.a.a.<.<.<.p.h.H.H.H.P.P.).).].p.d.f.C.).[.g.Z.f.f.h.P._.).).XXz.H.P.).P.L.L.H.!.^.p.( M.t q ! n ",
"gXZXVXNXE.{.L.[.[._._._._./.H.Z._._._.+X+X+X[.[.[.`.[.^.f.C.[.[.[.[.[.[.+X[.[.`.^.^.^.^.^.`.).).).).`.^.`.(.~.Y.t.0 6 6 =   5 qX6X7XW.1.A.y.y.>.` ,.C.C.C.C.h.h.h.G.H.)._._._._._.$X).h.p.h.h.).^.h.h.H.G.G.).@X@XOX@XOXP.P.*X%XrX%XP.XXXXXXOXM.w z 8 * X S 0XwXxX4Xr.3.1.X.2.=._ _ ..;..... .} } } } ) ) ) ) ) | | | ) ) ) ) ) ..-.1.1.1.1.1.1...a / 4.y.y.B.B.g.f.g.B.S.'.e.z g   , . v.UXIXPXAXdXdXfXdXdXfXdXdXrXrXdX&X%X%X@X@X@X X X&X&XOX%XOXXX X X X XJ.I.z.z.J.P.XXOXOX_.).G.L.L.^.h.*.f.).XX].].#X^ m 9 $ o o :XGXmXsX{.4.4.5.5.5.5.5.5.4.4.:.:.5.5.5.5.B.B.V.V.Z.Z.Z.Z.V.g.F.Z.:.>.F.Z.S.S.F.F.F.F.S.S.S.Z.S.F.F.Z.B.f.B.4.S.t.L 0 f & o , DXLXMXfXE.G.*.*.h.).P.J./.J.J.)./.)._.p.&.f.L.P.).P.P.).XX Xl.J. XJ. XXX*X@X&X@X@X@X&X@X%XOXOXOXOXOXOXOXOXOX_.G.#X^ { 9 X X h qXzXuXpXa.4.f.Z.Z.!.!.Z.Z.Z.Z.Z.Z.Z.Z.Z.Z.Z.Z.Z.F.V.>.( 4.(.V.V.V.B.g.g.g.B.B.5.5.B.5.>.$.:.5.5.B.B.4.4.B.V.r.N.N m Z < o o 4 FXJXVXfX#XP.OXG.,.H.L.C.G.P.).OXXXXXXXXXXXXXXXXXXXXXXXXXXXXXOXOX@X@XOXI.I.].OXOX#X#X@X@X&X&XrXdXrXjXdXfXdXdXjX.X{ 9.#.1 o . A 0XlXxX{. ._ / ....| ) X.....-.| 1.1.2...) -.4.2.<.>.4.4.4.4.4.:.) ) :.y.B.5.5.5.5.5.5.5.5.5.5.5.5.y.y.t.r.q.o.M = f 3 & + 2 m.0X<XeXD.a.Z.Z.:.` B.D.f.a.a.p.p.f.Z.G.G.H.P.).).XX].p.,.a.C.).].f.Z.f.f.h.).XXXX).).z.H.).P.P.L.G.H.Z.j.*.d 3.t q C n ",
"gXZXVXNXE.{.L.[.[._.`._._./.H.j._._._.[.+X+X+X+X[.).[.`.C.C.].[.[.[.[.[.+X[.[.`.^.^.^.^.^.`.`.).).)./.^.^.(.~.F.t.0 6 6 = X 5 qX6X7XW.1.B.y.y.>.&.4.D.D.C.C.h.h.h.Z.H.^./._._._./.$X).h.f.h.j.^.^.h.h.H.G.G.XX@X@XOXOXOXP. X*X*X&X&XP.XXXXXXOXM.w c 8 * X S 0XzXxX4Xr.1.1...:.` Y ) _ | | | } } T } } ) ) | | } ) | _ ) ) ) _ _ -.1.1.2.1.:.-.=._ a / <.4.4.B.B.C.f.f.5.V.'.e.x g   , . v.UXIXLXVXdXdXfXdXdXfXdXdX&X&XrXdX&X@X&X@X&X#X#X&X&XOXOXOX X X XXX XJ.I.G.G.J.P.XXXXXX)._.G.H.G.^.h.&.p.).XX].OX#X^ m 9 $ o o :XGXmXsX{.4.4.4.5.5.5.5.5.4.4.:.$.4.5.5.5.B.B.V.V.V.Z.V.V.V.f.F.F.>.>.V.V.V.V.Z.S.F.F.F.F.Z.Z.Z.F.F.Z.B.f.B.4.S.t.L 0 f & o , DXJXMXfXE.G.*.*.h.).P.J.XXJ.J.J./.).^.p.<.Z.L.P.P.P.P.).XXXXJ.J. XJ.J.XX*X@X&X@X@X&X&X@X%XOXOXOXOXOXOXOX%X@X_.Z.{.^ { 9 X X v qXzXuXiXM.3.<.Z.Z.^.^.Z.Z.Z.Z.Z.Z.Z.Z.Z.Z.Z.Z.Z.F.Z.g.` :.~.B.V.V.B.B.B.B.B.B.5.B.B.B.>.$.>.B.5.B.5.>.>.5.B.r.N.M m B < o o 4 FXLXVXfX#XP.OXh.,.L.L.h.G.P.P.OXXXXXXXXXXXXXXXXXXXXXXXXXXXXXOXOXOXOXOXP.I.].OXOXOX$X&X&X&XrXrXhXrXjXdXfXdXdXjX.X{ #.#.1 1   A 0XlXyX{.` _ / .._ | ) ..| | X.| 1.1.2..._ 1.4.1.1.>.4.4.4.4.4.=._ ) =.y.B.5.5.5.5.5.5.5.5.5.5.5.5.y.y.t.r.r.X.M = * 3 & + 2 m.0X<XeXK.a.Z.Z.>...4.F.C.f.h.h.h.C.L.G.J.H.).).).).).h.p.a.h.).).f.h.h.h.Z.).OXXXP.P.h.H.).).L.L.G.Z.!.j.*.d 3.N w C n ",
"gXZXVXNXE.{.L.[.[._.`._._._.H.h._._._.[.[.+X[.[.[.^.).).C.g.(.[.+X+X+X+X+X[.[.).`.`.^.^.^.`.`.`.^.)./.^.`.`.(.F.t.6 6 9 = X 5 1X>X>XW.1.B.y.y.>.$.4.C.C.C.C.Z.h.h.h.G.H.)._.+X+X).+X).h.s.h.j.H.^.h.h.H.C.G.XX@X@XOXOXOXP. X*XOX%X&XOXXXXXXXOXN.w c 8 *   A DXcXyX3Xr.1.:...1.` ) ) _ _ | } } } ) | | ) ) | | ) ) _ | ) ) ` ....1.:.:.:.:.-...` _ s / ` :.>.4.4.g.f.f.5.B.F.q.z g   , . v.UXIXLXVXdXdXfXdXfXfXdXrX&X&XrXdX&X@X&X&X&X#X#X&X&XOXOXOX XP. XXXXXP.I.J.J.J.P.XXXXXX)._.G.L.G.H.f.[ p.).XXOXOX#X^ m 9 $ o + :XGXmXsX{.f.5.5.4.4.4.5.5.4.5.:.$.4.y.5.B.B.B.V.V.V.V.V.V.V.5.F.~.>.&.f.B.f.B.B.Z.Z.S.S.S.B.B.Z.S.F.Z.B.f.f.4.S.t.L 0 f = $ , DXJXmXfXE.G.*.*.h.).P.J.).J./.J.)./.f.<.p.f.).P.P.P.)./.J.J.l. X XJ.J.XX*X*X&X&X@X&X&X&X%XOXOXOXOXOX%X%X@X&X+XZ.{.^ { 9 X o b 9XzXuXiXN.<.>.f.j.Z.Z.Z.Z.Z.Z.Z.Z.Z.^.!.Z.Z.Z.~.F.F.~.&.` ~.V.Z.V.V.V.B.B.g.g.B.B.B.B.>.` :.V.B.B.B.4.>.>.5.B.M.m m B < o o 4 HXLXVXBX%X).OXh.p.^.L.h.G.P.P.OXXXXXXXXXXXXXXXXXXXXXXXXXXXXXOXOXOXOXOXP.P.].OXOXOX$X&X&X&X&XrXhXrXjXrXfXrXrXjX.X{ #.#.1 1 @ A cXlXyX{.` ` / | ) ..) ..| | ..| 1.1.1.` _ 1.4.1.>.>.4.4.4.4.2.=._ / =.y.B.5.5.5.5.5.5.5.5.5.5.5.5.y.t.t.r.r.X.M = # ; ; + , n.cX6XeXR.B.B.F.4.:.4.F.C.C.Z.H.Z.Z.G.J.J.).).).).P.P.C.p.f.h.`.[.f.g.h.h.G.).+X).P.P.h.H.).P.L.L.G.Z.^.j.p.&.3.N m ~ n ",
"gXZXVXBXE.{.L.[.[._.`._.[._.H.h.)._._._.[.+X[.[.[.^.`.).h.f.L.[.=X+X+X=X=X+X[.[.`.`.`.^.^.(.`.`.^.)./.^.`._.|.~.r.6 6 9 $ X 4 1X<X>XW.1.y.4.y.>._ ,.a.s.h.C.Z.Z.h.h.G.H.)._.+XOXH.+X).h.h.h.j.H.^.h.h.H.G.G.).@X@XOXOXOXI.P.*XOX#X&XOX*XXXXX+XN.t B * =   A FXcXyX3XM.3.1.:.4.:._ _ _ _ ) } } } } | | ) ) | ) Y Y _ .._ ` -.1.:.1.-.........` _ ../ / / / =.4.4.a.f.V.g.y.A.+.z g X , . v.UXIXLXVXdXdXfXdXfXfXdXdXrXrXdXdX&X&X&X&XdX&X@XhX&XOXOXXX XP. XXXXXP.I.J.J.J.P.XXXXOXOX).H.).H.C.<.[ h.P.XXOXOX#X^ m 9 $ o + :XGXmXsX{.B.B.5.4.>.4.4.5.5.5.:.` 4.B.B.B.B.B.B.V.V.V.V.V.V.4.Z.~.>.$.4.5.4.f.B.B.V.Z.Z.Z.B.B.Z.S.F.S.B.f.f.4.S.t.U 0 f $ & , FXJXVXNXE.G.*.*.h.P.J.J.J.J.XXH.).H.*.*.p.<.).P.P.P.).J.J.J.J.J. XJ.J.XX*X@X&X&X@X&X&X&X%XOXOXOXOXOX%X@X&X-XoXZ.{.^ { f X o A qXzXuXiXN.<.,.<.f.Z.Z.Z.Z.Z.Z.Z.Z.Z.^.!.Z.Z.Z.(.F.~.|.>.' ~.V.F.F.F.Z.V.B.f.5.5.5.B.5.:.' :.B.B.B.B.5.>.:.4.B.M.M Z S 3 O O 4 HXLXVXkX%X].OXh.a.^.^.h.G.P.P.XXXXXXXXXXXXXXXXXXXXXXXXOXOXXXOXXXOXOX].P.P.OXOXOXOXOX@X@X%X&XrXdXrXjXrXfXrXrXjXW.{ #.#., 1 @ A cX6XyX{.| | ) _ Y ..W X.| | ..| 1.1.:.` ` 1.4.>.>.4.4.<.<.4.2.-._ Y =.y.B.5.5.5.5.5.5.5.5.5.5.5.5.5.y.y.r.r.X.M = - ; ; & & m.FX6XeXR.B.B.^.B.<.4.C.g.C.H.H.Z.h.h.H.P.)._.).).J.G.C.a.h.h.).).f.h.Z.Z.G._.+XXXP.P.h.H.).P.I.L.H.Z.^.g.Z.<.O.t N ~ n ",
"gXVXZXjX#X].].[.`.`._.+X+X_.Z.f.^._.+X[.[.[.[.[.^.^._.).h.*.f.[.+X=X=X[.[.=X[._._._.).`.^.`.).[.[.].).`.^.`.(.'.t.w g 9 =   h 1X>XtXW.X.=.y.y.2.` 4.Z.D.C.C.Z.h.L.G.H.P.J.).OXXXXXXXH.h.h.h.Z.).G.h.h.h.h.P.@X@XXX@X@XP.J.).OXOX&XOXXXOX_.].L.e.w j * $ X S HXcXxX{.3.1.1...2.=._ ) R ) ) | | ) | } ) ) ) ) ) ) ....X.X.X.X.X.X.:.-.....=.-.....1.) K / ` ` 1.B.B.B.g.5.y.A.8.z 9 O &   m.PXPXPXVXdXdXfXdXfXfXrXfXfXfXdXrXrXrXrXrX&X&X%XOXOXOXOX X X X X X X XP.J.P.P.P.).XX).P.).+X).J.G.p.*.x.).).).OX#X^ m 9 $ O & :XJXmXbX{.S.y.y.5.>.>.4.>.4.B.4./ :.V.4.V.B.5.g.Z.V.5.5.Z.F.B.f.F.V.` / g.5.B.B.B.4.5.B.S.V.Z.Z.Z.Z.Z.Z.Z.B.y.Y.t.H 6 6 # $ , 0XHXmXNX{.C.( ,.C.J./.J.J.J.J.).P.G.Z.<.,.h.).J.J.J.J.).).).H.P.J.P.OX@X&X@X&X@X*X&X&X@X*XOX&X&X%XOX%XdXrX@X).H.K.^ S f O X A qX8XuXsXD.M.4.<.f.Z.!.Z.g.Z.Z.Z.Z.H.H.H.H.H.H.F.~.'.Z.B./ B.(.Z.Z.V.B.B.f.f.f.5.B.5.B.$./ 4.B.B.B.B.B.B.5.5.4.M.M V S 3 O O 4 cXZXBXBX%X$XC.<.f.Z.H.H.H.J.J.P.XXJ.XXXXJ.J.).P.J.J.P.).XX).OX@X@XXXP.J.).OX$X@X$X$X$X&XrXrXrX&X&XhXdXjXfXjXkXW.{ #.#.1 1 . A 0X6XyXyX| ) ) Y I W } o.X.X.} ) _ X.| ` =.>.4.<.>.4.<.>.>.4.4.1._ ) _ 4.y.4.5.g.4.4.4.5.5.y.y.y.5.V.<.<.:.2.q.M 7 # # & & , v.qX6XtXR.B.B.h.f.p.f.L.f.f.H.H.h.h.l.h.H./.).OXOXOXP.h.p.h.G.).).G.h.G.h.H.+X_._._.H.p././.J.P.).H.H.!.~.~.:./  .^ N n ",
"gXVXZXjX#X].].[.`._._.[.[._.H.h.^._.+X[.[.[.[.[._.).[._.j.<.Z.=X+X=X=X[.[.+X[.)._._.).`.^.`.).[.].].)./.`.`.(.'.A.w z f * $ v qX<XtXW.1.2.S.S.5.$.f.K.D.C.Z.Z.C.Z.h.G.J.G.J.XXXXXXXXH.h.h.h.Z.).G.h.h.h.h.P.@X@XOX@X@XP.J.P.OXOX&XOXXX$X[.].F.e.m n & & X S FXmXxX{.3.:.>...>.=./ Y K K ) ) } ) | } } ) ) ) ) ) | ....X.X.-.-.X.:.-...` ........1.) a ) -.1.4.y.B.B.B.y.y.A.8.z f # &   m.PXPXPXVXdXdXfXdXfXfXrXfXfXfXrXrXrXrXrXhXrX&X@XOXOXOX XI.P.P. XXX XP.J.J.P.P.P.XXXX).J.P.+XOXJ.C.x.*.p.).XX].OX#X^ m 9 $ O & :XJXmXbX}.S.B.B.B.4.4.5.>.4.B.4./ &.B.4.V.B.5.g.V.V.5.f.F.V.B.B.F.F.:.( 4.y.4.4.4.4.B.Z.S.V.Z.Z.Z.Z.B.B.B.B.y.Y.t.H 6 6 # # < DXJXmXnXE.N.' ,.h.J.XX XJ.J.J.).).).^.p.p.l.).J.J.J.).)././.).).).).].$X@X@X&X@X*X&X&X*X*XOX&X&X%X*X%XdXrX&X/.H.R.{ S f O O b 9X8XtXiXN.M.f.<.5.V.Z.Z.Z.Z.Z.Z.Z.Z.Z.H.H.H.H.F.~.(.Z.B./ f.~.S.S.Z.B.B.5.4.4.5.5.5.B.$._ 5.V.5.5.5.5.5.B.B.B.N.M V S 3 O O 4 MXZXfXkXOXOXh.<.<.g.Z.H.H.J.).XXXX XXXXXJ.J.XX).H.G.J.P.P.J.P.).@XOX).P.).OXOX+XOXOX$X$X&X&XrX$XrXhXrXjXfXfXkXW.{ #.#.1 1 . A 0X6XyXyX| ) ) Y I I I } o.| } ) _ _ ) _ =.<.4.4.<.>.<.4.>.2.2.1.=.` =.y.B.5.5.f.<.4.4.5.y.y.y.y.5.g.>.<.:.r.r.U 6 # # $ $ , U.8XzXiXW.B.B.h.k.k.h.L.f.a.Z.H.j.h.H.H.J././.OXOX).P.h.k.h.H./.^.Z.h.G.h.).+X_.[.+XH.k.)._.J.J.H.Z.Z.Z.~.~.>. . .^ N m ",
"gXVXZXjX#X].].[.[.[._.[.[._.H.h.^.[.+X[.[.[.=X[.+X[.[.).h.<.Z.=X+X=X=X[.[.+X[._.).).).`.^.`.).[.].).)./.`.(.(.'.t.w 0 9 # O v qX<XtXW.r.r.S.u.6.$.f.F.D.C.D.Z.Z.C.h.G.J.G.J.XXXXXXXXH.s.h.h.Z.).G.h.h.G.h.J.@X@XOX@X@XP.J.).OXOX@XXXOX$X[.].F.e.m B < & X S FXcXxX{.3.1.1...2.:./ Y K K I ) ) ) } } } } } ) | | ......X.-.-.-.-.1.-...` ` ..-.-.1./ a ) 1.r.r.4.r.4.5.y.y.A.8.z f $ &   m.PXPXLXVXdXdXfXdXfXfXrXfXfXdXrXrXpXrXrXhXhX&X@XOXOXE.P.P.P. X XXX XJ.G.J.P.XXXXXXXXP.G.J.OXOXJ.h.,.*.a.).XX).OX#X^ m 9 $ O & :XJXmXbX{.F.B.B.B.5.5.B.5.5.B.4./ $.g.4.V.g.5.f.V.V.5.B.F.B.V.V.Z.F.<.` $.y.<.1.<.y.B.B.B.B.B.B.B.B.f.f.f.B.5.S.t.H 6 6 # X < FXJXmXfXR.M.O.,.h.J.XXXXJ.J.P.P.).].].f.p.^.J.J.J.J.).)./.^.^.).).).].$X&X@X&X@X%X&X&X&X*XOX&X&X&X%X&XdXdX&XoX^.R.{ E h $ O v 9XzXtXyXN.M.B.4.5.g.V.Z.Z.Z.Z.Z.Z.Z.Z.Z.Z.Z.Z.F.F.(.Z.B./ 5.F.F.S.Z.B.f.4.4.4.4.5.4.B.=.' 5.V.5.5.5.4.5.5.B.B.N.M V S 3 O O 4 MXLXkXkXOXOXa.:.<.j.Z.Z.j.H.).XXXXXXoXXXJ.J.XXXXH.G.G.J.J.G.J.P.@XOX).)._.XXXX).].OX@X@X&X&XrXrXrXjXrXjXrXrXkXW.{ #.#., 1 . A cX6XyXyX..| | Y L P L I } | | ) ) ) ) ` :.<.4.4.>.&.<.4.>.>.2.1.1...=.4.B.5.4.5.<.4.4.5.y.y.y.y.5.5.>.<.:.r.t.I 0 = # O o , ;XcXvXxXW.B.f.f.p.p.h.Z.<.,.f.H.H.H.).J.)._./.XXOX).J.h.p.h.H./.H.h.f.Z.h.).+X_.+X[.H.k.)._.H.J.H.j.Z.j.~.(.>.O. .~ ~ m ",
"nXVXZXjX#X].].+X[.[._.[.[._.^.Z.^.[.+X+X[.=X=X=X=X[.[.).h.<.g.[.[.=X+X[.[.=X[._.).).).).`.`.).].].).`.`.`.`.`.'.A.w 0 9 # X v 1X<XeXW.r.2.y.2.%.` 4.D.D.C.C.Z.h.h.h.G.P.G.J.OXXXXXXXG.s.h.h.Z.).G.h.h.G.h.J.@X@XOX@X@XP.P.OX@XOX@XXXXX$X[.].D.e.m B 3 & X S FXcXxX{.r.3.4.:.4.>.=._ Y Y I Y ) T T T T ) } | | | ........X.X.X...:.=.......=.-.-.:.) a / ..1.2.2.4.<.5.B.A.u.o.z f $ &   m.PXPXLXVXdXdXfXdXfXfXrXfXfXrXrX#X#XrXrXhXdX&X%XOXOX XP.P.I. X X X XJ.I.J.).XXXXXXXXP.G.L.OX].G.s.,.*.p.).).).OX#X^ m 9 $ O o :XJXmXsX{.S.B.B.V.5.B.V.5.B.5.5.( $.5.5.B.g.5.5.B.V.B.B.Z.B.F.V.B.V.4.` ' 4.1.>.4.B.B.4.4.B.B.B.B.f.f.f.4.B.5.S.r.H 0 6 # X < FXJXmXiXW.C.a.a.h.H.J.XXJ.J.P.I.L.].].p.<.^.J.J.J.J.).).^.^.H.H.L.L.).$X&X&X&X@X*X&X&X*X*XOX*X&X&X&XrXdXhX&X+X^.R. .{ h $ O v qXzXuXiXN.B.B.B.g.g.V.Z.~.Z.Z.Z.Z.Z.Z.Z.Z.Z.Z.F.F.(.S.B.d 4.F.Z.Z.Z.B.5.4.4.5.5.5.4.B.$./ 5.V.V.B.5.4.4.4.5.B.A.N V S 3 O + 4 MXLXkXkXOXOXa.:.g.Z.^.Z.h.l.J.XXoXXXoXXXJ.J.XXXXJ.H.H.J.J.H.J.).@XOX).).OXOX).P.].OX$X&XrXrXrXaXrXhXrXjXdXrXkX.X{ #.#., 1 . A cX8XyXyXX...| T J P H J T } ) ) ) ) _ ..>.<.<.>.:.>.<.4.>.2.2.1.=._ _ 1.y.5.5.g.5.4.4.5.y.y.y.y.5.5.*.>.:.r.t.I 0 6 % X X , ;XcXzXiXW.B.4.<.<.<.h.C.,.*.f.H.H.H./././._._.XXOX).J.h.h.h.)._.H.h.p.h.h.H._.).+X+XH.k././.H.J.H.j.Z.j.~.~.:.O. .N ~ m ",
"nXVXZXjX#X].].[.=X[.[.[.[._.^.Z.H._.+X+X+X+X=X=X+X[.[.[.Z.<.p.^.[.=X+X[.[.=X+X[.)._._._.`.`.`.).].).`.`.`.`.(.'.Y.M z f = O v qX<XeXR.2.1.1.%.Y ` 4.D.D.C.C.Z.f.p.p.G.P.J.J.XXXXXXXXG.p.h.h.Z.).G.h.G.G.h.J.OXOXOX@XOX).P.@X&X@X@XXXXX+X[.`.D.e.m B < & X S FXcXbX3XM.r.4.>.y.4.4.:.` ) ) Y I J I I I T } | ..................| X.....=.:.:.:.-.:.` ) ) ) ..:.4.<.>.5.B.B.t.o.z f $ &   m.PXPXLXVXdXdXfXdXdXfXrXfXfXdXrX#X#XrXhXdX&X&X%XOXOX XP.OX XP.P. X XP.P.J.XXXXXXXXXXP.G.P.OXP.G.h.p.*.d.).).P.].{.^ m 9 $ O o :XGXmXsX{.S.y.B.V.5.B.V.5.V.5.5.$.` 5.5.B.f.5.5.B.V.V.V.V.V.~.V.4.5.4.` / :.-.>.4.y.4.<.4.4.4.5.B.f.f.f.f.V.5.S.r.L 0 8 # X < FXJXnXfX{.K.C.C.G.H.J.J.J.J.P.P.L.].(.p.<.H.J.J.J.J.).).^.H.Z.G.H.G.P.OX&X&X&X*X*X*X&X*X*XOX%X&X-X&XrXhXhXaX+X(.R.^ S h O O h qXvXxXsXD.B.B.Z.V.g.V.Z.~.Z.Z.Z.Z.Z.Z.Z.Z.Z.Z.^.F.~.F.B.d 4.F.B.Z.Z.B.5.4.f.B.5.5.4.5.$./ 4.5.V.B.5.4.>.4.5.B.A.U V S 3 O + 4 MXLXBXkX#X#XB.,.B.^.^.h.h.G.).XXXXXXXXXXH.J.XX).J.J.J.J.J.J.P.OXOXXX).XXOXOX).P.P.OX$X&X&X&XaXaXrXrXrXjXrXrXjX.X^ #.#.1 1 . A cX8XyXyX1.1.-.} J I H H I ) ) ) ) ) ..:.<.<.>.>.:.<.4.4.2.4.5.1...` _ :.B.y.5.B.f.4.4.5.y.y.y.y.5.5.:.>.:.r.t.U 6 g * O @ , ;X0XzXxXW.B.4.<.*.p.h.C.,.*.h.^.H.H.H././._._.XXOX).L.h.h.h.)./.H.h.k.h.h.H._.).+X_.G.p.H./.H.H.H.G.H.Z.(.V.` O.@.N { j ",
"nXVXZXjX#X].].[.=X=X[.+X+X[.^.H.Z.).+X+X+X=X=X[.=X+X=X=XH.<.p.H.[.+X+X[.[.=X+X[.)._.[._.`.`.^.`.'.).`.`.`.`.`.'.Y.M z 9 # X v qX<X3XT.2.1.1.=.) ` a.F.F.D.D.Z.C.<.p.G.P.G.J.XXXXXXXXG.p.f.h.Z.`.C.h.G.J.h.J.OXOXOX@XOXP.).@X&X@X@X).).oX).(.D.e.m B < & X S FXcXxXeXB.M.r.<.B.5.y.4.=._ ) Y J H J L I I T } | | | | ......| | | ......-.1.1.:...:.:..._ / ) :.4.<.>.4.B.y.r. .z f o &   m.PXPXLXVXdXdXfXdXdXfXrXdXfXfXrX#X#XrXjXrX&X&X#XOXOX XP.*XXX XJ.P. X X XP.XXXXXXXXXXP.G.).OXL.C.h.p.,.p.).).P.].{.^ m 9 $ X o :XGXmXsX{.D.5.B.B.5.B.B.4.V.4.5.:.` 4.5.B.B.5.5.B.V.V.V.V.V.~.B.<.4.>.` ' / ) ` 4.y.4.4.B.4.4.5.B.B.B.B.B.V.5.A.r.L 0 g # X , DXHXnXnX{.K.C.D.G.H.l.l.J. X).].).L.Z.f.k.^.J.J.J.J./.J.^.H.Z.L.L.G.L.].$X@X&X*X*X%X&X*X*XOXOX&XdXdXdXhXhXaX+X^.K.^ S h O X 4 qXlXuXsXD.B.B.F.S.B.V.V.Z.Z.Z.Z.Z.Z.Z.Z.Z.H.Z.^.F.F.F.B.d 4.F.B.Z.Z.B.5.4.B.Z.y.5.4.5.$./ 4.5.5.B.B.5.4.4.5.B.B.t V S 3 O O 4 MXZXBXBXOX#XM.:.g.Z.Z.h.h./.oXXXXX XXXXXH.J.).).P.J.H.J.J.J.P.OXXX).).XXOXOX).P.I.].OX@X@X@X&XaXrXrX&XjXfXrXjX.X^ #.#.1 1 . A cX6XtXyX1.2.1.| J I J J I ) ) ) | ) ..>.<.<.<.>.<.4.4.4.4.y.y.1._ =.` 1.B.B.5.B.f.4.4.5.y.y.y.y.5.5.:.<.:.r.t.U 6 k ; & o , ;X8X8XxXW.A.f.<.<.p.C.g.<.<.Z.).^.H.).).XX_._.OXOX].P.f.h.h.^.).H.h.h.h.Z.).).).+X_.G.,.G./.G.H.H.H.H.Z.(.5./ 3.@.t { j ",
"nXZXZXjX#X].].[.=X[.[.=X=X+X`.H.Z.`.[.+X[.=X=X[.=X[.=X=X^.f.f.^.[.+X[.[.[.=X=X[.).[.[.[.`.^.^.^.].).`.`.`.`.`.'.Y.x z 6 # X v qX<X>XT.1.1.1.;.%.=.a.D.D.C.D.Z.Z.,.p.G.P.G.J.XXXXXXXXG.p.f.f.Z.^.C.h.G.J.h.J.OXOXOX@XOXP.P.OX@XOX&XXX)._.`.(.D.e.m n & &   S FXmXiX3XB.M.4.1.B.5.y.4.=.` | ) I J L L I I T T W } } } | | | | ....| ` ` ..=.:.-.....:.:.` ) ) -.4.4.>.4.B.y.q.} z f O &   m.PXPXPXAXdXdXfXdXdXfXrXrXfXjXrX%X#XrXjXhXrX&X#XOX XP.P.OX XP.P.P.P.P.J.P.XXXXXXXXXX).J.P.OX).G.h.p.,.p.XXXX).].{.^ m h $ X o :XGXmXsX{.D.f.B.B.5.f.B.4.V.>.B.>.` 4.B.B.B.B.g.g.B.V.V.B.V.F.B.5.5.<.$.$./ / ) :.r.4.4.B.5.f.B.B.B.B.B.B.V.5.A.w.L 0 g # X , 0XHXnXnXE.N.a.h.G.J.J.l.J. XP.OX).C.C.f.j./.).P.J.J.H.H.H.H.H.L.^.H.L.].@X&X&X&X%X*X&X*X*XOXOX&XdXdXdXhXhXaX$X(.D.^ S h O X l 1X6X7XiXD.B.V.Z.V.g.g.g.Z.Z.F.Z.Z.Z.Z.H.H.H.H.F.S.F.~.Z./ 4.(.Z.F.F.B.5.4.B.Z.B.5.4.5.:.' 5.B.5.B.B.B.4.4.4.4.M.t V S 3 O O 4 cXZXBXBXOX#Xa.&.f.Z.Z.f.h./.oXXXXXJ.XX XG.G.).).).P.J.J.J.G.P.OXXX).).XXOXOX).P.I.).@X@X$X$X&XrXrXrX&XjXfXrXdX.X^ #.#.1 1 . A cX6XtXyX1.r.w.| J L L I T } ) ..-._ -.4.4.<.>.2.<.>.4.y.y.B.y.2.=.=._ =.y.y.4.5.5.4.4.5.y.y.y.y.5.5.:.<.>.t.u.U 6 k f ; $ , ;X8X8XxXW.D.B.a.<.f.G.f.,.,.h.^.H.H.oX/.XXXX_.OXOX].P.f.f.h.H.).H.h.h.j.H./._.).+X+Xj.x.H./.G.H.H.Z.Z.!.(.4./ r.e.t ~ j ",
"nXVXZXjX#X].].[.=X[.[.=X=X+X`.H.Z.`.[.[.[.+X+X[.+X[.[.+X^.p.f.`.[.[.[.[.[.=X+X[.).[.[.[.`.^.^.^.].).`.`.`.`.`.'.Y.M z 9 # $ b 9X>X>XT.1.-.=.=.%.:.4.C.a.a.B.Z.Z.<.p.L.).L.P.OXOXXXXXG.p.f.f.g.^.C.h.G.H.h.J.OXOX@X@XOXP.P.OXOXXX&XXX)./.^.(.D.e.w j & &   S FXmXyX{.M.M.4.>.5.5.5.4.:.-.X.| ) T I I I I I I I T Y T ) | | ......| _ _ _ ....=.=._ ..-.` ) ) ..:.4.>.4.B.r.1.{ z f O &   m.PXPXPXAXdXdXfXdXdXfXrXrXfXjXdXrXpXrXjXhXhX&X%XOXP.I.I. X XP.P.P.P.J.I.P.XXXX).XXXX).J.L.+XOXJ.h.,.,.h.OXXX].OX#X^ Z j $ X o :XGXmXsX}.D.f.B.V.5.5.B.4.B.:.B.4.$.4.B.B.B.B.g.g.B.V.V.g.g.V.B.f.B.4.:.>.` / Y ..4.4.4.4.B.B.B.B.B.B.f.f.V.5.A.w.L 0 g # X , 0XHXmXnXR.d.O.a.G.J. XJ.J.J.I.OXL.a.f.h.H./.).P.J.H.H.G.H.H.Z.L.L.H.P.OX-XhX&X&X*X*X&X&X*XOXOX@XdXdXdXdXdXaX@X).L.^ E h $ O v 1X<X<XeXD.B.Z.V.g.g.5.g.V.Z.^.Z.Z.Z.H.H.H.H.H.F.S.F.(.S./ 4.'.F.F.F.V.5.4.B.Z.y.5.4.B.>.` B.V.B.V.V.B.4.>.>.1.M.t M S 3 O + 4 MXLXBXAXOXE.3.( B.Z.Z.f.h._.XXJ.XXJ. XJ.z.G.).P.OX).P.J.J.J.P.OXOXXX).XXOXOX).J.P.OX@X@X@X@XrXaXrX&X%XkXjXrXdX.X^ #.#.1 1 . A cX6XtXeX1.t.r.| J J J I ) ) | -.w.-.2.r.r.1.:.:.1.:.4.B.S.A.y.2.-._ Y _ r.4.4.5.5.4.4.5.y.y.y.y.5.5.>.<.>.y.A.I 0 k f < & , ;X8XzXlXW.A.B.4.<.f.Z.<.*.*.f.Z.j.H.+XXXoX+X_.XXOX].L.p.f.h.H.).H.Z.j.G.H._._.).+X+XG.p.H./.H.H.G.j.j.!.~.<._ A.N.t ~ n ",
"gXZXVXNXE.].].[.=X[.[.[.[.`.^.H.Z.j.^.+X=X[.[.=X[.+X=X+X`.Z.Z.`.).[.=X=X[.[.[.+X_._._.).).`.`.^.(.^.^.)._.`.'.}.Y.E V f # $ b 9X6XW.T...1.=._ =.` _ ' ] a.D.B.<.,.a.G.L.P.).OXOXOX).G.*.C.C.L.Z.p.h.H.H.h.H.@X@XOXOX@XP.P.@XP.P.XXXXJ.oX`.L.R.e.q =   &   A FXcXiX{.M.M.B.4.B.4.B.4.2.1.1.1.| ) I I I I J J I ) T } | | | | ..-...` ) ` ..-..._ _ _ ` ` ) ) ..1.1.,.4.4.1.q. .0 9 O +   n.PXPXLXZXdXrXfXdXfXfXrXfXfXjXrX%X#XrXjXhX&X&XrXOXI.I.OXP.OX XJ.XXXXJ.J.P.XXXXXXXXXX).P.).).].P.h.*.,.h.OX).).].#X^ m 9 X o & n.GXxXNX{.Z.B.g.g.B.f.5.5.S.>.' >.2.=.B.B.y.g.g.B.g.B.B.B.B.V.V.V.f.4.<.4...K ) 1.:.r.A.<.B.y.4.4.4.f.B.B.B.5.S.w.L z g # X , 0XHXnXNXK.d / C.].J.XXoXJ.l.J.I.P.,.<.^.^./.).J.H.z.G.H.H.H.^._.).G.L.$X-X@X@X&X&X&X*X*X%X*XOX&XdXdXdXhXhXhX$X).R.^ C h & O v 8XlXtXyXN.B.Z.V.Z.g.5.f.Z.Z.Z.Z.Z.Z.Z.Z.Z.Z.Z.Z.F.(.'.B.` &.'.F.V.B.Z.S.B.B.B.B.B.4.B.>.` 4.F.B.B.y.5.4.>.>.<.r.U N B 3 O + 4 cXLXfXBXrXL./ s 4.Z.Z.f.f.).OX@XXXXXP.J.J.P.).OXOXP.P.P.G.J.XXXXOX).).OX+XP.G.H.G.P.OX@X@X@X&XrXdXhX&XhXrX&XdXE.{ ! ! < 1 . ! cX6XtX3X3.4.1.1.K J K I T | ....X.1.1.:.1.4.4.2.>.:.5.V.B.1.=.2.A.-._ ..4.B.5.4.5.f.4.4.y.y.y.2.>.5.5.4.4.r.q.I 6 g l $ X $ v.cX6XxXW.1.>.4.,.<.Z.<.&.<.H.Z.j.G.H.XXXX_./.XXOX].L.h.h.h.G.).G.h.G.J.G.).]._.+X_.G.x.h./.J.G.h.j.Z.!.!.%.` A.3.N N m ",
"gXZXVXNXE.].].[.=X[.[.+X[._.^.Z.H.Z.^.+X=X[.[.=X[.[.+X[.^.Z.Z.^.).[.=X=X[.[.[.[._._._.).).`.`.^.(.^.^.).`.`.`.}.Y.E V g # $ b 9X,XW.W.X.-.| _ =.=.` O.,.a.C.f.,.,.a.K.P.P.OXOXXXOX).G.*.C.C.L.Z.h.h.H.H.h.H.OXOXOXOX@XP.I.@XP.).XXOX).XX`.Z.F.e.q # > &   A FXcXiX{.M.M.B.4.B.4.B.5.4.2.2.2.X.| | } } T I I T ) } ) ) | | | ..X.X.......-.:.=...` ` ..` ) ) ..1.<.<.4.2.1.q.} 0 9 O O   n.PXPXLXZXdXrXfXdXfXfXrXrXfXfXrX#X#XrXrXjX&X&X&X%XI.P.OX X*XXXJ.XXXXP.P.P.P.XXXXXXXX).P.].].].P.p.] *.p.OXXX).].#X^ m 9 X o & n.GXxXNX{.Z.g.5.g.B.f.4.4.B.>._ :.=.=.B.B.y.g.g.B.g.B.B.B.B.V.V.V.f.4.<.>.:./ ) :.:.4.y.1.B.B.B.B.B.B.B.B.B.5.S.w.L z g # $ , 0XHXzXnXN.t a a.P.J.J.XXJ.J.J.L.L.a.<.H.H./.).J.H.H.H.H.H.H.^.).).G.L.$X-X@X@X&X&X&X*X*X%X*XOX&XdXdXdXhXhXaX+X).R.^ C h $ O b 9XzXuXiXN.B.Z.V.V.g.5.f.Z.Z.Z.Z.Z.Z.H.Z.Z.Z.Z.Z.F.F.(.B.' ` (.F.Z.V.Z.Z.B.B.B.B.B.4.B.>.' 4.V.B.B.y.5.4.>.4.<.4.U N B 3 O + 4 wXLXBXfX%XE. ./ 4.g.g.p.f.P.OXXXXXXXP.J.P.P.].OXOXP.P.P.G.J.XX).OX).).OXOXP.J.G.C.L.OX@X@X@X@X&X&XdX%XdXrX%XrXW.{ ! ! < 1 . ! cXlXtX3X4.4.1.1.Y J K T ) | ..-.1.-.-.:.1.2.4.2.>.:.>.y.y.2.-.1.r.-...-.r.B.y.4.5.f.4.4.y.y.y.2.>.>.<.<.<.r.q.E 0 g f $ o , ;XcX8XvXW.A.B.D.a.4.F.,.&.a.H.H.j.H.H.).XXoX_.XXOX).L.p.h.h.H._.G.h.G.G.G.).[._.+X_.G.p.h.H.G.z.l.H.H.g.>./ :.R.+.t { j ",
"gXZXVXNXE.].].[.=X=X[.=X[._.^.Z.^.H.^.[.+X[._.[.[.[.+X[.^.Z.Z.^.^.[.+X=X+X[.[.[._._.[.[.).).^.`.(.^.^./.`.`.`.}.Y.E V g # O b 9X,X>X4X2.-.| %.r.:.>.3.3.a.B.f.<.,.a.L.P.P.OXXXP.OX).J.*.Z.C.F.Z.h.h.G.G.h.J.OXXXOXOX@XP.I.@X).). XOX).oX^.Z.F.e.7 - > &   A FXcXiX{.M.M.B.4.B.4.B.5.4.4.4.2.1.X...| T I I Y ) ) } ) ) ) | ..............-.=.......-...` ) _ -.2.<.<.4.2.1.w.o.z 9 O $   n.PXPXLXZXdXrXfXdXfXfXrXrXrXfXrX#X#X#XrXjX&X@X&X%X XI.P.OX*XXXP.XXXXP.P.P.P.).XXXXXX).).].].OXP.h.*.,.s.OXXX).OX#X^ Z h $ O & v.GXxXNX{.B.5.<.f.V.g.<.>.5.4.$.=._ ` y.5.y.g.g.B.B.B.B.B.B.V.V.V.g.4.<.>.1._ ) ....:.4.1.r.y.B.B.B.B.B.5.B.5.S.w.L w g # $ , 0XHXzXiXa.y t a.P.J.J.XXJ.J.P.L.).f.<.Z.Z./.P.J.H.H.H.H.^.^.^.).H.h.G.+X&X@X@X*X&X&X*X*X*XOXOX&XdXdXdXhXhXaX+X).R.^ C f O X v 9XzXuXyXM.4.B.V.V.g.5.f.Z.Z.Z.Z.Z.Z.H.H.H.Z.Z.F.F.F.F.f./ ` F.Z.Z.Z.Z.B.f.f.V.5.y.4.y.>.' >.V.B.B.y.5.4.>.4.<.4.a N B 3 O o 4 wXLXBXdX#XE.O./ 4.f.f.p.C.).XX).XXXX).).).).].OXOX).).P.G.J.XX).OXXXXXOXOX).J.G.h.J.OX@X&X@X@X@X&X&X#XrX&X&XrXI.{ ! ! < 1 . ! 0XlXtX3X4.4.1.2.) J K Y ) | X.1.2.X.-.1.2.2.2.2.2.:.>.4.y.r.2.1.1.-...-.y.B.4.4.5.f.4.4.y.y.y.r.2.>.>.>.>.r.q.{ w k l $ $ , ;XcX8XyX3XT.D.D.B.a.D.:.*.a.^.H.Z.H.H./.oXOXoXXX).).P.p.h.G._._.G.p.h.G.G.)._._.+X_.G.p.s.j.h.z.G.H.H.g.$.s 4.{.@.t { q ",
"gXZXVXNXE.].].+X=X=X=X=X=X+X`.Z.H.Z.^.[.+X[.[.[.[.=X=X+X`.Z.Z.`.^.).[.=X+X[.[.[.)._.[.].).).`.`.(.^.^.`.^.^.(.'.Y.E V j # O b qX<X>X4X1.-.| ;.r.2.4.4.3.4.a.f.a.,.C.L.P.P.).OXXXOX).L.,.Z.C.F.Z.C.h.G.G.z.P.@XOXOXOX@XP.P.@XXXXX XOXXX+X`.Z.F.e.= -   &   A FXcXiX{.M.a.B.4.B.4.5.5.4.4.2.1.1.X.| Y J J K ) ) ) | _ _ | X.X.X.` _ ` ....` ` ` ..-.:.-._ ) _ :.4.<.,.4.2.2.r.X.c 9 O $   n.PXPXLXZXdXrXfXdXfXfXrXpXrXdXrX%X#X#XrXjX&X%X%X%XOXP.P. X*XOX X*XOXJ.I.P.P.).XXXXXXXXXX].].OX).C.p.p.G.OXXX).OX#X .N h $ O & v.GXxXNX{.B.6.>.6.V.B.5.<.5.y.:.` Y _ y.2.y.g.g.B.g.B.B.B.V.V.V.V.g.5.<.>.4...) ) _ ..1.4.4.4.4.B.B.B.B.B.B.5.S.w.L w g # $ , 0XJXnXNXN.t a a.].).J.XXJ.XXP.G.L.C.f.h.j._.P.J.H.H.H.J.^.^.^.).H.h.G.+X-X@X@X*X&X%X*X*X*XOXOX&XdXdXdXhXhXaX+X).R.^ C < O X 4 qXlXtXyXM.4.5.V.V.g.5.f.V.Z.Z.Z.Z.Z.H.H.H.Z.Z.^.F.F.F.5./ _ F.S.Z.S.Z.B.4.f.Z.5.B.4.B.>.' >.B.B.B.B.5.4.4.>.<.3.p N B 3 O o 4 wXLXBXkX#XK.' ) B.5.4.g.^.+XOX).XXXXXXXXOXOXOX].OX).).).H.J.XX).OXOXOXOXOX).J.G.I.).@X@X&X&X&X&X&X&XOXrX&X&XrXK.{ ! ! , + . ! 0XlXtX3X4.4.1.2.) a K Y ) | -.1.2.-.1.2.2.1.1.1.2.2.>.2.y.u.r.1.-.;.;.1.r.y.4.4.5.f.4.5.y.y.y.y.2.>.>.>.:.2.q.W w k l $ $ , v.cX8XtX>XA.r.B.4.<.D.:.*.f.^.H.Z.H.H.J.XXOXoX).XX].).h.G.)._._.h.p.h.Z.Z.).XX_.+X_.Z.p.s.h.h.z.H.H.j.Z.&.s 4.{. .q { j ",
"nXZXVXNXE.].].[.=X=X+X+X=X=X).h.Z.Z.^.[.+X+X+X=X[.+X=X+X`.Z.Z.`.^.`.[.+X+X[.[.[.)._.[.[._.).`.`.].^.^.^.^.^.(.'.Y.E V j = X v 1X<X<XW.| | %.%.2.r.r.4.3.3.a.B.B.a.C.K.L.L.P.OXOXOXOXL.,.Z.C.F.Z.C.h.G.G.G.).@XOXOXOX@XP.I.@XXXXXP.OXXX+X).Z.F.e.9 = X , X A FXvXiX{.M.a.B.4.B.4.5.5.4.4.4.4.2.1.) Y J p K Y ) _ | ` ` ..:.:.-..._ ` ` ` ` _ _ ` -.1.-.) / | 1.4.4.<.2.2.2.r.o.z 9 O $   m.PXPXLXZXfXdXfXfXfXfXpX%XrXdXrXpX#XrXrXhX&X%X%XOXOXP.P. X@X*XXX*XOXJ.I.P.P.).XXXXXXOXXX].].OX].G.p.h.L.OXXX).OX$X .N j $ O , v.GXxXbX}.Z.6.>.<.B.V.B.f.4.y.:._ K ) y.2.y.f.g.B.B.B.B.B.V.V.V.V.B.5.4.>.r.1.) ) ) ` 1.y.4.4.4.y.B.B.B.B.B.5.S.w.H w g # $ $ 0XJXmXnXN.a ( D.OX).J.l.J.XXJ.G.L.h.f.Z.H.oXJ.J.H.H.H.J.^.^.^.).G.h.G.$XaX@X@X*X&X&X%X*X*XOXOX&XdXdXdXhXhXaX$X^.D.^ C < O X 4 qXzXuXiXD.B.B.B.V.f.5.5.V.Z.Z.Z.Z.Z.H.H.H.H.Z.(.F.F.F.f.' _ Z.S.S.F.S.B.4.f.V.B.B.4.B.4.` 4.B.y.B.B.5.4.4.>.<.,.p N B 3 O o 4 MXLXgXZX#Xa.a O.Z.f.f.Z.].@XOX).XXXXOXOXOXOXOX].].P.).).H.H.OX).OXOXOXOXXX).P.J.XX@X@X@X@X@X&X-X&X&XOX&X&X%XrXQ.~ ~ ! < + . ! 0X6XtX3X4.<.:.2._ K K K ) | X.1.1.1.2.r.2.1.1.1.2.2.:.:.r.y.r.1.;...;.-.2.y.r.4.5.4.4.5.5.y.y.y.4.4.<.>.>.2.2.W 0 k l $ $ , v.0X6XtXW.2.| :.:.>.C.*.*.C.^.H.H.H.H.H.).+XXX).OXOXOXh.H.)._./.h.<.h.Z.Z.)._._.+X_.h.p.s.h.l.G.H.j.f.!.5.' <.R.@.t ~ n ",
"nXZXVXNXE.].].[.[.=X=X[.=X=X).h.f.j.^.[.=X=X=X=X[.[.+X[.^.Z.Z.^.^.`._.[.[.[.[.[.).)._.[._._.).).].^.^.^.^.^.(.'.Y.E V j = X v 1X,X>XW.} ;.;.-.2.r.r.4.3.,.a.B.B.M.D.K.G.G.P.OXOX].OX).p.Z.C.F.Z.h.h.z.G.G.).@X@XOXOX@XP.I.@XXXOXP.XX).+X_.Z.S.o.q < $ ,   A FXlXiX{.a.a.f.4.B.4.5.5.y.y.y.r.r.r.1...) K K K ) ) ` ` ..:.1.1.:.=.............` ` ..1.-.) ) ..2.4.4.<.2.2.2.r. .0 9 O &   m.PXPXLXZXfXdXfXfXfXfXpX#XrXrXrX%X#XrXhXhXrX@X%XOXOX XP. X*XOX X*XOXJ.J.P.P.XXXXXXXX).XXOXOXOX].C.p.p.J.OXXX).OX$X .Z j $ $ , v.GXxXbX}.Z.f.<.<.g.V.V.V.4.4.=._ K ) y.4.y.f.g.B.B.B.B.B.B.B.B.B.B.B.5.4.r.r.| Y ) ) ` r.y.y.y.y.y.y.y.5.y.5.S.w.H w g # $ , 0XHXzXuXM.d ] G.].J.l.l.l.J.J.G.K.a.f.^.^._.J.J.H.H.H.H.^.^.^.).G.s.G.$XaX@X@X*X&X&X*X*X*X*XOX&XdXdXdXhXhXhX=X^.N.U C f O O 4 1XzXuXiXD.B.V.B.g.5.4.5.g.Z.Z.Z.Z.Z.H.H.H.Z.Z.(.F.F.~.B._ ` Z.S.S.F.F.V.f.5.B.5.B.4.V.4.` 4.V.5.B.B.5.4.4.>.<.,.t N B 3 O o 4 HXZXgXZX#X] p 4.F.f.4.Z.[.+X].).XXXXXXOXOXOXOX].).J.P.P.H.P.OX).).OXOXXXXXXX).J.).OX@X@X@X@X@X&X@X&X%XrX%X#X&XQ.~ C ! < + . A 0X6XtX3X4.<.>.4.` ) Y K ) ..-.-.| 2.2.1.1.-.-.1.1.2.:.=.2.w.2.-.;.;.....1.r.y.y.5.4.4.5.y.y.y.y.5.5.5.4.<.r.q.I 0 c f # $ , v.qX,XlXW.X.Y ` O.3.C.:.,.C.^.G.H./.H.H.).XX_.XXOXOX].h.G.G.).).h.p.Z.j.G.).+X_.+X/.h.k.h.l.G.H.H.j.f.Z.6./ :.Y.@.N ~ m ",
"gXZXVXNXE.].].[.[.=X[.[.=X=X).f.p.h.^.[.=X=X=X+X[.[.+X[.^.Z.Z.^.^.^.).[.[.[.[.[.).)._.[.[.[.[.).[.).^.`.`.^.`.}.Y.E C j = X h 1XlX>X>X} ..-.2.y.r.4.4.3.4.a.a.4.M.D.L.K.J.P.OXOX].OX).p.Z.C.F.D.h.h.G.G.z.).@XOXOXOX@XP.J.@XOXOX XXXP.OX[.Z.M.I q 9 & ,   S FXvXiX{.a.a.f.4.g.<.5.f.B.B.y.y.t.t.t.2.X.) K K / _ ) ` :.>.>.>.:.:.=.........-...` ` :.-.) / ..2.4.<.<.4.4.r.t.o.0 f O & @ m.PXPXLXZXfXdXjXfXfXdXpX#X%XrXpX#X#XrXjXdXdX&X%XOXOXOX XOX*XXXJ.XXXX X X).XXXXXXXXXXXX).OXOX@XOXG.p.h.L.OXXX).OX#X .N j $ $ , n.GXxXsX].Z.f.6.p.g.g.B.B.B.4.` _ K Y r.4.y.f.f.B.B.B.B.B.B.B.B.B.V.B.f.4.r.y.-.) ) K a ` 1.2.4.r.4.4.4.4.B.5.A.w.H w g # $ , 0XHX7X7Xa./ [ C.P.J.J.l.l.J.J.G.L.a.f.).^./.).J.H.H.H.H.H.H.^.L.C.p.G.$X-X@X@X&X&X&X*X*X*X*XOX&XdXdXdXhXhXhX-XH.a.M C h O O 4 1X8XtXiXN.M.B.g.g.5.<.5.V.Z.Z.Z.Z.Z.Z.Z.Z.Z.Z.F.F.F.(.B.` ` V.F.S.F.F.F.B.f.B.5.B.4.V.4.` 4.V.5.y.B.5.5.4.>.<.:.t N B 3 O o < MXLXfXBXK.' K Y.(.B.f.L.[.].).).XXXXXXXX].].].OXP.H.J.P.G.P.OXXX).OXOX).).OX).P.J.XX@X@X@X@X$X@X%X&X%X-XOX X%XK.N C ! , + . A 0X6XtX3X4.<.>.r.....) Y ) X.1...) 2.1...` ..-.1.1.2.:.=.1.1.-.-.1.-.| _ ..2.y.y.4.4.4.5.y.y.y.y.y.5.f.5.4.t.r.W 0 D l $ & , v.qX6XlXT...K | 1.4.C.:.<.C.H.Z.H.)./././._._.OXOXOXP.h.h.h.H./.h.p.h.G.G./.+X_._.).h.k.h.l.l.H.H.H.Z.Z.<.d ` R.M.N { m ",
"nXZXVXNX].].'.[.[.[.[._.+X=X`.f.p.h.^.[.=X=X=X[.[.+X=X+X^.Z.Z.^.^.^.`._.[.[.[.[._.)._.[.[.[.[.[.[.].`./.`.^.`.}.Y.E V j = X l 1X,X>XW.I ) | 2.y.4.4.4.3.a.a.4.:.a.D.L.L.L.P.).).).OX).p.Z.C.F.D.f.h.Z.G.h.J.OXOXOXOX@XJ.J.@XOXOXOXXXP.oX).C.3.t q 9 = & > S FXvXiX}.M.a.B.4.B.4.4.5.5.5.y.y.r.t.B.r.1.) K K ) ` ) ` :.1.>.:.:.:.:...` ..-.:..._ _ -.-.) ) ..r.4.1.>.<.5.B.S.i.z f # & @ m.PXPXLXZXfXdXfXfXfXdX%X#X#X#X#X#X#XrXjX&XdXdX@XOX XOXOX*X*X XI.P. X XOXXXXXXXXXXXXX).).].OX+XOXL.h.C.].XX).P.{.#X .Z j $ $ , n.GXxXsX].Z.g.f.g.g.f.5.5.F.y.$._ Y K 1.1.y.f.g.B.B.B.B.B.B.g.g.B.V.V.g.5.r.B.1._ ) a e K ) ` :.4.r.r.r.4.5.5.A.w.H z g # o , 0XHX7X7XN.[ ( s.P.J.XXXXJ.XXI.L.L.p.p.[.).H.).J.H.G.H.H.H.H.H.H.h.p.G.$X&XOX@X&X&X&X*X*X*X*XOX&XdXdXdXhXhXhXaXG.3.t C h $ O v 9XvXuXiXD.B.V.g.g.5.<.5.V.Z.Z.Z.Z.Z.Z.Z.Z.Z.Z.Z.S.S.(.Z.` _ B.F.S.F.~.F.Z.g.f.5.5.<.B.4.( 4.V.5.B.B.5.5.4.>.,.:.t N B 3 O o 4 cXLXBXfXN.[ ' '.'.B.f.(.+X].).OXXXXXXX).).].].].J.G.J.P.H.P.OXXX).XXXX).).OXOXP.G.P.@X-X-X@X@X#XOX&X@X&XOXI.OXK.N C ! , + . S 0X6XyXeXr.4.>.r.-.1.| Y ) -.1.| Y 1...) ) _ -.1.2.2.2.1.1.1.-.-.w.-.| ) | 2.A.B.4.4.4.5.5.y.y.y.y.5.5.5.5.A.t.} w B h $ , , v.qX6XtXT.../ :.4.4.B.:.<.Z.H.j.G.).J./.XX_._.OXOX).H.h.h.h.H._.Z.p.k.G.G./.+X_._.).p.p.h.l.l.G.H.^.^.Z.&.s O.}.e.N ~ n ",
"nXZXVXNX].}.'.[.=X=X+X[.+X=X_.f.<.h.).+X=X=X=X[.[.[.=X[.^.h.Z.^.H.H.^.`.[.[.[.[.)._.[.[.[.[.[.[.].].).`.^.^._.}.Y.I V g # O l :X,X>XW.I ) :.4.5.5.4.>.<.B.L.a.( ,.G.P.J.P.).).OXH.+X).f.f.F.L.F.f.h.Z.C.G.).OXOX).@XXXH.).OXXX).P.@XoX_.H.Z.S...w < = 3 > S GXvXyX{.M.M.B.4.B.5.5.5.5.5.5.r.4.4.B.B.r...) ) ) Y Y ) X.1.1.1.1.1.:.1.-...| ....-.:.2.1.) ) X.w.r.3.3.>.<.B.S...z 6 # : @ m.PXPXLXVXfXfXjXrXrXhXrX#X&X&XE.I.&XhXhXhXhXhX@XP.XXOXOX).OXP.J.).XXP.XXOXOXXXXXXXXXXXXXOXOXOX).).p.).).).XX+XOX#X^ Z n X O & v.GXxXNX{.S.V.B.g.f.f.f.B.B.B.1.) a K X.r.5.5.B.B.B.y.B.B.V.5.5.V.V.B.5.5.:.4.4.=._ ) J e p 1.Y y.y.w.1.y.5.5.u.u.x z f * O o qXcXmXxXN./ ' a.H.J.J.J.XX/.J.G.h.h.C.H.H.G.H.H.G.Z.h.j.Z.Z.H.H.h.p.G.+XrX$X@X%X%X@X@X&X%X#X#X&XdXdXdXdXdXhXkXG.3.M C h O & b 9XvXyXpXB.B.F.~.B.$.' <.Z.j.Z.j.Z.Z.H.^.^.Z.Z.Z.Z.F.Z.F.4._ V.F.F.F.F.Z.Z.j.j.Z.g.5.g.5.&.>.B.f.g.B.g.5.4.4.1.3.N Z B 3 O X 4 HXmXnXNX3.d ' K.C.f.h.).+X).).XXOXXXXX).)._.[.+X_.J.G.G.H.)._._.).XXoX_._.XX_.P.P.OX@X@X@X&X@XOX@XdX#XhXL.s.-XC.N C ! , , @ ! 0X8XtXpXr.4.>.4.1.r.....) ..1.) _ ..` _ _ ..:.2.4.:.=...:.2.2.1.-.-.) Y 1.B.r.4.B.5.5.5.5.y.y.y.5.5.4.B.4.t.t.I w j h & o , m.cX,XtXD.( ' ' :.Z.f.] g.H.Z.H.G.L.@X).).XXXX)._.+X^.h.h.Z.).).h.h.h.h.G./.).)._._.h.s.h.z.H.H.H.Z.g.*.d s :.R.e.m { n ",
"gXZXVXNX].}.'.[.+X=X+X[.+X=X_.g.<.h.^.[.+X+X+X[.[.[.=X[.^.j.Z.^.H.^.^.`.[.[.[.[.)._.[.[.[.[.[.[.].}._.`.^.^.).}.Y.I V g # O l :X<XW.T.U ) ..>.<.5.<.<.<.B.Z.,.d d.G.P.G.)._.).XXH.+X^.f.g.L.F.D.Z.Z.Z.C.Z.P.OXOX).@X).G.P.OXXX).).@XoX_.`.^.'.q.q < = 3   S FXlXyX{.r.r.y.4.B.5.5.5.5.5.5.5.4.4.y.B.r.-.) ) _ | ) | X.1.1.1.:.:.:.1.-.-.X.-.:.1._ :.X.) Y | 1.2.1.3.>.<.V.S.X.x 6 % : @ n.PXPXLXZXdXdXfXdXdXhXrXOX&X&X#XOX&XhXdXhXhXhX@XP.XXOXOXOXOX).I.OXOXOXOXOXOXXXXXXXXXXXXXOXOXOXP.).p.).].).XX].].{. .C n X O , v.GXxXNX{.S.V.B.B.f.f.f.g.4.4.1.) K Y -.y.5.5.B.B.B.B.B.B.B.5.5.B.V.B.5.g.<.f.f.>.` ) K r u X...w.r.w.1.y.5.5.y.u.x z 9 & $ , 0XHXmXNXD.( ' p.P./.l.l././.z.h.p.h.G.).).J.H.J.G.G.Z.j.Z.Z.^.H.h.p.G.#XrX&X&X@X%X@X@X&X%X#X#X&XdXdXdXdXdXhXhXK.3.N C f O & v 9XvXyXpXa.4.g.V.f.&.` f.Z.j.j.j.j.Z.H.!.!.Z.Z.Z.Z.F.Z.F.4.' B.F.F.F.Z.Z.Z.j.j.g.5.5.g.<.&.>.V.g.B.B.B.B.5.4.<.1.M Z B 3 + o 4 GXGXCXsX] d [ P.f.f.h.H.).XXXXXXOXXXP.P.)._._._./.H.H.H./._.XX_./.XXXX).).XXoXXXOX$X@X@X%X@X@X%X@X&X$XhXJ.h.=XC.U C ! , $   ! 0XcXxXsXB.5.:.4.:.2._ _ ) ` -./ / -.........:.1.2.>.:.:.1.1.1.1.X.X.) ) -.r.r.4.4.5.5.5.5.y.y.y.y.5.5.B.4.y.t.I w j h $ o , m.FX6XtXD.` ` &.<.Z.4.&.g.H.G.H.G.H.OXOX).XXXX)._._.H.h.h.h.).).j.h.h.l.G.)._.)._._.h.k.s.h.G.^.F.V.f.<.d / ,.W.N.M { n ",
"gXZXVXNX].}.'.[.+X=X+X+X+X=X_.j.p.h.H.).[.[.[.[.[.[.=X[.^.Z.Z.^.^.^.^.`.[.[.[.[.)._.[.[.[.[.[.[.].[.)./.^.^._.}.Y.I V g # O l :X<XT.T.U ) ..:.>.4.<.<.4.B.C.,.d ,.G.P.G.).).)._.).+X^.a.C.L.F.f.Z.H.L.C.C.J.].OXXXOXJ.z.J.XX/.).).OX)./.^.^.Y.+.q 9 = &   S FXlXbX{.4.4.r.4.B.5.5.5.5.5.5.5.4.4.4.B.r.1._ ) ..-.-.-.-.-.:.1.:.:.:.1.-.X.X.X.-.1.Y ..X.) Y | 1.r.1.4.,.<.B.V.X.x 8 % : @ n.PXPXLXZXdXrXfXfXjXhX&X#X&X$XOXOX&XdX&XhXhXhX&X).XXOXOXOX@XOXI.OXOXOXOXOXOXXXXXXXXXXXXXOXOXOX).).,.L.).OXXX).].#X .C j X o & v.mXxXNX{.S.V.B.B.f.f.f.g.<.<.1.` K Y -.A.5.5.B.B.B.y.B.B.B.5.5.B.V.B.B.B.f.B.B.4.:...K u u Y 1.| 1.1.-.2.5.6.w.r.x z f = $ , 0XHXmXiXM.( [ s.).).l.l././.H.h.s.h.H.).)./.J.G.G.G.H.Z.Z.Z.(.^.C.p.D.#XaX&X&X@X@X@X@X@X%X#X#X&XdXdXdXdXdXhXaXL.M.N C 3 O & v 9XvXiXyXM.4.5.B.4.&.&.B.Z.g.j.j.j.Z.Z.Z.Z.F.Z.F.Z.^.Z.F.<./ B.F.F.F.Z.Z.Z.j.j.g.5.f.g.<.$.>.Z.B.B.B.B.B.5.4.<.1.t m b 3 + o 4 GXGXCXiX^ d a.).p.h.h.G.P.OXOXXXOXP.J.J.)._./.H.H.H.H.J./.oXoX_._.oX_.).)._.oXXX$X@X&X@X#X@X@X%X@X&X$X-XG.C.=Xs.U C ! $ o   ! cXcXxXsXB.4.:.4.:.1.) _ / _ :.) / :.:.-.....-.1.1.:.:.1.1.1.-.......) ) | 2.r.r.4.5.5.5.5.y.y.y.y.5.4.B.4.y.t.I z j h & o , m.FX6XtXD.] *.<.g.F.4.&.g.H.G.H.G.G.).OX).OXXX)././.l.k.s.h.).).Z.h.G.G.H._._.)._.).h.k.p.f.Z.H.Z.g.6.<.' ( a.W.N.m ~ n ",
"gXZXVXNX].}.'.[.+X+X+X+X=X=X_.Z.h.h.Z.`.[.[.[.=X[.[.=X[.`.Z.Z.^.^.^.^.`._.[.[.[.)._.[.[.[.[.[.[.].[._.`.^.^.`.}.Y.I V g # O l :X2XT.T.^  ...:.>.<.<.<.4.B.D.<.( ,.G.L.G.P.).)._._.+XH.p.C.(.F.4.g.Z.^.G.C.J.).OXOXOXH.h.J.XX/.XX).OXH.^.Z.Z.A.) 0 9 = & X S FXlXyX{.4.4.y.4.y.4.5.5.5.5.5.5.4.4.4.B.y.1.| ) | -.2.1.1.1.1.1.>.:.2.1..._ ) _ | | Y | -.| ) | 1.r.e.4.<.<.5.y.| 0 8 % : @ n.PXPXLXZXdXrXdXfXjXhX$X$X#X#X#XOX&XdX&XhX-XhX&XOXOXOXOXOX@XOXI.OXOXOXOXOXOXXXXXXXXXXXXXOX].OX).).*.C.G.XXXXOXOX#X .C j $ $ & v.mXxXNX{.S.V.B.B.f.f.f.f.>.<.2...Y K ..t.4.5.B.B.B.y.B.B.5.5.B.B.V.V.B.B.f.B.B.4.2.1.| Y K K 1.H | 1.1.1.5.2.2.r.x z f = o , 0XHXzX>X3.' ( a._./.l.l././.).H.h.G.).).)./.G.G.H.H.H.H.Z.Z.^.L.C.h.K.$XaX&X&X@X@X@X@X@X%X#X#X&XdXdXdXdXdXhX&X).D.^ C 3 O O l 9XvXyXiXC.f.g.f.<.$.:.Z.Z.g.Z.Z.Z.Z.Z.Z.Z.F.F.F.Z.^.F.F.<./ f.F.F.F.Z.Z.Z.j.j.f.5.g.g.<.( :.V.g.g.B.B.B.5.5.4.O.t m b 3 + o 4 HXmXNXeXa ( K.).p.h.G.G.P.OX@X).OXP.J.J.)._.^.H.H.l.G.H.)._._.)./.XX_.).)././.P.OX@X&X@X%X@X@X%X@X@X@X@XG.G.=Xa.^ C ! $ o   ! FXvXyXyXM.4.:.4.>.4...../ ` 1.` ` :.:.-.-...-.1.1.:.:.1.1...| ) ) | | ) ) -.r.B.<.5.5.5.y.y.y.y.y.5.4.B.4.y.u.I w k h & o , m.FX6XyXD.] *.p.Z.(.<.*.j.^.H.H.Z.C.L.OX).OXOX).XX_.l.p.h.G.).^.Z.h.G.H.^._._.)._.).h.k.p.k.h.Z.Z.g.<.<.' [ a.W.N.m ~ n ",
"gXZXVXNX].}.'.[.+X+X+X+X=X=X[.^.Z.Z.Z.`.[.[.+X=X[.[.=X+X).H.Z.`.^.^.^.`.).[.[.[.)._._.[.[.[.[.[.].}._./.^.^._.}.Y.I V j # O l :X<XW.T.^ ..:.>.4.5.<.<.<.g.C.a.] ,.G.L.G.P.).)._._.+XZ.<.C.(.Z.<.<.g.H.L.H.P.].OXOXOXG.z.J.XX_.XX).OX)./.^.F.S. .0 9 = & X S 9XlXyX{.r.r.y.4.y.2.5.5.5.5.5.5.5.5.4.B.y.1.| ) _ -.2.1.1.1.1.1.>.1.4.:.| ) ) _ | ..) ..-...) | X.2.2.4.<.>.5.4.T 0 8 % : @ n.PXPXLXZXdXrXfXfXjXaX$X$XE.I.P.OX&XdXdXhX&XhXhXOXOX$XOXOX@XOXI.OXOXOXOXOXOXXXXXXXXXXXXX].].OXOX].] p.p.z.P.OX+X#X^ C n $ & & v.cXzXNX{.S.V.B.B.f.f.f.g.<.4.4.:.) K ) 1.4.5.B.B.B.y.B.B.5.B.B.B.B.V.B.B.B.B.B.y.4.2.:...-.K X.e Y 1.w.2.5.2.2.r.G z f = O , DXHXzXeXN.,.' a.).XX/././.l.).G.h.G.).)././.G.G.G.G.H.H.Z.Z.H.H.C.C.(.$XrX$X&X@X@X@X@X@X%X#X#X&XdXdXdXdXdXhX@X].R.^ B 3 O O h 8XlXeXpXD.B.V.f.<.` *.Z.Z.j.Z.H.H.Z.Z.Z.^.^.^.F.Z.^.F.F.>./ 4.F.F.F.Z.Z.Z.j.j.g.f.g.g.<.( &.g.5.g.B.B.B.5.4.<.O.t m b 3 + o 4 HXzXtXE.d ,.P.L.f.G.H.H.P.OXOX).OX).J.J.)._.`.H.H.H.l.H./.).).).).XXXX/.).).H.G.).OX@X@X@X&X@X*X@XOX@XOXC.L.$Xa.^ C ! $ o   ! FXlXyXyXM.4.:.4.>.B.:.../ _ 2.-.-.....-.......:.1.:.1.1.1...| ) ) | | ) ) ..r.B.4.5.5.5.y.y.y.y.5.5.<.B.4.y.A.W w k h & o , m.FX6XiXD.] *.p.Z.(.<.<.Z.^.H.H.G.C.L.OX).XXOX_.+XoXG.p.h.H.).H.h.h.h.H.H._._.)._.).s.s.p.k.h.Z.Z.g.6.*.' [ M.W.e.m { n ",
"gXZXVXNX].}.'.[.+X+X+X+X=X+X[.`.`.Z.Z.`.[.+X[.=X[.[.+X+X_.^.^.`.`.^.^.^.).[.[.[.)._._.[.[.[.[.[.].}._./.^.^.).}.Y.I V j # O l :X<XW.T.^ O.:.>.5.5.<.<.<.f.a.4.*.,.G.L.G.J.).)._.[.+XZ.<.h.(.Z.<.&.p.Z.H.L.).].OXOXOXG.z.).XX_.OXP.OX)./.^.^.Y.X.q j = $ X A 9XlXyX}.4.r.y.2.y.2.5.5.5.5.5.5.5.5.5.B.r.4...) _ X.-.1.1.1.:.:.>.>.<.:..._ ..-.1.1.| ....| ) Y ) | X.1.>.:.4.4.} w 8 % : @ n.PXPXLXZXdXrXfXrXrXrX#X#XG.s.G.OX&XdXdXhX&XhXhXOXOX$XOXOX@XOXI.OXOXOXOXOXOXXXXXXXXXXXXX].).OX+X].[ ,.x.x.z.).OX{.^ N n $ $ + 0.cXzXsX{.S.V.B.B.f.f.f.g.f.4.4.1.) K I | 4.5.B.B.B.y.B.B.5.V.V.V.B.V.B.B.B.B.B.B.4.2.:.-.2.Y Y e p | 2.1.4.2.2.r.x g 8 % X o 0XJXmXiXD.B.( p.).XX/././.l.H.h.p.C.).).J./.H.G.G.h.j.j.Z.Z.C.Z.C.C.).&XrX$X&X@X@X@X@X@X%X*X#X&XdXdXdXdXdXhX&X+XW.^ B 3 O X 4 qX6XW.3XD.B.V.B.<.` *.Z.Z.j.H.^.^.Z.Z.Z.Z.^.^.F.Z.^.F.F.>.s <.F.F.F.Z.Z.Z.j.j.j.g.g.Z.4.$.&.5.5.5.B.B.B.5.4.4.O.t m b 3 + o 4 9X1XW.W.] C.P.C.h.G./.).).XXXX).OX).J.J.)._./.H.H.H.G.H./.).)./.)._.oX_.).).H.z.P.OX@X@X@X&X@XOX&XOX@XOXh.).+Xd.U C ! , o   ! cXcXxXyXM.4.:.4.>.y.:...K ) 2.=...` ..........:.1.1.1.2.1.-.X.| } | | ) Y | 2.y.r.5.5.5.y.y.y.y.5.5.<.B.4.y.A.I z B h & o , m.FX6XiXD.] :.f.Z.^.<.<.Z.^.Z.H.G.G.L.OX).XXOXXX+XoXl.p.h.H.).H.h.h.h.H.H._._.)._.).s.s.s.f.f.B.V.V.g.&.' *.C.W.N.t ~ n ",
"gXZXVXNX].}.'.[.+X[.+X+X=X+X[.).`.j.j.`.+X[.[.+X[.[.+X=X[.^.^.`.`.^.^.^.).[.[.[.)._._.[.[.[.[.[.].}._./.^.^._.}.Y.I V j # O l :X<XT.T.^ O.:.>.f.4.<.<.4.f.f.a.,.,.G.J.G.J.).)._._.+XZ.*.f.(.F.a.] <.f.Z.H.).OXOXOXXXz.z.).XX_.OXP.XX/.^.Z.Z.'.1.q B = o O A 1XlXyX}.3.1.2.1.5.4.5.5.5.5.5.5.5.4.4.4.4.4.1...| X.-.1.r.r.1.:.:.>.2.:.:.:.2.4.2.1.1.-...| T I I I X.1.>.>.4.4.} w 8 % : @ n.PXPXLXAXfXdXfXrXrXrX$X].C.d.G.%XrXdXhXhX&XhXhX$XOX$X$XOX@XOXP.OX@XOXOXOXOXXXXXXXXXXXXXOX).OXOX].[ ,.p.x.z.P.].{.^ N n $ & + 0.cXzXjX{.S.Z.B.B.f.f.f.g.B.4.4.1.| K J ) y.5.B.B.B.y.B.B.5.V.F.V.B.B.B.5.4.B.B.B.B.4.1.-.2.| p a r J 1.1.2.2.w.w.x 6 * # X o qXJXmXiXK.C.,.C.)././././.l.H.h.p.G.).).J./.H.G.G.h.h.h.Z.Z.h.C.h.h.(.&XaX@X&X@X@X@X@X@X%XOX#X&XdXdXdXdXdXhX-X$XE.U B f O X h qX6XW.3XC.B.g.B.<.` :.Z.Z.g.Z.^.^.Z.Z.Z.Z.^.^.~.Z.(.F.F.:.s <.F.F.F.Z.Z.Z.j.j.j.g.V.Z.B.>.>.5.5.g.B.B.B.y.5.4.+.t m b 3 + o 4 1X<XT.W.a.L.I.C.f.h.H.XXOX).P.XX).P.P.J.).)./.).H.H.H./._.XX/./.)._.oX_././.).H.].@X@X@X@X&X@X%X@X X@X).h.].+X,.U C ! , $   ! 0XvXxXyX4.<.:.4.>.4.-...K ) 1.` ) ` ..=.....` -.1.1.1.1.1.1.1...} | ) I K ) 1.4.r.5.5.5.y.y.y.y.5.5.<.g.4.B.A.W z B k & o , m.FX8XyXL.:.<.g.Z.F.:.5.Z.^.Z.Z.G.G.P.OXP.).XX_.oX/.h.p.h.H.^.H.G.h.Z.G.H._._.^._.).s.s.h.h.f.g.B.Z.!.*.( ,.F.{.N.t { n ",
"gXZXVXNX].}.'.[.+X[.+X+X=X+X[._.`.j.g.^.[.[.[.[.+X[.+X=X[.`.^.^.`.^.^.^.).[.[.[.)._._.[.[.[.[.[.].}._./.^.^._.}.Y.I V j # O l :X<XT.T.^ ....>.f.>.>.<.f.Z.C.B.a.,.G.J.G.J.).)._._.+Xh.*.f.L.F.a.&.<.f.h.H.).OXOXOX).z.z.).XX/.XX).@X).^.j.Z.'.e.w B * O O A 1XlXyX}.:.O.:.:.5.4.5.5.5.5.5.5.4.4.4.4.4.r.4.-.X.-.:.r.A.A.4.:.:.>.>.1.1.4.r.r.1...r.1...| T I J J 1.2.<.>.4.2.} w 8 % : @ n.PXPXLXVXfXfXfXrXrXrX&XP.a.d.L.&XhXdXhXhX&XhXhX@XOX$X@XOX@XOXOX@X@XOXOXOXOXXXXXXXXXXXXX@X].].OX).[ p.h.z.H.P.].{.^ Z h $ & + 0.cXzXjX{.S.Z.B.B.f.f.f.g.B.4.2.1...K J Y y.5.B.B.B.B.B.B.B.F.F.V.B.B.B.5.>.<.f.B.B.y.1.:.r.1.J | e H w.r.1.1.w.w.r 6 % X & , 0XJXmXiXK.B.C.L.).J.l./.oXl./.G.h.L.].).J./.J.H.h.h.f.h.j.Z.h.h.h.h.L.&XaX&X&X@X@X@X@X@X%X*X#X&XdXdXdXdXdXhXaX$XE.N B f $ X h 9XlX>XeXD.B.g.B.>.` <.Z.Z.f.Z.^.^.H.Z.Z.Z.^.^.F.Z.^.F.F.:.s >.F.F.F.Z.Z.Z.j.j.Z.g.V.~.Z.<.<.g.g.B.B.V.B.B.5.4.1.t m b 3 + o 4 ;X2XQ.W.D.E.K.C.p.p.G.+X+X).P.OXP.P.P.J.L.)./.).l.H.H./.OXOXoX).).XXXX/./.XXXX).@X@X&X@X#X@X@X%X&XP.@XP.s.].[.,.U C ! , 1   S 0XlXtX3X<.2.:.4.>.1.=.=./ ) 1._ Y ` ..-.-.` ` =.:.1.:.-.1.q.1...} } I J K ) ..2.r.5.5.5.y.y.y.y.5.5.<.g.4.B.A.) z B k & o , m.HX8XtXR.4.f.Z.Z.Z.&.f.Z.H.Z.H.G.J.).OXP.).XX)./.H.p.*.h.H.^.H.G.G.G.G.H.)._.H._.).h.s.h.h.g.B.B.F.(.<.&.p.L.#XN.t { n ",
"gXAXZXjX}.'.'._.[.+X+X+X+X=X[.^.^.H.h.).[.^.[.+X+X[.+X+X[.^.^.^.^.^.^.^.^.`.[.[.).)._._.[.[.[.[.].].)./.`.^._.}.R.U V j # O l 1X<X>XN.^  .1.4.<.>.>.<.f.B.C.f.p.,.C.).P.H.)._./.[.).h.h.g.F.].f.*.h.L.C.h.P.+X@XP.XXs.s.P.P.XX).OXXXG.^.^.^.'.e.0 B * $ $ S 1XlXyX}.:.:.4.1.5.:.2.2.5.5.5.5.5.4.4.B.B.B.r..._ r.t.1.:.4.y.4.>.>.<.4.4.<.:.....-.-.1.-.| Y I I H | 2.4.2.2.4.} w 6 % : @ m.PXLXLXZXdXrXfXrXrX&X#XP.C.P.P.E.hXdX-XhX@X@X&X@XOXOX@XOXOXOXOXOXOXOX@XOXOXOXXXXXXXXXOX].).P.+XC.,.G.].P.OX].P.{.^ m j $ , @ n.8X6XNX{.Z.Z.Z.B.f.a.a.a.B.4.2.2.1.) K K :.5.B.B.5.5.B.B.B.5.B.V.V.B.B.V.<.:.<.y.4.4.4.:.2.r.-.J e K X.1.;.r.u.t.x 6 = = o , qXHXVXiXK.C.D.L.)././././.l.).h.C.]._.H.J./._.).G.k.p.k.Z.H.p.H.Z.p.L.rXrXOX&X@X&X@X@X%X%X#XOXOX%XdXfXdXdXhXaX].W.^ n f & O h qXlXeXpXD.B.B.F.:._ <.B.Z.^.Z.Z.Z.Z.Z.Z.Z.F.F.^.Z.(.F.<.d d :.F.F.~.~.Z.Z.j.h.g.g.Z.Z.g.<.<.V.g.g.B.V.F.B.4.<.1.t m b 3 + @ 2 v.,XW.{.D.K.K.a.p.h.)._.).).P.J.P.P.J.J.J.J.H.H.G.h.H.OX+X).H.J.J.XXOX/.)._.).z.].$X&X&X&X&X&X*X%XOXOXG.G.+X^.K.U C ! < ,   S 0XlXvX3X:.4.<.4.:.r.1._ / _ 1.1.............` _ _ 1.1.-.1.1.-.X.} o.Y J K Y ) X.2.4.4.4.4.y.u.u.y.5.<.g.4.y.u.I w B h $ o , n.FX6XxXL.] Z.g.Z.B.<.B.Z.Z.H.Z.G.H.P.P.P.XXXX/.)./.h.*.h.H.).H.h.h.h.G._._.^._.$X).s.p.p.f.C.B.B.V.Z.[ *.h.K.R.@.t { n ",
"gXAXZXjX}.'.'.[.[.+X+X+X+X=X[.^.^.^.h.).[.^.[.[.+X[.+X+X[.^.^.^.^.^.^.^.^.`.[.[.).)._.[.[.[._.[.].]._./.^.^._.}.R.U V j # O l 1X<X>XN. . .<.<.<.>.>.<.5.g.f.a.,.,.C.P.P.H.)._./.+X).f.f.C.L.].a.<.Z.^.Z.h.P.OXOX).XXs.h.P.P.XXP.P.P.h.H.Z.Z.Y.1.w B * # O A 1XlXyX}.3.4.r.2.5.>.2.4.5.5.5.5.4.4.4.B.B.4.2._ ) 2.r.1.2.r.B.4.>.:.:.2.<.<.>.:.:.1...-...) I K J H | 1.4.2.4.r.} w 6 % & @ m.PXLXLXAXdXrXfXrXrX&X#XP.K.E.E.E.dXdX-XhX&X@X&X@XOXOX@X@XOX@XOXOXOXOX@XOXOXOXXXXXXXXXOXOX].).$XG.p.L.OXP.OX].P.{.^ m j $ , @ n.8X6XsX{.S.S.Z.B.f.f.f.f.f.<.2.4.2.X.) K :.5.B.B.5.B.B.B.B.5.B.V.V.B.B.V.<.>.<.4.<.2.1...r.r.2.) p u T 1.1.w.w.w.x z * & @ , 9XHXMXiXK.D.K.L.)././././.l.).h.C.]._.P.)./.).H.G.h.k.p.f.j.p.H.Z.h.L.$X&X&X&X@X&X@X@X%X%X#XOX#X&XdXfXdXdXhXaX+X{.^ n 3 & O v 9XvXtXiXF.V.V.F.:.` 4.Z.Z.Z.Z.Z.Z.Z.Z.Z.Z.F.F.^.Z.^.F.<.d / :.F.F.^.^.Z.Z.j.j.g.g.Z.Z.g.<.<.V.B.B.V.S.F.V.5.<.1.t m b 3 + @ 2 v.,XW.{.D.K.C.d.h.H.).OXOXOX).P.J.J.J.J.H.J.H.G.H.h.z./.OX/.H.H.H.)././././.J.h.].$X&X@X%X@X%XOXOXOX@XI.P.+XG.a.N m C , ,   S cXlXxX3X:.4.<.4.:.4.:.) Y _ :.1...` ` ......` ` _ -.1.1.-.-.X.o.| | T K I K K _ 1.2.5.y.r.r.r.y.5.5.<.g.4.y.A.I w B h $ o , n.FX8XiXK.] Z.g.Z.Z.<.Z.Z.Z.H.Z.G.H.P.).P.).XX/.)./.h.*.h.^.).H.h.h.h.H._._.).).+XL.p.s.s.f.C.B.B.V.Z.&.*.C.G.R.@.t { n ",
"gXVXZXjX}.'.|.[.[.+X+X+X+X=X[.^.).^.h.`.[.`.[.[.+X[.+X+X[.^.^.^.^.^.^.^.^.`.[.[._.[.[.[.[._._.).}.}._./.^.^.`.}.R.U V j # O l 1X<X>XD. ...4.4.<.5.5.5.g.Z.D.a.,.,.C.P.P.H.)._.).+XH.p.a.C.(.].<.,.Z.L.C.h.P.OXOX).XXs.z.).J._.P.J.J.h.H.Z.Z.F.+.w C f $ O A 1XlXyX}.4.4.r.2.5.2.5.5.5.5.5.5.4.4.4.f.4.<.1._ ) 1.1.1.r.A.B.4.>.:.:.>.<.<.2.1.:.-.....| T I J J U } 1.4.1.4.r.} 0 6 % & @ m.PXLXLXAXdXrXfXrXrX&X#XP.K.OX#XE.rXdXdXhX-X&X&X@XOXOX@XOXOXOXOXOXOXOXOX@XOXOXOXXXXXOXOXOX].).$XL.p.).OX).OX).P.{.^ m j $ , o ;X8X>XsX{.F.F.S.V.g.f.f.f.4.<.2.4.r.1.) a =.4.B.B.5.B.B.B.B.5.B.V.V.B.y.B.r.2.4.y.<.2.>.` 4.r.r.1.J r H -.2.2.-.i.x c 6 * X , 0XHXnXpXK.K.L.).)./././././.).h.C.).).)././.).J.Z.j.h.p.p.h.f.Z.C.C.].$X$XaX&X@X&X@X@X%X%X#X#X#X&XdXfXdXdXhX-X+X{.{ j < & O v 9XvXyXsXF.V.Z.S.:.&.f.Z.Z.Z.Z.H.H.Z.Z.Z.Z.F.Z.Z.Z.F.Z.:.d / >.F.F.F.Z.Z.Z.j.h.j.g.Z.Z.g.<.<.V.B.V.V.F.F.V.B.4.+.t m b 3 + @ 2 ;X8X>XpXR.L.C.a.h.G.^.).).OX).J.G.G.J.J.H.H.H.G.H.h.h.J.oX/.H.G.H.H.H.G.H./.H.h.].@X@X$XOX%X%XOXOXOX@XP.P.+XC.d.t m Z $ ,   ! FXlXxX3X>.4.<.r.1.1...) / _ -.:..._ _ ` ` | ` ` ` X.-.1.-.| } | X.} W I I J J ) ..=.4.y.r.2.2.r.y.5.5.g.4.B.A.T w B h $ o , n.FX8XiXD.` Z.Z.Z.V.<.Z.Z.H.H.Z.G.L.P.).P.).)./.)./.h.*.h.)._.H.h.h.h.H._._.).).+XH.p.h.s.f.C.B.B.V.~.&.<.Z.K.L.@.t { n ",
"MXVXZXjX}.'.[.[.[.+X+X+X+X+X_.`.[.`.g.H._.`.+X[.+X[.+X+X[.^.^.^.^.^.^.^.^.`.[.[.[.[.[.[.[._.).`.[.[.[./.^.^.`.|.Y.U V j # O l 1X<X>XU.@.1.4.4.<.5.5.5.B.F.Z.f.,.a.G.P.P.H.)._.)._.H.p.f.C.(.].4.&.f.Z.h.h.P.+XOXXXXXs.z.).J.).P.J.P.l.^.^.Z.F.@.w S f & O A 1XvX4XW.4.4.2.:.4.2.5.5.5.5.5.5.4.4.5.B.5.4.4..._ 1.:.2.y.B.B.4.<.>.<.<.<.<.2.:...) ....| T I J L J I X.1.:.4.r.} 0 6 % &   m.PXLXLXAXrXrXfXrXrX&X#XG.K.#X#XP.&X-XhXhXhX&X@X@XOXOXOXOXOXOXOXOXOXOXOXOXOXOXXXXXXXOXOX].).P.+XG.p.).].).OX).P.{.^ m j X & o ;X8X>XsX{.S.S.Z.B.f.f.4.4.B.4.1.2.r.1.Y p ` >.5.5.5.5.B.B.B.5.5.V.V.B.y.B.B.r.B.B.4.4.4.:.:.2.r.1.K e F } -.1.-.i.x c 6 * X < 0XHXnXpXK.L.L.].).J././././.).h.C.).).)._./.).G.h.Z.h.p.p.j.h.Z.h.C.].$X$XaX&X@X&X@X@X%X%X#X#X%XrXdXdXdXdXhX-X$XpX{ n * $ O v 9XvXyXyXD.B.V.B.&.:.B.Z.Z.Z.Z.H.H.H.H.Z.Z.F.!.Z.Z.F.B.&.d ' <.F.F.F.Z.Z.Z.j.j.Z.g.Z.Z.g.<.<.V.B.V.S.F.F.S.B.4.+.t m b 3 + o 4 ;XlXeXsXE.L.G.s.Z.H.H.P.).XXP.G.z.G.G.G.J.J.H.H.H.l.G.).oX/.H.G.H.G.z.h.H.).H.h.OX@X@XOXOXOX%XOXOXOXOXG.J.OXG.a.t m Z $ ,   ! FXlXxX3X>.4.>.4.<.:.` / / _ ..-...` ` ` ......` ` X.X.X...| } } | | } I J J K ) _ ` :.2.2.2.r.y.y.5.5.g.4.B.A.) w B h $ o , n.FX8XyXD.( Z.Z.Z.B.<.Z.Z.H.H.Z.G.L.).).P.P.).H.)./.s.*.h.)._.H.h.h.h.H._._.).)._.G.p.h.s.f.D.B.B.Z.F.&.<.G.L.L.@.t { h ",
"MXVXZXjX}.'.}.[.+X+X+X+X+X[._.).=X[.g.Z.^.^.=X[.[.[.+X=X[.^.^.^.^.^.^.^.^.`.[.[.[.[.[.[.[.[._.).[.[.[./.`.`.`.'.Y.U V j # O l 1X<X>XT.+.2.r.4.<.<.<.<.g.Z.Z.f.,.p.G.P.P.H.)././._.^.f.f.f.F.].f.*.g.H.C.G.].@XOXXX).s.z.).J.).).P.P.G.^.^.Z.S. .w S f & O A 1XvX4X}.4.3.:.=.5.5.y.y.5.5.5.5.4.4.4.f.f.B.B.:._ :.:.2.r.4.4.<.<.<.<.<.<.>.:...) Y | _ } T I J L L I ..1.:.2.r.} 0 6 % & . m.PXLXLXAXrXrXfXrXpX&X#XC.C.OX#XP.&X&XhXhXhX&X@XOXOXOXOXOXOXOXOXOX@XOXOXXXXXXXOXOXXXOXOX).).P.OXG.p.).].P.OX).P.{.^ m j X & o :X8X>XiX{.S.S.Z.B.f.4.<.4.B.4.1.:.2.1.| K / $.4.4.4.5.5.5.B.5.5.B.V.B.B.B.A.r.B.B.B.B.B.<.` 4.y.-.K H H H _ ;.i.i.x g * = X < 0XMXgXeXK.).).].)./.l././.J.H.h.C.).).)._./.).G.h.h.f.p.f.Z.h.h.a.h.+XrX&X&X&X@X&X@X@X%X%XOX%X&XdXdXfXfXdXhX=X$XpX#.B * $ O h 9XvXyXyXB.f.g.4.` >.Z.F.Z.Z.H.H.H.Z.Z.Z.Z.Z.Z.Z.F.F.B.$.d ` 5.F.F.F.Z.Z.Z.j.j.Z.V.V.Z.g.<.<.B.g.V.F.V.S.S.B.<.+.t m b 3 + o 4 v.6X>XsXE.K.C.s.L.).).).XXOX).J.z.z.z.z.z.H.^./.H.H.).+XoX).H.H.H.l.h.h.H.).H.z.@X@X@X@XOXOX%XOXOX XOXG.G.].h.d.t w Z , ,   ! FXlXyX3X:.4.:.<.<..._ / ) _ ..................` ` -...| ) | | } } o.} I J I ) _ ) $.=.1.2.r.u.u.y.5.5.g.4.B.A.) w B h $ o , n.FX6XiXD.( Z.Z.Z.g.<.Z.Z.H.H.Z.G.L.).).J.J.P.H./.H.p.*.h._._.G.h.h.h.H.).).)./._.H.p.h.a.f.B.B.B.V.Z.( <.H.L.L.@.t { h ",
"MXZXVXjX}.'.}.[.+X+X+X+X+X_._.[.=X[.Z.Z.^.^.=X[.[.[.+X=X[.^.^.^.^.^.^.^.^.`.[.[.[.[.[.[.[.[.[.[.[.[.[./.`.`._.}.Y.U V j # O l 1X<X>XT.3.3.r.<.4.>.<.5.B.Z.Z.C.p.a.G.P.L.H.)././._.H.k.p.a.Z.].B.a.Z.(.H.H.OX@XOXOXP.s.z.XXJ.).P.P.P.l.^.Z.Z.B. .q C 3 $ X b 2X,XyX{.4.1.1.:.y.y.y.y.5.5.5.5.4.4.4.4.4.B.B.:.) ..:.2.4.<.>.<.<.<.>.>.>.>.:._ ) / ) ) T T I J H J I | ....2.r. .0 6 % : @ m.PXLXLXAXrXrXfXrXpX&X#XC.C.OX#XP.@X&XdX&XhX&X$XOXOXOXOX@X@XOXOXOX@X@XOXP.P.XXXXOXOXOXOX].OX).].h.p.].OXP.OX].P.{.^ m j X & o :XlX<XiX{.Z.Z.V.B.5.<.<.<.B.4.2.:.2.r.1.| Y ` >.4.4.4.5.5.B.5.4.B.V.B.B.B.B.r.y.B.B.B.B.4.=.r.B.-.Y I H u J | w.t.x g * = o , 0XmXuXeXK.).).).)././././.l.z.h.G.).H.H.)./.H.G.h.h.p.k.f.j.a.f.a.h.+XaX&X@X@X@X@X@X@X%X%XOX%XrXdXdXdXjXfXrX=X$XpX#.B < $ O v 0XcXxXiXC.B.B.<.$.<.F.Z.j.Z.^.H.H.Z.Z.Z.Z.Z.Z.Z.F.F.f.` / &.B.F.F.F.Z.Z.Z.j.j.Z.V.g.V.g.>.<.g.g.Z.F.V.V.F.B.<.+.t m b 3 + o 4 v.6X>XjX{.L.C.h.G.^.).).).XX).J.z.h.h.s.h.z.H.^.h.H._.oX/./.J./.H.z.h.h.H./.J.H.$X&X&X$XOXOX%XOXP.P.#XI.L.).p.[ t w Z , ,   ! FXlXyX3X3.4.:.<.<..._ ) ) ` ......-.-.-.......` _ -.| ) ) | | } W o.} L J T | | ) =.=.2.2.r.y.y.2.5.5.g.4.B.B.I w B h $ o , n.FX6XiXC.' Z.j.g.f.,.Z.Z.H.H.Z.G.).).XXP.P.).J./.G.*.*.h._._.Z.p.p.h.H.H.^.)././.G.p.h.p.f.D.B.B.5.g.' <.H.G.K.@.t { j ",
"MXAXVXjX{.'.}.[.+X[.+X$X+X_._.[.[.+X^.`.).`.[._.+X[.+X=X[.^.^.^.^.^.^.^.^.`.[.[._.[.[.[.[.[.[.[.}.}.[./.`.`.[.}.'.I V j # O l :X<X>XD.3.3.4.<.4.4.5.B.Z.Z.Z.Z.C.h.J.P.P.H.)././._.H.<.<.<.C.].f.f.H.).L.H.OX+X).XXP.s.G.XXJ./.P.J.P.h.H.Z.B.B. .w C < $ X v :X2XyX}.4.1.2.:.y.y.y.y.5.5.5.5.5.5.4.4.4.5.B.:.) | :.2.4.2.>.<.<.>.>.<.<.:.` _ ) ) ) ) ) | W L L I I | | _ >.r. .w 6 % : @ m.PXLXLXAXrXpXfXrXpX&X#XK.C.#XOX X&X@X&X&X&X&XOXOX$X@XOX@XOXOXP.OXOXOXOXJ.J.P.XXXXOXOXOX).OX].).p.,.).OXP.OX).P.{.^ m j X & o :XlX<XyX{.S.S.Z.B.f.4.<.<.5.5.4.1.2.r.w.-.a ' >.4.4.4.5.5.y.4.4.y.V.V.B.B.B.r.y.B.y.B.B.4.>.r.B.w...T I P i R -.i.x g * & o , qXcXuXeXL.].L.).)./././.l.l.s.h.L.).J.G.H.J.h.G.G.p.p.k.f.<.*.f.h.h.].aXrX@X&X@X@X@X%X%X%XOX%XdXhXdXdXjXdXrX=X$XpX#.B 3 & X v cXmXxXiXC.B.B.4.:.4.F.Z.g.Z.^.H.Z.Z.Z.Z.Z.Z.Z.Z.^.(.f.` / :.S.~.F.F.Z.Z.j.j.j.!.V.g.V.5.>.<.g.B.F.~.S.S.F.V.<.O.t m b 3 + o 4 ;X8XtXCX{.L.G.G.C.H.).).).).P.J.h.h.h.h.h.G.H.H.h.l.H.H.H.).)./.G.z.h.z.H.H.J.J.@X&X&X$XOXOXOXOX XOX@XI.J.).p.[ t w B $ $   ! FXlXyX3X4.y.:.<.<..._ ) _ ..` ` ................` ....| | } } } } } W I J I ) ) Y _ =.1.2.w.r.y.2.5.<.g.4.f.B.I w B h $ o , n.FX6XiXN.' Z.g.f.<.*.Z.Z.Z.H.Z.G.).).OXP.).XX).).l.*.*.h.).).h.p.p.h.H.^.^.).).).h.p.h.p.f.B.V.f.5.<.d <.H.G.K.SXt ~ j ",
"MXAXVXiX{.|.[.=X=X[.+X$X+X`._.[.[.=X).[.[.`.+X_.+X[.+X=X[.^.^.^.^.^.^.^.^.`.[.[._._.[.[.[.[.[.[.].[._./.`.`.[.}.'.I V j # O l :X<X>XD.+.3.4.<.4.<.5.B.B.B.B.C.C.h.L.P.L.J.).).J.OXG.*.*.<.Z.].p.<.j.H.G.H.OX+XP.OXP.s.H.XXJ./.).J.J.h.Z.Z.V.A. .z S < $ X b ;XU.4XY.2.2.<.:.5.2.y.y.5.5.5.5.5.f.f.5.<.4.B.:._ ..-.2.4.<.<.4.4.>.<.<.4.>.` ) ) ) | } | X.| T I I I ) _ _ 1.r. .z 6 % & @ m.PXLXLXAXrXpXfXrX%X$XOXL.G.#XOXOX&X%XOX@X&X&XOXOX@X@XOXOXOXI.J.P.XXOX).G.J.P.XXXXOXOXOXP.OX).L.,.] L.OXP.OX).P.{.^ m j X & $ :XcX<XyX}.F.F.Z.B.f.4.<.4.4.f.4.2.1.2.1.=.a _ >.4.4.5.5.5.5.4.2.5.V.V.B.B.B.r.B.B.B.B.B.4.<.4.y.A.1.) T ..r K | i.x g * & O < qXcXuXpXL.].L.P.)./././.l.z.p.h.).].G.h.H.H.s.H.G.p.<.f.p.*.( f.G.C.P.&XrX&X&X@X@X@X@X%X#XOX&XdXjXdXdXjXjXrX=X$XpX#.Z f & X v cXmXxXiXB.f.B.4.:.f.^.Z.f.j.Z.Z.Z.Z.Z.Z.Z.Z.Z.Z.(.(.f.` / >.F.~.F.Z.Z.Z.j.j.Z.~.V.B.V.5.>.<.g.B.F.~.F.F.~.V.<.O.t m b 3 + o < ;X8XeXNX{.K.C.C.C.^.OX+XXX).).P.h.h.h.h.h.j.Z.H.h.h.h.h.G.)._._.l.h.h.z.G.H.J.).OX@X&X$XOXOXOX XOXOXOXG.C.).f.,.y q n $ + @ ! FXlXyX3Xr.B.:.<.4.-._ ) ` ..` ` ..` ` ............| ......} W } } T T I J J I Y K Y _ 2.2.2.w.u.y.5.<.g.4.f.M.I w B v $ o , n.FX8XiXN./ Z.V.f.<.&.Z.Z.H.H.Z.G.P.).@XXXXX+X_.).G.*.*.h.).).h.p.p.f.).).).).).P.h.p.h.p.f.B.B.f.<.<.d *.H.G.K.@.t ~ j ",
"MXVXZXjX{.].}.[.+X+X+X+X[.[._._._.).`.^.`._._.).[.[.+X[.[.`.^.^.^.^.`.`.^.`.).[.)._.[.[.[.[.[.[.}.[.[._.`.`._.}.R.U E 9 *   v 1X<X3XT.e.e.4.<.4.:.f.Z.Z.g.<.a.C.p.H.).J.J.P.P.P.OXz.[ *.p.h.`.h.f.j.H.H.^.).).).@XJ.s.G.).)./.).+XL.h.j.(.Z.2...z C f #   A :XU.>XY.1.2.r.4.B.4.5.5.5.5.5.5.5.5.4.5.4.4.4.4...Y | r.4.>.<.4.:.:.4.:.2.2.) _ 1.1...} } X.-.| } | ) ) ) _ ;.w. .0 * $ , . m.UXIXPXAXpX%XdXfXrX#XC.a.G.OXP.OXOXOX&XOX&X&XOXI.OX@X@X@X).P.J.G./._.H.H.J.P.XXXXXXXXXX@XL.J.G.( Z.^.+X_.).P.].{.^ m 9 X & & ;XGXW.yXW.D.Z.F.Z.f.4.<.<.4.B.5.>.4.4.:.:._ Y ` 4.y.4.y.5.4.B.5.>.4.V.F.V.B.B.y.y.5.5.B.S.B.>.4.4.y.=.p 1.u u W i.L 6 8 ; $ o 0XmXuXuXK.].P.).).J.J.J.J.J.h.G.).).H.l.l.G.J.G.G.p.*.h.h.d ( f.G.G.].$X@X&X@X@X@X@X@X$X#XOX&XdXhXdXrXdXdXrX&X&XeX{ Z f &   v FXMXzXiXD.M.F.>.<.4.f.f.f.Z.`.Z.Z.Z.Z.Z.Z.Z.Z.(.~.'.Z.$._ 5.^.F.Z.F.Z.Z.Z.Z.Z.Z.Z.B.5.B.4.>.5.B.Z.~.~.~.F.g.1.1.w m A 3 o o 4 1XzXeXNXL.N.P.P.).).)./._._.).J.h.h.f.p.f.h.h.h.p.H.).J.P.).)._.h.h.h.h.h.G.H.P.OX@X@XXXXXOXOXP.#XL.@Xp.G.L.f.3.t m S < , @ 7.HXcXxX{.B.4.>.:.2.1._ ) _ ` -.=./ =.=.` | | | | X.-.X...| } ) T T T Y I J J J K K ) _ | ..;.-.w.y.5.<.g.4.B.A.) w B v & o , m.FX8XxXM.( <.Z.f.:.&.(.Z.Z.H.G.l.H.J.).XX_.)._.[.Z.*.<.C.[.Z.p.f.a.C.).).].L.].).p.,.h.p.f.Z.B.4.4.&.d h.H.G.L.@.t m j ",
"MXVXZXjX{.].}.[.[.+X+X+X+X[.[.[.[._.`.`._._._._.[.[.=X[.[.`.^.^.^.^.`.^.(.^.).[.)._.[.[.[.[._.[.[.[.[._.`.`._.}.R.H E 9 *   v 1X,X3XT.3.3.4.<.4.<.f.Z.Z.g.a.a.p.p.h.J.J.G.P.P.I.).h.*.x.f.Z._.j.f.j.Z.G.H.).).).@XJ.h.G././././.[.^.Z.!.(.F.4. .z C f $   A 2XU.>XT.1.2.t.4.B.4.5.5.5.5.5.5.5.5.4.5.4.4.r.4...Y | r.4.1.4.4.>.>.<.1.4.1.) ..2.-...) ) ..X.| ) ) | ) ) ) ;.w.| 0 * $ , . m.UXPXPXZXdX%XdXrX%XE.C.d.G.].].OX@XOX%X X&X&X XI. XOXOX@X).).J.G././.H.G.H.P.).XXXXXXXXOXJ.J.h.( h.^.+X).P.L.].{.^ M j X & & ;XGX<XyX'.D.Z.F.S.B.4.<.<.<.B.5.2.5.5.2.2.=._ :.y.y.5.B.y.y.B.B.4.4.V.F.V.B.B.B.y.y.y.B.B.B.>.2.>.B.>.a ` K H } 8.V 6 8 ; $ , qXmXuX7XW.E.I.).).J.J.J.J.H.h.G./.).).H.H.H.G.C.G.h.<.h.h.( ,.C.C.C.OX&X&X&X%X%X@X@X@X$X#XOX&XdXhXdXrXdXdXrX&XaXpX{ Z f o   v HXmXxXsXD.4.B.<.a.B.g.f.g.Z.^.Z.Z.Z.Z.Z.Z.Z.Z.(.F.(.V.$.` f.F.Z.Z.Z.Z.Z.Z.Z.Z.V.Z.B.g.V.5.4.V.B.Z.F.F.F.F.B.<.1.w B A 3 o o 4 qXnXtXCXR.N.G.G.).).)._.XX_.).H.h.h.f.f.f.g.h.h.h.).).H.).H.J.).h.h.h.h.G.H.)._.OX@XOX).).OXOXP.OXL.OXp.Z.G.f.3.t n S & & @ 7.HXlXyX{.B.r.<.:.4.1._ _ _ _ -.:._ :.=.-.;...| X.X.o...| | | } } } ) ) I I J J J K Y / _ ;.;.2.w.y.5.<.V.4.B.A.^ w B k & o , m.FX6XxXN.:.B.~.f.:.:.^.Z.Z.G.G.l.z.J.J.)./.).[.[.Z.*.a.F.}.B.,.f.f.G.).).].L.).).x.*.h.p.g.Z.B.4.4.&.' C.H.C.L.+.N N j ",
"MXVXZXjX].'.}.[.[.+X+X+X+X+X[.[.[.[.).)._.[.[.[.[.[.+X[.[.`.`.^.^.^.`.^.^.^.`.).).)._.[.[.[.[.[.[.[._._.`.`._.[.R.H E 9 *   v 1X6XeXD.+.3.M.4.<.4.f.h.h.f.a.p.p.<.h.J.H.J.P.P.P.).h.*.p.h.H.[.Z.h.j.j.h.G.).XXXX@XJ.h.G.).).`.^.].H.^.^.g.V.4.I M S f =   A 1XU.<XT.+.2.t.4.B.4.5.5.5.5.5.5.5.5.4.5.4.4.r.4.../ ` 4.4.<.4.5.<.<.<.4.4.-.) :.r.X.-.| | ....| } | | ) ) R | w. .0 * $ , . m.UXPXPXZXdXrXdX%X#XOXI.d.J.).].$X@XOXOX X%X%X XI..XOXOX@X)._.).H./.).G.G.H.J.).XXXXXX).).J.G.p.( f.H.+X).P.L.].{.^ M h X & & ;XGX>XyX'.D.Z.F.F.B.a.<.>.<.B.4.>.4.5.2.5._ / :.B.5.4.y.B.y.B.B.4.4.V.Z.V.y.B.B.4.5.B.B.5.V.2.:.$.5.5.Y Y | K | o.c 8 f * O 3 1XcX7XW.#XE.I.P.XXP.J.J.H.z.h.h.H./././.H.l.h.s.C.C.h.C.H.h.C.G.C.C.OXaX&X#X%X%X@X@X$X$XOXOX&XdXhXdXdXdXdXrXaXaXpX{ C f o   v FXmXxXbXD.4.4.4.B.Z.g.f.B.Z.Z.Z.Z.Z.Z.Z.Z.H.Z.^.S.F.B.&.` f.F.Z.Z.F.L.Z.Z.j.g.V.Z.B.B.V.5.4.V.B.V.F.F.F.F.B.4.+.w B A 3 o o 4 qXzXiXCXE.D.C.s.XX)._._.XX_.).H.h.h.f.f.f.f.h.h.h.)._.).).H.G.H.h.h.G.H.H.)._.+XOXOXOXXXP.OXOXP.OXP.+Xh.K.Z.g.3.M n Z $ & @ ! FX8XyX{.B.y.<.>.1.2.| _ _ _ -.:.=.2.2.1.-...| X.X.} | | | | | | } | } T I K J J J K Y _ ..-.w.r.y.5.4.V.4.B.A.^ w B k & O , m.FX6XyXD.4.Z.Z.<.:.<.L.Z.Z.G.G.z.z.z.H.J./.)._.).h.*.4.L.}.a.] a.a.C.).).].L.).).x.*.h.f.C.Z.f.4.<.] [ G.H.C.K.+.N C j ",
"MXVXZXjX].'.}.[.[.+X+X+X+X=X=X=X[._.).).).[.[._.[.[.+X[.[.).`.^.^.^.`.^.^.^.`.).).)._.[.[.[.[.[.[.[._._.`.`._.}.R.H E 9 *   b 1X,XeXT.e.M.C.4.,.<.f.g.f.a.p.a.p.p.h.J.J.P.).XXP.XXG.*.p.h.H.[.H.h.h.h.h.Z.).OXOXOXJ.h.G.).).`.^.L.h.^.Z.&.<.4.H M C f =   A 1X2X<XU...1.t.4.B.4.5.5.5.5.5.5.5.5.4.4.4.4.r.4.../ _ 4.4.<.4.f.<.<.1.4.2.) ) 1.r.-.2.-...1.-.....-..._ _ R | w.o.0 = $ & . m.PXPXPXAXdXrXrX%X%X#XE.a.L.L.).$XOX@XOX XOX.XI.I.OX@XOXOXXXXX/.H./.).l.H.H.J.).XXXXXX).).G.h.*.[ h.H.[.].).).].{.^ m 9 X & & ;XJX,XyXW.D.Z.F.F.D.a.<.:.<.B.5.>.2.2.>.2.Y Y =.y.4.4.B.V.B.B.5.4.4.B.V.V.y.B.5.>.2.B.V.5.V.4.=.$.4.y.$.a -.) | Q c 8 g * X 4 :X0X7XW.#XL.J.P.).P.J.J.G.s.p.h.H././.H.G.G.C.s.C.G.h.f.h.Z.Z.L.C.G.OXaX&X#X%X%X@X@X@X$XOXOX&XdXhXdXdXdXdXdXhXaXpX{ C f o @ v cXcXuXNXD.4.<.<.Z.Z.f.f.Z.Z.Z.Z.Z.Z.Z.H.^.H.Z.F.Z.Z.B.&.&.f.F.Z.Z.F.^.Z.Z.j.g.V.Z.V.B.B.4.>.5.B.Z.Z.Z.F.F.V.B.+.w Z A 3 + + 4 1X6XiXCXE.L.G.G.).)._._._.).).H.C.h.h.f.f.f.h.h.h.)._._._.H.G.H.H.H.).).).).).).OXOXOXOXOXOXOXOXOX].$XG.).Z.Z.a.N m B X & o 7.HX8XyX{.B.5.4.>.1.r.-.| _ / _ :.=.2.1.1.-.;.X.X.X.| | ..X.X.X.| | | | ) T I J J J K K R } -.w.w.y.y.4.5.<.B.S.{ w B k & o , m.FX6XyXD.B.Z.V.<.:.4.Z.Z.Z.G.G.l.z.z.z.H.H.J.).^.p.( ] Z.}.a.[ a.a.a.).).].G.).).x.*.h.f.C.B.4.4.<.` ] G.G.C.L.+.t C j ",
"MXVXCXjX].[.=X=X[.+X+X+X+X+X=X+X[.[.`.`.).).).).[.[.=X+X[.`.^.^.^.^.^.^.^.^.^.).`.).)._.[.[.[.[.[.[.[._.`.`._.[.Y.H E 9 *   b 1X,XtXW.M.N.D.a.:.&.a.Z.g.<.<.f.h.h.G.J.P.P.).P.P.OXH.*.p.k.j._.H.h.h.h.h.Z.).OXOXOXJ.h.H.)./.^.^.H.h.H.f.( &.2.H M C < $   b 1X<X>XN. .1.t.4.B.5.5.5.5.5.5.5.5.5.4.4.4.4.r.4.-./ _ 2.4.2.4.5.<.>.2.r.-.K / 1.r.1.r.2.1.2.1.....1.-..._ _ ..w.o.0 = o & . m.UXPXPXAXdXrXrX#XOX#XP.s.].G.P.@XOX@XOXOX%XOXI.I.OX@X$XOXXXXX).H.H.).G.H.H.J.).).XXXXXXOXG.s.( *.Z.H./.OX).).].{.^ m 9 # & $ ;XJX,XyXR.B.C.Z.S.D.4.>.$.<.B.5.2.2.2.>.2.) / =.B.y.4.B.F.B.B.5.4.4.5.B.g.5.y.4.=.:.5.B.B.B.y.:.=.>.5.2.Y :._ | W 0 6 g & X 4 ;X9X7XW.#XI.J.P.).P.).J.z.s.p.l./._./.G.H.).P.G.h.h.p.[ ( *.h.G.G.L.@X@XOX@X%X%X@X@X$X$XOXOX&XdXhXdXdXdXdXdXhXaXeX{ C f o X v cXzXuXNXD.1.:.<.B.Z.f.f.Z.^.Z.!.Z.Z.Z.H.H.H.Z.F.V.Z.B.&.&.f.F.Z.F.F.F.Z.Z.g.g.B.Z.V.B.B.<.>.f.V.Z.F.Z.F.~.Z.B.+.w B A 3 + + < 1X6XiXkXK.K.G.P.).).).).).J.H.H.G.Z.C.h.f.f.C.G.C.).OXOXOXP.J.).P.).OXXXP.P.P.).@X@XOX@XOXOXOXOXOXOX$XL.].C.Z.M.U Z A $ & o 7.HXlXbX3XB.5.4.>.:.y.1.;._ K / =.=.:.=.-.;.;.-.X.-...X.X.-.-.X...| | | } ) Y I K J Y Y Y T | -.w.r.B.>.>.>.A.Y.} 0 S k $ O , m.FX6XxXW.D.F.V.<.4.D.H.H.H.G.G.l.z.z.H.H.J.).).H.<.d ' B.].<.( <.p.a.).).].G.).).x.*.h.h.Z.B.4.4.<.` *.G.Z.C.L.@.t N q ",
"MXVXZXjX].'.=X=X[.+X+X+X+X+X[.[.[.[.`.`.`.).).`.[.[.=X=X[.).^.^.^.^.^.^.^.^.^.`.`.`.).[.[.[.[.[.[.[.[._.`.`._.[.Y.H E 9 *   b 1X,XtXW.M.N.D.M.,.` a.Z.h.a.f.C.Z.h.G.J.P.P.P.P.J.OXJ.x.p.k.h._.H.h.h.h.h.H._.OX).OXJ.h.H._./.^.^.G.Z.H.f.%.$.1. .M C < $   b 1X,X3XN. .+.t.<.B.y.y.V.V.V.V.B.B.y.4.4.4.4.y.4.-.) _ 2.4.<.4.5.>.>.2.r.` a ) :.2.2.r.2.1.w.1.....1.1.-..._ ;.w.o.0 = o & . m.UXPXPXZXdX&XrXOXE.L.N.C.OXC.L.+X].&XOXOX%X%X XP.#XOXOXOXOXOX).G.H.).H.J.J.P.).XXXXXXXXOXJ.h.d <.Z.Z.^.).P.L.].{.^ m h # $ o ;XJX,XyXD.B.B.Z.S.D.a.:.` >.B.B.4.5.4.2.5...) =.4.2.1.4.y.B.B.5.4.2.4.5.5.5.5.2.:.:.>.5.V.B.B.>.>.:.4.B.` -...X.E 6 6 g & X , :XqX7XW.#XL.P.P.).P.).P.H.s.p.l._./.H.h.H.).).P.h.h.p.] ( <.h.G.H.P.OX@XOX&X%X%X@X@X$X$XOXOX&XdXhXdXdXdXfXdXhX&X#X{ C 4 o @ A FXcXtXiXM...` <.f.B.f.g.Z.Z.Z.Z.Z.Z.Z.H.Z.H.Z.F.S.F.B.&.$.f.^.^.~.F.Z.Z.j.j.g.g.Z.V.V.V.5.4.V.V.Z.F.F.F.~.Z.B.X.w B A 3 + + < qX6XNXjXN.C.s.P.P.).).).J.H.H.H.G.G.G.h.f.f.Z.H.G.).XXOX+XP.J.OXJ.).OXOX).P.).XX@X@X@X@X@X@XOX@XOXOXOXP.].a.Z.4.U Z S $ & o 7.HXlXbX3XB.5.4.<.>.y.1.=._ a Y ` =.=.=.=.....;.-.-.-.-.-.-.X.X...| | | } ) ) T I I Y Y T T T | -.2.y.:.:.:.A.Y.} w S k $ O , m.FX6XxXW.B.f.f.<.5.F.(.^.H.G.G.H.H.H.).J.)._._.H.<.' *.C.(.*.d *.p.C.).).].L.).).x.*.h.h.Z.f.<.4.4.( *.G.Z.D.R.@.t M 9 ",
"MXVXCXjX}.'.=X[.[.+X+X+X+X[.[.[.[.[.[._._._._.)._.[.+X+X[.).`.^.^.^.^.^.^.^.^.`.`.`.)._.[.[._.).[.[.[._.`.`._.[.Y.H E 9 * X A 1X,XxX3XM.N.D.B.4.&.f.H.Z.C.Z.L.Z.Z.G.J.P.P.).P.P.).G.p.h.h.j._.Z.f.h.h.h.^.+XOX)._.J.G.P._./.^.^.Z.H.^.j.<.&.:.q.N C < =   b 8XlX4XN.) X.r.1.y.y.5.y.V.V.V.B.y.5.4.4.4.4.y.4.-.) ` r.r.<.y.5.>.:.2.4.) a ..1.-.1.r.2.2.r.2...| -.2.=.-.=.-.r.o.0 = o + > n.UXPXPXZXdX&XrX#XE.G.d.G.+Xh.P.@X).&XP.G.OX@XOXOXOXOXOXOXXXXX).z.J.).J.).).).).XXXXOXOXP.I.G.d <.h.Z.^._.P.L.].{.^ m h = & o ;XJX,XeXD.B.B.Z.F.Z.f.:._ >.B.B.5.y.4.2.5.-.) ` 2.:.:.2.4.V.B.5.4.4.4.5.5.V.5.5.5.>.$.>.B.V.B.>.4.:.>.F.:.:.-.q.W 6 6 g % O , 1XqX7XpX#XP.P.).P.J.).).H.h.s.l././.l.h.l.J.L.P.C.h.G.h.p.H.C.H.H.P.OXOXOX-X%X%X@X@X$X$X#XOX&XdXhXdXdXfXfXdX-X$X{.{ C 4 o o b FXcXtXyX4.` ( 4.f.B.Z.Z.Z.Z.Z.Z.Z.Z.Z.Z.Z.Z.Z.F.F.~.B.&.` f.(.(.^.F.Z.Z.j.j.Z.g.Z.Z.V.V.4.4.V.B.Z.F.Z.F.F.V.4.X.t C A 3 , + , qX6XCXjXM.N.d.P.P.XXXX).J.H.H.J.J.J.G.h.f.f.C.H.G.).).OXOXP.J.OXH.P.).).P.P.).OX@X@X@X@X@X@XOX@X#XOX].P.].a.Z.4.N Z C , & @ ! HXvXNXpXB.4.f.4.<.y.2.1.` a a ..=.-.=.=...;.-.-.-.X.X.X.X.X.......} } } } } ) ) Y Y ) } T P I } ;.2.=.:.:.t.T.} z S k $ + , m.FX6XyXD.>.:.>.<.5.Z.]._.^.G.G.H.J.J.).J.J./._.H.<.' <.Z.].<.( &.<.G.).).].L.).].d.,.h.h.C.f.<.4.4.` <.H.Z.C.L.@.t N j ",
"MXVXCXjX}.'.=X[.[.+X+X+X[.[.[._.+X[.[.[.[.[.[._._.[.=X+X[.).`.^.^.^.^.^.^.^.^.`.`.`.)._._._._.).[.[._._.`.`._.[.Y.H E 9 * X A 1XtXxX3XM.M.D.D.f.<.C.H.Z.Z.(.(.C.G.G.J.).OXXXXX).J.z.p.h.Z.H._.Z.k.h.h.G.).+XOX).).J.G.)._./.^.^.h.H.^.!.g.&.:.t.V C f =   b 9XvXtXN.) ..r.1.y.y.5.5.5.y.B.5.5.5.4.4.4.4.y.r.:.) ..r.y.4.B.f.<.:.2.2.) Y :.1...1.r.2.r.t.2...| :.2.:.=.;.1.t.o.0 = O + > n.UXPXPXZXdX%XrX&XOXG.,.D.$Xh.).@X).&XI.d.I.#X%XOX%X@XOXOXXXXX).z.J.XX).).).).).XXXXOXOXI.P.P.d <.f.Z.).+X).).].{.^ m 9 = & O ;XJX,XeXB.D.Z.S.F.F.B.:._ >.B.V.5.5.2.=.>.=._ ` 2.:.2.4.5.S.B.5.4.4.4.5.f.V.B.B.V.4.` $.B.F.B.:.4.:.>.'.4.:.1.r.} 6 6 g % & & qXqX7XfX X).).).J.J.).).J.h.l.H././.H.G.H.J.P.].G.h.L.Z.h.^.L.^.G.L.OX@X*X-X%X%X@X@X$X$X#XOX&XdXhXdXdXfXfXdX&X$X{.{ C 3 o o v 0XvX6XpX3.` ` B.f.B.Z.Z.Z.Z.F.Z.Z.Z.Z.Z.Z.Z.Z.F.F.(.Z.&.` f.(.`.^.Z.Z.j.j.j.Z.g.Z.Z.V.B.<.:.f.B.V.V.V.Z.Z.B.4.X.t C A 3 , + , 1X6XCXkXa.s.,.P.).XXXX).J.H.J.J.G.G.G.h.p.p.h.J.L.).).XXOXJ.G.OXJ.P.).).P.J.).OX@X@X@X@X&X@XOX&XOX$XOX].+Xa.L.a.M m S , +   ! GXlXNXpXB.5.B.a.4.4.2.2.$.a Y =.1.=.-.-.=.;.-.-.-.X.X.............) ) } } } } } ) K ) | } P J T | :.=.2.:.r.t.} V B k $ + , m.FX6XxXD.O.] &.<.B.F.}.[.).G.G.J.)./.J.H.H./.).Z.*.' a.F.}.C.&.*.,.D.).).].L.].].d.,.h.h.C.f.<.a.4.` a.L.Z.C.L.@.t C B ",
"MXVXZXNX{.'.=X[.+X+X+X+X=X=X[.).[.[._.).`.).`.`.`._.[.+X+X[.^.H.H.^.^.^.^.^.`.).).).).).).).`.^.].[._._._.`._.[.Y.H E 9 *   A 9X6XyXW.N.N.B.a.a.4.Z.Z.<.f.^.L.G.H.H.P.).).).OXOXP.G.p.p.j.^./.`.k.k.h.G./.OXXX).OXh.h._._./.`.^.H.H.j._.!.( ..A.M C f $   A cXlXtXT.|  .X...y.5.5.5.5.5.y.B.y.5.f.f.f.f.B.B.1._ 1.r.B.B.B.4.<.>.4...) ..1.:.:.2.2.1.1.1.2.1.:...2.=.=.;.-.w.} 0 # X + . n.UXIXLXBXrXrX#X&X&XC.d.].=XC.).@X).-XG.[ G.&XOXOX@XP.OX@XOXXXP.J.XXOXJ./.).XXXXXXXXOXOX).).).[ <.h.H./.).).G.K.{. .m 9 $ & O :XGXtXyXD.f.F.F.Z.D.4.&.` / 4.V.4.:.4.5.>.-.=.` =.=.:.2.y.B.y.5.5.5.5.5.5.B.B.V.V.4.$.:.B.B.B.B.5.5.5.B.B.4.-.1.o.z 6 8 % X 4 9X7X7XBXOXJ.J.XXXX).P.J.J.J.G.)./././.)./.H.).P.P.H.G.G.H.H.).^.J.).OX@X&X@X@X@X@X@X$X$X#XOXaXhXhXdXdXjXfXdX&X=XpX#.C 4 o o v 0X8X7XiXM.O.:.Z.g.f.Z.Z.F.Z.Z.Z.Z.Z.Z.H.H.Z.Z.'.f.F.F.` ` F.'.'.`.F.Z.Z.Z.Z.Z.Z.Z.V.F.V.>.:.V.g.V.Z.F.~.~.V.4.q.t B A 3 + + < <XzXNXjXK.,.L.P.OXXXXXXXP.P.).).G.C.h.h.h.f.C.G.).OXXXXXOXG.G.OXJ.).h.J.OXP.OX@X@X@X@X@X@X&X&X@X&XOXL.].K.a.Z.a.N Z S , , @ ! HXlXxXpX4.B.f.B.B.4.B.=.' a a =.2.| -.-..._ ..-.1.X.X.X.X.X.X...| } } } } } } } ) } } } } I P R | 1.=.>...2.t.W w B k & o , m.FX8XxXD.>.:.&.<.V.F.[.`.^.H.^.).J.J.J.H.J./.).j.<.*.C.].$X<.( <.f.G.).).].L.).).d.,.h.f.*.f.>.a.4.&.h.Z.G.L.K.@.N m Z ",
"MXAXZXNX{.'.=X[.=X+X+X+X+X[._._.+X[.).).).).).`.`._.[.[.+X[.`.^.^.^.^.^.^.^.^.).).).).).).).`.`.[.[._._._._._.}.Y.H E 9 *   A 9XlXxX3XD.N.N.4.4.<.C.f.*.<.Z.Z.C.L.).).).).).OXOXP.G.s.h.H.^.`.^.p.f.j.G.^.)._.OXOXh.h.).^.^.^.^.^.H.Z.`.g.` 2.T.M V f $   A cXlXyXT.|  .X...4.4.5.5.5.V.V.V.B.5.5.f.5.5.y.r.1.) 1.2.4.4.4.<.<.>.2.) K ` 1.1.1.4.4.2.1.1.2.1.:...4.1.:.=.-.q.W 6 # O & . n.UXLXLXAXdXrX%X&X$Xs.d.).$XC.).@X].@Xd.' d.OXP.OX@XOX@X@XOXXX).J.XXOXJ.)._.XXOXXXXXOXOXP.P._.[ <.f.Z.H.L.).G.D.E.^ m h $ & O :XGXtXyXC.B.F.F.Z.D.a.:.&.' <.B.4.:.4.5.4.=.=.=.:.:.2.4.B.B.B.B.B.5.4.4.5.5.5.B.B.4.:.:.5.V.V.V.B.y.B.B.5.5.:.1.o.r 6 8 % X 4 qX7X7XBX%XJ.P.P.).P.J.J.J.H.G./././.^./.H.G.H.J.P.P.H.H.H.H.H.H.H.).OX@X&X@X@X@X@X@X$X$X#XOXrXhXhXdXdXfXdXrX@X$XpX{ C 4 $ o v cXzXtXyX3.:.4.F.B.B.Z.F.Z.Z.Z.Z.Z.!.Z.H.H.Z.Z.^.B.~.F.` :.L.(.`.^.F.Z.Z.Z.Z.Z.f.g.B.V.V.>.>.Z.5.B.V.Z.F.F.V.4.q.t B A 3 + + < 1XzXNXjXK.,.K.P.OXXXXXXXP.P.).XXL.G.G.G.C.C.Z.L.).XXXXOX).J.G.@XP.XXG.P.OXP.OX@X@X@X@X@X@X@X&X&X@XOXL.].Z.a.Z.a.N Z C , & @ ! HXvXbXpX4.B.f.B.f.5.4._ _ Y a =.1...-.-.;...-.1.1.-.-.X.X.X.......} } } } } } } ) Y Y T } W W X.2.2.:.4.:.r.A.} z B k & o , m.FX6XxXD.<.<.&.<.V.F.(.^.H.H.H.)././.J.J././.^.h.*.[ F.].].,.( a.f.Z.).).].L.).).x.x.p.p.*.f.:.4.:.( h.C.Z.L.K.O.N m m ",
"MXAXZXNX{.'.=X[.=X=X+X+X_.)._._.[.[.).).)._.[.).).[.[.+X+X[.).^.^.^.(.^.^.^.^.`._._.).).`.).[.].[.[._._._._._.}.Y.H E 9 *   A 9XlXxX3XN.M.M.<.,.f.Z.p.*.<.Z.L.H.^.).).).).).OXOXP.G.h.h.^./.`.H.p.h.j.H.H.H.).OXOXh.s.J.H.H.^.H.L.C.Z.`.<.( B.Y.M V < = > A FXlXyXT.) ) X.` 2.:.5.5.5.V.V.V.B.5.4.4.5.4.r.r.1...1.1.2.2.1.>.<.<.1.Y p ) :.1.1.4.4.2.2.2.2.>.:.:.4.4.2.1.-.i.E 6 # O & . n.PXLXLXZXdXdX%X%X{.a.p.].=XG.L.@X@X@X*.d.K.@X#XOX@XOX@X@XXXXX).J.XXOXJ.).XXOXXXXXXXXXOXG.I._.[ ,.a.h.Z.G.).L.D.L.U w j = & o :XGXlXyXB.B.F.F.Z.Z.f.>.:.$.<.5.4.>.2.5.y.1.=.=.:.2.2.4.B.5.B.V.B.5.4.5.f.5.4.5.B.5.>.>.4.V.F.Z.B.B.V.B.5.B.2.w.o.0 6 8 % O 2 1X:X7XBX%XJ.XXP.J.J.).P.J.z.G.J././.H.H.G.h.h.G.H.H.H.H.H.H.H.G.H.P.OX@X@X&X%X@X@X@X@X$X#X#X&XdXhXdXdXdXdX%X@X$XeX{ C 4 $ o v 0XvX>X3XO.O.a.F.Z.B.Z.F.Z.Z.Z.Z.Z.Z.Z.H.H.H.Z.Z.S.'.V.` >.^.F.^.F.Z.Z.Z.Z.g.g.5.g.f.V.V.<.>.F.g.V.Z.Z.Z.F.V.r.q.t V A 3 + + < 1XmXNXsXC.,.L.P.OXXXXXXXP.P.).XXP.J.G.H.G.C.G.P.P.).).).).G.J.@X).OXJ.).@X).OX@X@X@X@X@X@X@X@X@X$XOXP.).D.a.C.a.N Z C , &   ! HXvXbXyXa.B.4.g.f.B.>.Y _ _ a _ =...-.=.-.=.:.1.1.-.-.X...| | | | } } } } } } } ) ) ) | | W W | -.2.:.4.>.r.T. .c B k & o , m.FX6XxXK.4.<.*.<.Z.F.^.H.H.G.H.)./././.J.).).H.f.*.( (.'.'.,.] f.f.C.).L.).L.).P.x.p.p.<.,.B.:.4.&.( f.h.C.J.K.O.N m q ",
"MXAXZXNX{.'.=X[.[.+X+X+X_./._.[.[.[.).)._.[.[.[._.[.[.[.+X[.).^.^.`.(.^.L.H.^.`.`._._.).`.).[.[.[.[.[._._._._.[.Y.H E 9 *   A 9XlXiX>XN.N.M.<.<.Z.Z.p.*.a.L.(.(.).).XXOXXXXXOXOX).G.h.h.^.).`.H.f.j.j.H.H.).XXOX).s.p.J.H.H.H.H.Z.h.^.^.%./ S.Y.M B < $ > A FXvXyXT.^ ) -.:.2.:.6.5.5.V.V.V.B.5.4.5.f.f.y.B.r.:.1.1.:.:.:.>.<.4.1.K p Y -.1.1.2.4.2.2.2.2.>.>.:.4.4.4.2.-.i.E 6 % O : . n.PXLXLXVX%XrX#X#XL.d.p.$X=XL.G.+X$XOX] I.I.rX@XOXOXOXOX@XXX).).J.P.XXJ.)./.).XXXXXXXXOXs.G._.] <.a.g.Z.C.P.L.K.L.U w h = ; o :XGXlXyXM.B.F.F.Z.Z.B.<.>.:.>.5.y.4.2.5.V.2.=.=.:.2.4.5.B.4.B.V.B.5.5.B.Z.5.4.4.g.g.4.>.:.Z.F.Z.g.f.V.B.5.V.4.r.| 0 6 8 % & , :X:XuXVX%XJ.XXJ.J.J.).J.H.z.H././.).J.H.l.h.h.h.l.G.H.H.^.^.H.H.H.).OX@X@X@X%X@X@X@X@X$X$X$X&XrXhXdXdXdXdX%X@X$XpX{ C 4 $ o v 0X8X>X{.3.:.B.F.Z.B.Z.~.Z.Z.Z.Z.Z.Z.Z.H.H.H.Z.Z.~.(.<.' <.(.Z.^.F.Z.Z.Z.Z.j.g.V.Z.V.V.V.4.>.V.B.Z.F.F.F.F.Z.B.q.t V S 3 + + < qXmXNXrXN.,.L.].XXXXXXXX).).).XXP.J.J.H.G.C.G.L.P.).).).).G.G.@XOX@XP.OX@X).OX@X$X@X@X@X@X@X#X@XOXOXP.P.C.p.C.a.N Z C , o   ! HXcXbXyXa.B.4.B.4.V.>./ :.=.a ) =._ =.-.;.=.:.:.-.-.X...| } } | | } } } } } } } ) _ _ | | } T _ =.>.:.4.:.r.A.} z B k & O , m.FX8XyXD.4.<.&.4.S.L.(.^.H.H.^.).).).).J.).).H.p.*.( (.(.'.4.*.f.p.C.).L.).L.).L.,.p.f.p.f.Z.<.B.] ' f.h.h.G.D.@.N M q ",
"MXAXLXNX{.].=X[.[.+X$X+X[._.[.=X[.[.).).)._.[._._._.[.[.=X[.).H.^.^.^.^.^.^.^.`.`.`.).).`.`.[.[.[.[._._._._._.}.Y.H E 9 *   A 9XlXxX3XN.N.N.4.4.B.C.*.[ <.Z.L.L.^.).XXOXOXXXXXOXOXH.h.h.H./.^.H.j.j.j.G.).XXOXOX).s.s.H.^.H.H.Z.h.G.).^.( / F.T.M B < $ > A FXvXxXT. . .1.1.y.4.5.5.5.y.V.V.B.5.B.B.B.5.y.y.2...1.1.:.:.:.>.<.4.4.) p Y -.1.:.1.2.<.<.1.1.>.>.<.4.4.4.2.-.-.E = % O : . n.PXLXLXBX#X%X#XOXI.a.D.aXaX^.H.[.=X).] s.d.OX@X).@XOXOX@X).P.).J.P.).J.J.J.J.).XXXXXXXXs.G.).] <.f.h.Z.C.P.H.K.E.U q * = ; o :XGXvXyXM.a.F.F.Z.F.B.<.<.>.>.5.V.B.4.5.V.2.=.=.:.2.4.5.y.5.B.B.5.4.4.B.F.B.5.5.g.B.5.>.$.V.~.V.4.<.f.B.5.Z.4.r.| 0 = 8 % & , :X7XgXBXOXJ.XXJ.H.J.).J.z.z./.).)./.H.G.l.l.l.z.l.l.l.H.^././.).).).OX@X@X*X%X@X@X@X&X@X$X$X@XdXhXdXdXdXdX%X-XaXpX#.C 4 o o v 0X6X>XyXB.r.S.B.g.B.Z.F.Z.Z.F.Z.Z.Z.Z.Z.Z.Z.Z.Z.(.Z.` / 4.(.F.^.Z.Z.Z.Z.Z.Z.B.Z.F.V.V.V.4.>.B.B.V.F.F.Z.F.Z.B.q.t Z S 3 + + < qXmXNXrXN.d.].OX).XXXXXX).P.).XXP.L.J.L.G.C.G.L.P.OXOXXXP.z.G.@XOX&XP.OX@XP.OX@X@XOXOX@X@XOXOX%XOXOXP.P.C.a.Z.a.t m C , o   ! HXmXNXyXf.B.4.f.4.B.4.:.5.>.a Y ....-.-.-.-.:.:.=...| | ) ) ) } } } } } } } } } ) Y Y ) | } _ _ =.:.$.>.:.4.A.{ z B k & o , m.FX6XtXD.4.:.&.4.F.L.`.^.H.H.H.)././.J.J.).).H.p.*.*.F.L.].f.<.a.a.C.).L.).L.).J.*.p.h.p.C.F.<.D.` ` f.h.h.G.D.@.t M q ",
"MXVXLXNX{.].=X[.[.+X+X+X+X+X=X=X[.[._.)._._._._._.)._.[.=X[.^.Z.^.^.^.^.^.^.^.(.^.`.).).`.`.[.[.].[._._._.`._.}.Y.H E 9 *   A 9XlXxX>XN.M.M.,.,.B.f.*.[ a.Z.Z.G.L.).).OXOXXXXXOXOXG.s.s.H./.^.j.Z.j.j.H._.+XOXOXP.s.h.J.^.H.H.j.h.).^.g.( $.~.A.M V 3 = > A FXlXvXT.^ ) X.=.y.5.5.5.5.V.V.S.V.V.V.B.B.4.y.r.:.) 1.1.1.>.>.<.4.4.4.) K ) :.:.:.:.>.2.<.<.>.>.<.4.4.4.5.2.-.X.L = % O : . n.PXLXLXAX#X%X%X].G.a.].kX=X).L.[.$XL.*.a.] I.@X).OXOXOX@XP.J.P.J.J.P.J.H.H.J.J.).XXXXXXC.G.).] p.h.Z.H.G.P.G.K.{.^ q # # ; O :XGXmXsXM.4.Z.F.F.F.B.4.<.>.<.y.B.B.5.y.y.2.-.=.:.4.4.4.5.B.V.B.5.4.4.5.V.V.g.g.g.B.5.>.&.f.Z.Z.<.:.4.g.5.f.<.r.X.0 = 8 % : + :X7XfXBXXXJ.).H.G.J.J.H.h.z./.)././.H.l.l.H.H.J.H.H.H.H./._._./.).XX*X@X@X*X%X%X@X@X@X@X@X@X$XdXhXdXdXdXdXdXhXaXrX#.C 4 o @ v qX>X>XiXD.M.B.B.f.B.Z.Z.Z.Z.^.Z.Z.Z.Z.Z.Z.Z.Z.Z.(.B./ / B.'.^.^.Z.Z.Z.Z.Z.Z.C.V.V.B.5.B.5.>.B.5.V.Z.Z.V.V.B.B.q.t C A 3 + + < qXmXNXrXN.a.OXOXP.XXXXXXXX).).XXP.P.L.P.L.G.G.L.P.OXOXP.I.s.G.@XOX&XXXOX@XP.OXOX@XOXOX@X@XOX#X#XOXOXL.L.D.h.L.a.t m ~ , o   ! HXmXNXsXB.Z.f.f.4.g.5.<.B.>.a Y ..-.1.1.:.1.2.:.=.) | } ) ) ) } } } } } } } } } ) ) ) _ | | _ _ _ :.&.<.:.4.A.} w B k & o , m.FX6XtXD.<.:.&.f.~.F.^.H.H.G.H.H.J.J.J.J.).).H.f.<.<.L.F.'.C.<.a.<.C.).L.).P.).G.*.p.h.p.Z.Z.,.S.` &.h.C.C.G.D.@.t m j ",
"MXAXLXNX{.'.=X[.[.+X+X+X=X=X[.[.=X[._.).).).).`._.)._.[.=X[.^.g.H.^.^.`.`.^.^.^.Z.^.).[.`.`.).[.].]._.`.`.`._.].Y.H E 9 *   A 9X6XyXW.N.M.M.<.<.C.f.*.*.g.^.F.G.H.H.).XXOXXXXXOXOXG.s.h.H./.^.h.j.j.H.H./._.OXOX).s.p.H.^.H.H.Z.C.).f.&.( <.~.N.M V f & > A cXlXyXT.^ I ) ` 4.4.5.5.5.y.V.S.S.V.S.B.5.4.B.B.:.Y 1.1.4.<.<.<.<.4.4._ K _ :.:.=.:.>.>.<.<.>.<.4.f.5.5.y.y.-.X.G - % O : . n.PXLXLXZX%X%X#XE.C.h.$XkX=X).).+X+XC.,.G.] L.@XP.OXOX).@XI.J.P.I.I.J.G.H.H.H.J.).XXXXP.P.P.).[ a.Z.Z.H.G.P.G.K.W.U 9 X # & o :XGXmXbXM.,.B.F.S.F.D.4.<.>.4.y.5.4.4.5.5.2.=.=.2.4.4.4.5.B.B.B.y.4.4.4.5.V.B.g.g.V.g.5.>.>.V.Z.4.&.<.5.5.<.>.r.X.w = ; % : + :X8XnXkX XJ.).H.H.J.J.z.h.z.).J.H.H.G.h.l.H./.J.J.H.H.H./././.).).).OX@X@X*X%X%X@X&X&X@X@X@X$XrXhXdXdXdXfXdX-XaXrX#.C 4 o @ 4 1X<XW.iXD.4.4.B.B.Z.F.^.Z.Z.F.Z.Z.Z.Z.Z.Z.Z.Z.F.(.<./ $.S.'.(.^.Z.Z.Z.Z.Z.Z.Z.g.V.g.5.B.5.4.B.4.B.Z.Z.V.B.B.4.q.t Z A 3 + + < qXJXCXiXC.a.OXOXP.XXXXXXXX).).).P.I.L.P.L.G.Z.J.P.OXOX).I.s.G.@XOX&XXXOX@XP.XXOX@XXXOX@X@XOXOX#XOXOXG.L.Z.D.(.a.t m ~ , X   ! JXmXNXaXB.Z.f.B.a.5.g.<.5.=.a ) -.1.1.1.1.2.2.:.` ) } } } } } } } } } } } } } } ) ..` ..-.;._ ) _ :.$.<.:.4.A.} w B k & o , m.FX6XyXD.,.:.>.Z.(.S.L.Z.Z.G.H.J.J.J.J.J.).).H.h.f.f.].F.L.f.<.f.p.C.).L.).L.P.G.] s.H.p.L.Z.,.F.&.<.Z.G.C.G.C.@.t t q ",
"VXAXZXNX{.].}.[.+X[.+X+X=X=X[._.[.[._.`.).).`.`._.)._.+X=X[.H.f.Z.H.^.)./.^.^.^.Z.^.`.[.).`.).[.].].).`.`.`./.].Y.H E 9 *   A 9XlXyX>XD.D.D.D.D.B.f.*.*.h.L.Z.Z.G.J.).XXXXXXXXOX).G.s.h.H./.H.k.f.j.^.).).).).OX).p.p.G.H.Z.Z.Z.C.(.*.s ( g.Y.r.N C f &   A cX8XbXW. .) ) ` 4.y.y.5.5.5.y.V.V.V.V.B.4.f.S.S.2./ :.1.4.4.<.<.<.<.2.) Y | 1.-...1.:.1.1.<.>.<.4.B.B.B.V.y.-.X.G - % O & . n.PXLXLXZX#X#X#XP.s.p.$XkX[.).].+X].f.,.G.[ G.@XP.OXOXOX@XJ.J.P.J.G.J.G.P./.J.P.XXXX).P.OXOX).[ a.Z.H.G.G.).G.D.L.t 7 X O & O :XGXmXbXM.:.B.F.F.L.Z.4.<.<.4.5.>.:.4.5.4.4.:.=.2.4.y.4.4.5.5.y.B.B.5.4.4.B.V.V.g.V.V.g.<.$.B.~.f.:.<.5.4.:.:.r.X.w = * % & + :X8XnXkXP.J.P.H.H.).J.h.h.G.).H.H.H.l.h.l./.H.H.J.H.H.G.H.H./.H.J.).@X@X&X@X%X%X@X&X&X&X@X@X@XdXhXdXdXdXfXjX&X&XpX#.C f $ X h qX>X>XbXD.4.4.Z.Z.F.^.^.Z.Z.Z.Z.Z.Z.Z.H.H.Z.Z.(.~.>./ >.(.'.(.^.Z.Z.g.Z.Z.Z.Z.V.F.B.g.V.g.4.B.4.B.F.F.Z.V.B.y.1.t Z A 3 + o < 8XJXCXsXC.a.#XOXP.).XXXXXX).).).L.G.J.H.G.C.C.G.J.).).).J.h.G.&X).@X).OX@XP.XXOX@X).OX@X@XOXOXOXOXOXG.K.G.K.].a.t m C , X . ! KXmXNXaXf.Z.f.B.f.f.g.>.>.` a _ -.-.1.1.1.1.2.$._ ) } } | | | | | } } } } } } } ) ) ) ..-.-.=.=.:.$.$.>.:.4.A.^ w B k & o & n.FX6XxXT.<.:.<.Z.(.Z.L.H.Z.G.P.).).XX/././._.^.h.f.f.}.F.D.a.a.f.a.C.).L.).L.).C.*.s.).f.(.F.<.'.>.f.Z.G.Z.G.C.@.t m q ",
"MXZXBXCX{.].(.+X=X=X[.[.+X+X=X=X+X[.[.).[.[.).`.[._.`._.+X+XH.p.j.^././.^.^.^./.^.^.^.[.[.`.`.[.).).`.`.`.`._.[.S.I U g # O b 1X,XyXeXT.e.3.4.>.B.4.&.<.F.L.D.K.J.G.J.XXOX).).).+Xl.h.l.H.).H.p.p.k.j.H.)._._._._.p.p.h.h.Z.Z.^.C.C.L.[ ( F.F.M.t C 9 <   b cX1XyX3X .K  ._ :.4.y.5.4.4.4.5.B.Z.g.V.V.g.B.V.4.` / :.4.4.y.5.>.>.r.=.Y R 2.-.| r.1.1.1.2.4.5.B.B.B.V.V.y.w.t.W = X O , > v.PXLXLXBX%X&XOXK.C.h.$XhX&XP.P.].=Xa.<.D.] G.OX).].OX@X).).).H.L.).L.C.G.H.J.P.).XXXX).XXP.).h.p.^.Z.Z.Z.G.).C.N.t 9 # & O & :XGXvXCXB.:.B.L.F.D.S.B.>.<.<.B.B.2.>.4.>.:.2.:.=.4.y.4.5.B.B.B.V.B.5.5.f.V.V.V.B.5.5.5.B.$.V.V.4.>.4.5.V.:.:.1.q.0 6 * & o , :XmXnXkXOXP.G.h././.H.z.p.h.)./.H.l.l.l.H./.^.H.G.G.l.h.l.H./.P.P.).OX@X&X&X&X@X@X@X&X&X$XOX$XrXhXdXdXdXdXrX-X&XpX{ C f X   n zXxXiXsXD.B.D.Z.Z.Z.Z.Z.Z.Z.Z.^.Z.Z.Z.Z.Z.Z.Z.F.F.' d Z.(.g.`.Z.Z.Z.C.Z.Z.Z.B.f.B.Z.B.f.B.g.f.<.B.F.Z.Z.F.Z.B.+.N C B < + @ < cXmXNXrXN.L.].OX).XXXX).J.J.).+XH.P.L.Z.Z.G.G.h.H.G.).).G.G.).OX@XOXOX).P.P.OXOX).P.OX&X@XOX).@XOXOXP.L.L.R.D.e.M Z S $ o   ! HXmXiXrXF.L.f.D.4.B.B.1.:.-.K a 1.-.1.2.1.:.=.=.:.| } W } } W } X.} } } ) T } | | ) ..1.1.1.2.2.2.=.:.:.1.X.A.I M B l O o , n.cX6XyXT.3.:.<.Z.Z.Z.L.G.G.H.).).).J.J.)._.G.[.^.&.Z.(.F.f.f.C.a.p.Z.^.).).].].h.,.C.C.Z.F.4.F.D./ <.H.L.C.D.K. .t M q ",
"MXZXBXBX{.{.'.+X=X=X[.[.[.+X+X+X+X[._.).[.[.).`.[._.`._.+X+X^.p.j.H.^.^.^.H.^.`.^.H.H.`.).`.`.[.).).`.`.`.`._.[.A.H V g # X v 1X<XtX>Xe. .` :.&.V.4.*.4.F.L.F.L.J.H.J.XXOX).).XX+XG.h.l.H./.H.p.k.h.l.J._.oXXX_.).p.p.Z.Z.Z.!.Z.F.B.F.( d C.L.M.t C 9 *   b cX6XlXW...^ ) ) 1.4.y.5.5.5.5.B.B.Z.g.V.V.g.V.Z.5.$.Y :.2.2.4.4.2.2.4.1.R Y -.-.| w.1.1.2.2.4.4.5.B.B.V.V.y.w.t.} =   O , > v.PXLXLXBX%X&X+XL.C.h.$XjX#XI.I.].=Xa.<.G.] G.OX].OXXXOX).XX[.).L.L.L.Z.G.G.G.J.J.XXXXXXXX).XXh.p.^.F.F.H.Z.H.a.B.U 0 X & O & :XGXvXCXA.:.D.'.F.S.F.B.>.<.<.B.B.2.>.2.>.:.2.:.=.4.y.4.5.B.y.5.B.B.4.4.5.V.V.V.B.5.5.5.B.=.5.V.B.4.4.B.B.>.:.1.2.0 6 * = O , ;XcXnXBXOXP.H.h././.G.l.p.h.)./.H.l.l.l.H.H.).L.H.H.H.H.H./.).P.P.).OX@XrX&X&X@X@X@X&X@X$XOX$XrXhXdXdXdXdXdXhXaXyX .S f $ X n cXxXiXsXD.D.B.Z.Z.Z.Z.Z.Z.Z.Z.Z.Z.Z.H.^.^.^.^.Z.5./ ' Z.'.Z.[.`.`.^.Z.Z.Z.B.4.<.f.B.f.f.f.f.f.<.Z.F.Z.Z.F.Z.a...M C B 3 o @ < zXmXbXrXM.L.E.].XXXX)./.H.H.).OXH.^.^.H.Z.Z.Z.Z.Z.h.H./.G.H.+X$X@XOXOX).P.P.].OXOXP.P.@X@XOXOX@X$XOXP.K.L.R.D.e.N V S , o . ! HXgXuXrXD.Z.f.Z.4.5.B.2.:.2._ ) 1.2.-.X.1.r.r.:.X...| | | } I I T } } } } | } } | | -.2.1.1.2.2.>.=.>.1.2.-.A.I x V l O o , ;XcX6XxXW.<.,.f.Z.H.H.L.G.G.G.J.).).J.J./._.H.).Z.&.Z.(.Z.a.a.g.f.p.Z./.).(.].].a.,.C.Z.Z.F.B.F.B./ f.H.H.C.G.K. .t Z w ",
"MXZXVXBX{.{.'.+X=X=X[.[.[.+X+X+X+X[.[.).[.[.).`.).).`._.[.+X^.k.j.H.^.^.^.H.^.^.H.Z.Z.H.^.`.).[.).].).`.`.`._.[.t.M V g # X v 1X6XyX>X+.^ / ` :.V.<.:.f.F.L.K.L.J.J.J.XXXXXXXX+X+XG.h.l.H././.s.s.h.H.)._.XX_._.L.p.f.H.Z.Z.!.Z.'.C.F.] s a.{.D.M C * *   A FX1XlXW.O. .^ ) 2.2.5.5.5.B.B.B.B.B.V.V.V.g.V.F.B.2./ $.4.4.4.4.4.4.2.2._ Y | -.-.-.1.1.2.2.2.4.5.5.5.B.V.y.y.u.o.=   O , > v.PXLXLXfX#X&X].D.a.p.OXkX#XG.I.OX=X<.<.L.O.G.@X].OX).XX/.XX+X].L.L.L.H.C.C.z.G.J.P.XXXXXX).XXh.p.(.F.F.^.h.h.4.B.U 9   & O + :XGXvXCXA.>.B.'.F.Z.Z.B.:.<.<.B.B.4.>.>.:.:.2.=.` 2.4.4.4.y.5.5.B.5.4.>.<.B.B.B.B.B.5.5.5.>.:.B.F.5.4.B.f.<.:.1.2.w 6 * = $ , v.zXnXBXOXP.H.l./.H.l.l.s.G./.H.G.l.l.l.G.H.).L.H.)./.H.H./.).P.P.).OX@XrX&X&X@X@X@X@X@X$XOX#XrXhXdXdXdXdXdXhXhXiX#.S h = X n cXxXiXsXD.D.Z.B.Z.Z.Z.F.F.Z.Z.Z.Z.Z.Z.!.^.^.^.Z.&.d *.F.[.`.`.`.`.`.Z.Z.Z.B.<.<.5.B.B.f.f.f.f.<.B.F.S.Z.Z.B.<. .t V B 3 + @ < 8XmXxXpXM.L.R.].OXXX).J.H.J.).).G.H.^.H.Z.Z.Z.Z.h.h.G.).H.H.+X$X@XOXOX).P.P.).OXOXP.P.OX@X@X@X@X@XOXL.D.L.L.N.+.U V S , o . ! HXzXuXpXC.C.f.Z.f.4.B.4.2.r.1.| ..-.X.-.1.w.r.1.X.X.X.| } I F F H T I T | X.} } | ..-.-.-.1.2.1.=.=.1.2.2.1.A.I w S l $ o , ;XcX6XxXW.M.4.Z.H.^.H.L.H.G.G.J.P./.J.J./.).G.^.g.&.g.(.Z.<.<.g.f.<.h.).).^.).(.a.,.C.Z.F.F.S.F.<.' Z.Z.H.C.K.R.@.M Z w ",
"MXZXVXBX{.].].+X=X=X[.[.[.+X+X+X+X[.[.).[.[.).).).).`.).[.[.^.h.j.H.^.^.^.H.^.^.^.H.j.Z.^.`.).`.].]._.`.`.`._.[.A.H V j # O v 1X8XxX3Xe.^ ) :.<.V.>.<.C.F.K.L.L.).P.).XXXXXXXXXX+Xz.s.h.H././.s.k.h.H./.).).).).L.s.f.Z.Z.Z.!.B.^.f.f.( a a.{.D.M C * *   S FX1XyXT.+.O.K K 2.1.4.5.5.5.B.B.B.B.V.V.B.5.B.Z.V.5.' $.4.y.4.4.4.4.1.2.-.Y Y -.-...1.1.1.2.2.4.5.5.5.B.V.y.u.A.8.6 - O , > v.PXLXLXBX%X$XP.f.<.a.$XkX#XC.I.OX$X<.<.P.,.G.@X].XXP.).H./.).L.L.L.(.).C.C.z.J.P.). XXX).).XXs.p.^.L.F.^.Z.h.a.B.U 9   & O & :XGXlXCXD.O.B.F.Z.B.D.f.:.<.<.B.V.4.>.4.:.2.2.=._ :.4.2.4.5.4.4.5.5.4.>.>.5.5.B.B.B.5.5.5.5.` 5.~.4.>.V.5.4.>.1.2.w 6 6 = $ , v.wXnXVXOXP./.l./.H.l.l.h.H./.H.l.j.h.l.H.H.^.H.H.H.H.H.H.J.).P.P.).OX@XrX&X&X@X@X@X@X@X$XOX#XrXdXdXdXfXfXdXhXhXiX#.S h = X n cXmXiXsXD.D.Z.B.Z.Z.Z.^.^.Z.Z.Z.Z.Z.Z.Z.Z.Z.Z.F.' / f.F.`.`.Z.Z.^.F.Z.Z.Z.B.<.4.B.B.B.f.5.f.B.<.B.Z.Z.B.B.4.>.) w V B 3 + o < 8XxXiXpXM.K.L.P.OXXX).J.J.).).).j.H.^.H.Z.Z.Z.Z.Z.h.H.).G.G.)._.OXOX].).P.P.).].OXP.P.OX@X@X@X@X$XP.C.N.C.B.3.O.U V S , o . ! HXnXiXrXC.C.p.Z.f.f.B.y.4.4.r...K Y ..w.w.1...-.1.-.X.W J e r e u H u J } X.} } o.| | | ..=.2.1.=.=.>.2.2.1.A.I e S D & & < ;XcX6XxXW.M.B.Z.^.^.).).H.G.G.J.).J.J.J.).).H.Z.<.&.f.F.B.,.<.f.f.<.h.).).L.(.L.a.,.C.Z.F.F.'.S.:.` ^.Z.G.C.K.R.@.M Z w ",
"MXZXVXBX{.].(.+X=X=X[.[.[.+X+X+X=X[.[._._._.).).).`.).).[.[.^.h.H.^.^.^.^.^.^.^._.^.Z.Z.H.`.).`.].]._._._._._.}.Y.U C j # X v 9X,XuX>Xe.) ` >.4.Z.&.<.Z.L.K.L.L.).XXXXXXXXXXXX).XXh.p.s.l.)./.s.s.j.H./.)./.).).P.h.f.h.Z.Z.^.Z.f.<.,.( d <.{.N.M C = =   S FX6XyXT.+.+.) K 1.-.2.2.4.5.5.g.B.B.V.g.5.4.f.V.V.B.` ( 4.B.5.4.4.:.-.2.1.Y K ..1.| -.-.1.2.4.5.5.B.5.g.V.y.u.Y.8.6 - O , > v.PXLXLXZXrX$XL.4.,.B.aXkX#XN.K.{.$X<.,.L.,.G.@X].).J.P./.G.h.h.C.G.L.(.G.G.J.).XX).J.J.).)._.p.p.^.(.Z.(.Z.H.B.B.t 7 $ & O : :XGXyXCXS.` 4.S.Z.D.S.B.<.<.<.B.V.4.4.4.>.2.2.=._ :.2.2.4.y.4.4.5.5.4.<.>.5.5.B.B.5.5.5.5.V.$.4.F.4.>.B.5.f.<.1.2.w 0 6 & $ , v.wXnXBXOXP.).H./.H.l.G.h.)./.H.G.h.h.l.H.H.^.H.G.H.H.H.z.J.).P.P.).OX@XrX&X&X@X@X@X&X&X$XOX#X&XdXdXdXfXfXdXhXhXiX#.S h $   n cXmXiXsXF.D.Z.Z.Z.Z.^.^.^.^.F.Z.Z.Z.Z.Z.Z.B.B.B./ ` Z.F.^.^.j.Z.Z.Z.Z.Z.Z.B.4.f.B.B.B.4.<.4.B.5.B.Z.Z.Z.B.4.>. .t V B 3 + @ < 8XzXtXeXM.L.L.L.].XX).J.)._.).H.C.H.H.Z.Z.Z.Z.Z.G.h.G.H.Z.Z.P.).OXXX).).P.P.P.).OXP.P.OX@X@X@XOXOXL.C.a.a.3.:. .U V S , + . ! JXMXnXaXD.C.<.C.f.f.f.4.<.2.r...p H ) -.q.-.-.q.w.-.| L e r e H L e r e I } } } X.| | | | ;.1.2.=.$.:.1.2.1.A.^ x S D & $ , v.cX6XxXR.4.B.L.L.^.).).H.G.G.J.J.J.J.P.).).H.h.*.*.f.Z.f.,.<.f.p.p.h.).^.L.).(.a.a.D.Z.F.F.'.B.( :.^.h.G.h.K.R.@.M Z j ",
"MXZXVXBX{.].(.+X=X=X[.[.[.+X+X+X+X[.[.)._._.).`.)._.).).[.[.^.h.^.^.^.^.^.^.^.^._.`.H.Z.Z.`.).`.].]._._._._._.}.'.U V g # X v 9X,XyX>XM. .O.4.B.Z.$.<.^.F.D.L.K.).XXXXXX).XX).)./.s.p.s.l./.J.k.h.l././.).).)._.).h.f.h.g.Z.^.Z.4.f.] ( [ f.}.D.M C * *   A HX8XyXT.+.+. .K ` ` 2.2.2.4.4.5.f.B.B.f.5.4.5.B.V.V.$._ >.B.4.4.4.` ..1.2._ J | 1.| -.-.-.:.2.4.5.B.5.5.y.y.u.Y.o.6 - O , > v.PXLXLXVX%X#XC.] ( a.aXjX#XN.N.L.+X,.*.D.] G.@X).P.J.).).z.p.p.f.C.Z.H.G.G.G.).XXJ.J.J.J.)._.p.<.(.(.Z.L.Z.L.D.M.t = = & O 2 :XGXlXCXD.` a.F.S.F.F.S.4.<.>.5.B.4.4.5.2.2.2.=._ :.2.>.4.y.4.4.5.B.5.4.4.5.B.B.B.5.5.5.5.F.:.>.V.5.4.B.5.B.<.1.2.w 0 6 & o , m.cXMXBXOXP.).H./.H.l.H.h./.).H.G.l.h.l.H.H.).H.H.H.H.H.J./.).P.P.).@X@XrX&X&X@X@X@X&X&X$XOX#XrXhXdXdXdXdXdXhXaXyX#.S f $   b cXmXiXbXL.Z.Z.Z.Z.Z.F.^.^.^.F.Z.Z.Z.Z.Z.Z.Z.Z.:./ <.(.^.F.^.Z.^.^.^.Z.Z.Z.B.4.f.B.B.f.<.:.<.B.B.V.S.F.S.Z.f.<...M C B 3 + @ < 1XlXeXeXM.L.R.L.L.).).J.P.).).J.C.G.Z.h.h.Z.Z.C.G.h.h.G.h.Z.).).).).).).P.P.).).P.P.OXOX@X@XOX).OXL.C.s.a.3.:.+.U B S , + . ! JXVXNXjXK.C.<.B.f.f.<.<.<.1.4.1.K J L T X.q.t.q.i.X.W F r e L } | F e e H I } o.| X.X.....=.:.1.=.$.:.1.1.X.A.^ M S D & & , v.cX6XiXT.4.f.Z.H.H.^.).^.H.H.P.).J.J.).).H.L.f.( <.f.Z.f.<.<.f.p.p.H.).).L.).).f.,.D.Z.L.F.'.M.' 4.L.h.G.h.K.R.@.M Z z ",
"MXZXVXBX{.{.(.[.=X=X[.[.[.+X+X+X=X[.[._._._.).`.[.[._._.[.[.^.g.^.^.H.H.H.^.^.H.^.`.^.Z.Z.^.].].].[._.`._._._.}.Y.H V j #   v 9X6XzX>XM.O.3.B.S.Z.( <.(.Z.C.L.G.L.).XX).XXOXXX).).h.p.h.G.).H.p.h.l././.).).)._.L.h.f.f.f.Z.!.g.a.F.( ( <.D.}.T.M U 6 *   A HXqXtXW.O.+.1.K Y ) =.>.2.5.5.5.5.5.B.f.5.5.5.g.B.V.4.' :.B.4.5.y.$._ -.2...J _ 1.| ;.-.-.:.>.2.4.5.f.5.5.4.y.A.o.= - O , > v.PXLXLXkX#X{.s.( ( ,.aXhX&XK.s.N.].,.] s.[ G.@XP.J.J.).H.h.p.p.a.p.C.L.G.h.h.J.J.H.G.J.J.P.).*.<.^.(.Z.Z.h.H.D.A.t = * $ + 2 :XGXlXCXY.` a.F.F.F.L.S.4.>.:.4.5.>.>.5.2.2.4.=.` :.2.>.2.B.4.>.5.B.B.f.g.B.B.B.B.5.5.5.5.V.4.4.5.B.5.4.<.B.4.1.2.w 0 6 & X < :XMXMXVXOXP.).H./.H.G.H.l._.)./.H.l.l.G.H.H._.^.H.H.H.H./.XX).).P.).OX@XrX&X&X%X%X@X&X&X$XOX$XrXhXdXdXdXdXdXhXaXyX#.S h = X b cXmXiXbXL.Z.Z.Z.Z.Z.Z.F.Z.F.F.F.F.F.F.F.Z.C.B./ ` B.[.(.F.^.^.^.^.F.Z.Z.Z.B.4.B.B.B.4.>.:.<.B.V.B.B.S.S.B.f.4.1.N C B < o @ < 1X6XeX3XM.R.E.E.h.P.XXP.H.).).G.G.C.h.f.h.G.Z.h.Z.p.h.C.h.Z.)._.P.P.).).P.P.).OXP.OXOXOXOXOXOX).).J.C.N.a.,.3.e.U m S , & . ! LXMXNXjXK.Z.a.D.f.Z.,.<.4.1.4.r.| K J I } X.i.X.} I H e r H | X.o.T I P F H } o.} ..X.;.| | -.1.:.=.:.1.1.X.t.H w S D & $ , v.0X6XxXT.3.4.Z.Z.H.)./.).P.).).).J.J.P.).G.H.<.( 4.B.B.B.<.a.f.p.k.^.).).).).(.a.,.a.C.L.F.L.<.' f.Z.Z.G.h.C.K. .t Z z ",
"MXZXVXBX{.].(.[.=X=X[.[.+X+X+X+X=X[.[._._._.).`.[.[.[._._._.^.g.^.H.H.H.H.H.H.Z.H.^.^.Z.Z.^.[.].].[._._._._._.}.S.H V j * X v 9XlXuXW.e...3.B.Z.Z.( <.`.Z.C.L.G.G.P.).).XXOXOX).).h.p.h.H.).^.k.k.j././././.)._.J.h.f.f.g.Z.!.f.4.L./ s p.C.L.T.M U 9 *   A HX8XeXW.O.O.2.Y a / =.:.2.y.B.B.4.4.B.g.5.5.g.g.V.V.S.%.>.V.4.y.V.:._ ..2.-.K ) 1.| ;.;.-.=.:.>.>.>.f.5.5.2.y.A.o.= - O , . v.PXLXLXBX%X#XD.] ( a.aXaX&XI.d.a.].,.` p.[ G.OXP.J.J.XXh.p.p.p.a.a.C.(.Z.p.p.h.H.z.z.P.J.P.).*.*.^.^.Z.C.a.D.C.A.M = $ $ + 2 :XGXyXCXR.` a.F.S.S.F.B.4.:.:.>.4.:.>.5.5.2.2.=.` :.2.:.>.B.5.>.5.B.B.B.B.V.V.B.B.5.5.5.5.B.B.4.5.V.B.>.:.V.<.1.2.w 0 8 & X < :XJXVXBXOXP./.G./.J.H.H.l._.)./.H.l.l.G.H.H._.^.G.G.H.H./.XX).).P.).OX@XrX&X&X%X%X@X&X&X$XOX$XrXhXdXdXdXdXdXhXaXyX#.S h $ $ b cXmXiXbXL.Z.Z.^.!.Z.Z.Z.Z.F.F.^.^.F.F.Z.g.4.4.s >.(.}.`.F.^.^.Z.Z.Z.B.B.V.B.5.B.B.B.4.>.:.4.F.B.B.B.B.B.B.4.4.q.U S b , O @ < 1X6X3X3XN.R.E.E.a.J.).P.H.P.L.G.G.h.f.p.h.G.Z.h.G.f.h.h.h.C.).).J.P.P.P.P.P.XXXX).OXOXOX).).OXOXP.J.C.N.4.:.3.N.U m B , & . ! IXmXNXjXK.Z.a.Z.B.F.<.<.4.>.4.t.-.J I W W T I L L u e r e I X.-.} X.X.W x F } o.T ) | .._ _ =.1.2.1.2.1.1.| r.H w S D & o , v.8X6XxXD.>.4.Z.Z.H.).).)././.XXXXJ.J.J.).C.G.*.d 4.B.B.B.f.f.f.p.f./.).).).).(.p.] a.g.L.Z.F.>./ B.C.Z.G.h.C.D. .t Z j ",
"MXVXZXNXrX].[.+X=X=X[.[.[.+X+X+X+X[.[._._._._.).).).`.(.[.[.^.h.h.Z.H.Z.Z.^.`.^.`.^.L.L.(.`.`.(.[.[._.`.`.`._.}.Y.U V j # X v 0XcXuXW.+.O.B.B.^.g.&.g.H.H.L.Z.L.P.P.OXOX].].).).].h.h.G.G.G.G.h.j.H.H./././._._.G.s.p.h.Z.f.g.Z.a.L.] d p.(.].N.U Z 9 =   S FXcXxXW.M.e.4.O.K i Y 2.2.>.B.V.4.5.f.g.B.B.g.B.B.V.V.>.:.4.4.y.5.>._ =.2.-.Y Y | | | -.1.:.:.>.4.>.B.g.5.2.2.w.W 6 # X 2 > v.PXLXLXjXE.{.C.' ` F.hXsX$XK.a.M.M.4.B.G.,.G.OXOXP.G.P.G.x.,.p.p.h.L.L.H.C.k.p.h.H.J.J.H.J._.[ p.Z.^.F.g.<.a.F.W.U j = o & O :XGXxXbXR.] >.B.F.F.F.B.:.4.' :.B.4.>.4.:.` -.y./ :.=.:.4.B.y.5.5.5.y.B.B.B.B.B.B.5.5.5.5.y.y.>.:.5.B.4.5.B.f.A.r.L 0 g & o 1 qXMXVXZX%XJ.H.H.H.H.H.H.J././././.H.G.l.H.H.L.C.h.H.).)././.J.J.).).@X&XrX$X&X&X&X@X&X&X&X#X&XrXhXdXdXfXfXdXaXaXpX#.S f $   n cXmXxXbXL.F.Z.~.Z.Z.Z.Z.F.F.F.F.^.F.Z.V.B.>./ / B.}.'.Z.`.`.^.^.Z.Z.B.B.g.4.<.<.Z.B.:.:.<.4.B.B.Z.B.B.S.B.>.....U V S 3 O , 4 1XvX>XW.N.{.R.K.G.J.J.H.).L.J.G.h.C.f.<.f.f.f.Z.Z.p.<.p.h.G.H.L.P.J.J.J.).XXXXXXP.OXOXOXXXXX).P.G.).C.a.3.] 3.e.M B S , + . ! JXmXNXsXD.L.g.Z.C.Z.j.g.4.4.B.y.r.p ..q.} u e F J e e J } ..q.q.| X.-.X.} J H I o.| ..;...=.=.1.1.:.:.-.-.w.2.I q B D & $ , ;XcX,XxXR.O.<.C.g.^.).).G.G./.XXJ.J.XXJ.P.H.p.] ` 4.F.Z.f.<.p.<.<.f.H.L.).(.+XL.,.,.,.Z.f.L.'.>._ 4.Z.h.h.C.K.M.^ t { z ",
"MXVXVXjXpX{.].[.=X=X[.[.[.+X+X+X+X[.[._._._.).).).).`.`.[.[.^.h.h.j.H.Z.H.^.^.^.^.L.Z.L.^.`.'.`.'.]._.`.`.`._.}.Y.U V j # X v cXvXuXW.3.3.D.B.F.g.&.g.H.Z.H.Z.L.L.P.].OX].).).).L.p.p.C.H.H.^.G.j.H.H.).).).)._.G.s.p.h.j.f.g.Z.f.Z.( ( h.(.].D.U N 9 *   S FXcXxXW.M.r.r.:./ a a _ =.>.5.y.4.4.5.f.B.B.B.B.B.B.F.>.=.2.4.5.5.4._ =.2.-.K Y | | ;.1.1.=.=.:.>.>.5.5.5.2.2.t.o.6 # X 2 > v.PXLXLXfXK.L.a.' :.F.aXjXrXR.d.a.4.B.L.K.,.G.OXOX).G.P.h.p.p.p.f.C.L.L.G.h.h.h.h.H.J.J.H.J./.[ f.Z.(.~.g.<.4.D.Y.U j = o & O :XGXxXsXW.:.,.D.F.S.F.B.<.4.` :.B.4.>.4.>.:.1.y./ =.=.:.2.B.B.B.5.5.5.f.f.y.B.B.B.5.5.5.5.5.y.>.:.5.5.4.5.B.f.S.r.L g g * o 1 qXMXMXBXOXJ.G.G.G.H.H.H./././././.H.G.l.H.H.L.G.G.H.).)././.P.).P.).OX&XaX&X@X&X&X@X&X&X&XOX@XrXhXdXdXfXdXdXhXaXyX#.S f $   n mXmXxXjXL.F.Z.Z.!.^.^.Z.Z.F.^.(.(.F.B.<.>.` / <.F.|.(.F.`.^.Z.Z.Z.Z.Z.B.f.4.<.<.B.4.&.:.>.4.B.B.B.B.B.S.B.:...X.U V S 4 o + 4 :XvXyXeXD.].K.C.G.J.P.P.).P.J.G.h.C.a.<.a.a.f.Z.C.p.<.p.h.Z.J.L.).P.J.J.J.).XX).J.P.OXOXXXXXXXP.G.).C.a.4.O.r.N.M B S , + . ! JXmXBXsXZ.^.C.Z.C.Z.Z.g.4.4.B.y.r.| 1.q.) p H ) ..-.| | ..| ..-...X.X.X.} I H L I | ....| | =.1.>.:.:.1.1.r.r.^ q B D & $ , ;XcX,XxXW.>.f.Z.f.^.^.H.l.l./.XXJ.J.XX).).G.a.&.] 4.V.D.4.<.<.f.f.h.H.].).L.].C.] ,.a.f.4.S.F.>.] B.(.Z.h.h.K.N.^ t C q ",
"MXVXVXjX#X].].[.=X=X[.[.[.+X+X+X+X[.[.)._._.).`.).).`.`.[.[.^.j.f.Z.Z.Z.Z.^.^.^.L.F.Z.Z.L.(.'.'.L.(./.`.`.`._.[.R.U V j # X b cXlXtX>Xe.3.F.B.Z.g.<.Z.H.Z.H.Z.L.L.P.).].).).).).J.,.,.C.L.).).G.h.H.)./.)./.)._.G.s.k.h.j.f.g.Z.B.B.( &.C.L.'.T.U V 9 =   S FXcXxXW.B.M.r.1.) a a a _ 1.4.y.B.y.5.5.B.V.V.V.B.y.~.>.` :.5.5.4.5.=.=.2.-.Y Y | | -.1.-.=.` =.:.:.4.4.5.2.w.t.o.0 # . 2 > v.PXLXLXfXK.K.4.' >.F.$XjXsXE.d.:.>.B.'.K.,.G.OXOXXXJ.J.h.p.h.h.p.G.).H.Z.h.h.h.G.H.J.J.H.J.).[ p.Z.(.(.f.<.,.a.M.M j = o & O :XGXyXsXR.:.<.B.F.D.Z.Z.4.4.&.>.5.>.:.>.>.2.1.2.Y $.>.>.4.V.B.B.5.5.5.f.f.y.y.B.B.B.y.B.B.B.V.5.5.B.5.5.V.B.f.S.r.P g g * o 1 qXMXMXVXOXJ.l.l.H.H.H./././.H.H.H.H.G.H.H.H.L.H.H.)./.)././.P.P.P.P.OX&XrX&X%X&X&X@X@X&X@XOX$XrXhXdXdXdXdXdXhXaXyX#.S h $   n mXmXNXNXR.F.Z.Z.H.^.^.Z.Z.F.F.F.B.4.>.` ` ..>.~.(.'.(.(.`.^.Z.Z.Z.Z.Z.B.f.4.<.4.B.>.` :.>.<.B.B.B.B.B.S.B.:...+.U V A 3 @ O 2 :XcXxXyXD.R.D.C.C.G.P.).).G.C.C.C.D.f.,.<.<.a.Z.C.a.,.p.h.C.G.L.).).J.J.J./.J.J.G.I.OXOX).XX).P.J.P.C.a.3.O.M.N.M B S , + . ! JXmXBXjXK.(.Z.Z.C.Z.Z.g.f.5.B.B.r.r.r.1.) K ) -.2.y.2.2.1.) ) ......X.X.| } I J J | | _ _ | =.1.=.>.2.2.2.t.r.^ r D l & o & n.cX6XxXW.<.B.Z.h.H.H.l.h.z./.XXJ.l.J.).J.h.p.:.:.4.B.Z.4.<.a.h.h.j.H.[.).H.].Z.[ ,.C.Z.f.F.S...` B.Z.H.h.p.K.K. .M m w ",
"MXVXVXjX#XL.'.[.=X=X[.+X[.[.+X+X+X[.[.)._._.).`.).).`.`._.[.^.Z.f.j.Z.Z.Z.H.^.H.^.L.Z.Z.F.L.(.'.L.(././.`.`./.].R.U V j # X b cXtXtXW.3.3.F.D.Z.V.<.Z.H.Z.H.Z.L.L.P.P.).).P.).).L.p.<.G.).).L.h.h.H./._.).J.).OXC.s.f.h.j.g.g.Z.Z.a.( <.L.K.R.T.N V 9 =   S FXcXxX{.A.M.M.3.` / ) a ) 2.2.4.S.B.f.f.g.B.V.V.B.B.F.4.` :.B.y.4.5.1.1.2.-.Y Y | ;.-.1.1.=.` =.:.$.>.<.5.2.w.t.8.g # . 2 > v.PXLXLXNXK.K.3.' <.L.}.hXaXL.,.] :.5.(.L.,.C.].].).J.J.h.s.h.p.p.C.).L.G.h.h.h.G.H.J.J.H./.).[ f.^.`.(.f.<.:.O.+.w j * o & o :XGXyXsXR.>.,.B.S.B.B.V.f.<.:.>.>.:.:.:.>.2.:.=.a _ 2.2.B.y.y.5.5.B.B.B.B.5.5.5.5.B.B.B.B.B.V.B.B.B.5.5.Z.B.5.S.r.P g g & X , 9XMXnXBXOXJ.l.G.l.H.H.^././.G.G.H.H.H.H.H.H.L.L.^.).)./././.J.J.P.P.OX@XrX$X%X@X@X%X@X&X$XOXOX&XhXdXdXdXdXdXhXaXyX#.S h $   b mXJXNXNXR.F.Z.Z.Z.Z.Z.Z.Z.F.F.B.>.` ' ) _ 2.S.'.~.F.(.'.`.^.Z.g.Z.Z.Z.f.<.<.<.4.<.:._ =.:.>.B.y.B.B.B.S.4.` | q.U B A 3 @ + , :XlXtX3XM.D.D.L.s.G.P.).L.C.h.h.C.Z.f.,.<.,.<.f.C.p.,.a.h.C.G.H.).).J.J.J././.J.G.P.OXOX).OX).P.L.L.N.a.,.] M.e.M B S , + . ! JXmXBXjXL.].Z.Z.C.Z.Z.j.g.f.B.B.r.B.y.4.:.-.1.1.1.1...:.:.` _ ..| | ....X...} I J } ) _ ) _ =.1.=.:.2.2.r.A.t.^ q k l $ o & v.cX6XxXW.>.B.L.Z.^.H.h.h.z././.J.z.z.J.z.p.<.<.4.B.B.B.4.<.f.h.f.h.Z.^.^.L.=X(.*.,.D.(.C.F.B._ _ a.g.H.h.f.K.R.@.M m q ",
"nXVXCXfX#XL.L.[.=X=X[.+X[.+X+X+X+X[.[.)._._.).`.`._.).`.)._.`.Z.f.Z.Z.Z.Z.^.^.L.(.(.F.Z.Z.Z.F.(.].[.`./.`.`._.}.Y.U V j # X v 0XlXtXW.+.3.F.Z.Z.g.<.H.H.Z.H.C.J.P.P.].P.).P.).].L.p.p.L.].).H.p.h.H./.oX)./.).OXh.s.f.h.g.g.g.g.L.4.( f.L.Z.R.N.M M 9 =   S FXcXxX{.D.M.M.4.=.` >.Y _ 1.=.2.S.S.B.g.5.f.B.V.V.V.V.5.$.=.B.B.>.4.2.=.1...K K | ;.| -.1.=.=.=.$.` >.<.5.4.w.t.o.g # . 2 > v.UXLXLXjXE.R.4./ 4.'.}.hXrXK.,.] :.<.F.L.d.G.I.P.).H.J.h.s.p.p.*.p.L.^.H.Z.f.h.z.H././.J.)._.&.f.^.(.(.B.4.] / ) w m 9 O & o :XGXyXsX'.>.:.4.B.B.B.V.B.<.>.:.:.:.$.$.=.2.:._ a Y 2.>.y.y.y.5.B.B.B.B.B.5.5.4.5.5.B.B.B.5.B.5.5.5.>.>.B.B.4.A.r.U 0 g = X , 9XMXnXBX#XJ.l.l.H.H.H.^././.l.l.l.G.H.H.J.H.L.^.).)./.)././.J.P.P.).OX&XrX$X%X@X@X%X$X@X#XOX].&XhXdXdXdXdXdXhXaXiX#.S h = X b mXJXNXNXR.L.Z.^.Z.Z.Z.F.^.F.Z.B.:./ / ) ..r.~.'.F.F.`.`.^.Z.Z.j.Z.Z.B.f.<.>.>.<.>._ _ =.` :.y.r.B.y.B.S.<.` ..q.U Z A 4 @ O , 1XlX>XW.3.N.M.C.C.J.).).L.C.h.h.h.D.B.4.<.,.:.a.D.4.,.a.C.C.C.L.).J.J.J.J.XXXXXXI.OXOXOXXXXX).P.J.G.a.a.O.O.D.M.M B S < & . ! JXmXBXjXL.].Z.F.Z.Z.Z.Z.Z.B.B.B.B.S.A.r.4.4.5.<.:.:.' _ =...` ..` X...| ....| I H Y ) ) ) | =.1.=.=.>.1.r.A.r.^ y k l $ o , ;XcX6XxXR.O.4.L.H.).H.h.h.z././.l.z.z.H.h.p.,.a.B.B.4.4.<.a.C.f.<.f.Z.)./.^.$XL.] ,.C.C.a.B.4./ :.Z.Z.H.h.C.L.K. .M N q ",
"nXVXZXjX{.K.L.[.=X=X[.+X[.+X+X+X+X[.[._._._.).`.`.[._.`.)._.`.H.f.Z.H.Z.H.^.^.L.`.(.F.F.Z.Z.F.^.[.[._./.`.`._.}.Y.H V j # X v 0XzXuXW.O.:.F.Z.Z.f.<.^.^.Z.H.C.G.).].].E.P.P.P.].C.,.p.L.].).H.p.h.H./._./.).)._.h.s.f.h.g.g.g.g.F.<.] B.L.Z.R.N.M m 9 =   S FXzXiXE.A.M.M.4.:.=.4.=._ =.=.2.A.A.V.g.5.5.B.V.V.V.B.V.:.$.y.B.>.4.1.=..._ J J _ .._ -.1.:.=.=.$.` :.>.5.4.2.t.o.0 = X 2 > v.PXMXZXfXE.R.,./ 5.'.}.sXrXL.3.O.:.4.S.D.,.G.I.L.P.H.J.G.s.p.p.*.,.G.).^.Z.f.f.h.H./.).G./._.&.f.^.~.~.D.a.:./ ) w V h O & o :XGXyXsX'.>.] ,.B.B.B.V.B.>.<.$.$.>.:.$.=.4.2._ a a 2.$.4.B.B.B.B.B.5.5.5.5.4.4.4.5.B.B.B.4.5.5.5.B.4.>.B.5.4.A.r.L 0 f = X , 0XMXnXkXOXH.H.H.H.H.H.H.^./.l.l.l.G.H././.H.H.).).H.H./././.P.).).).OX&XaX&X@X&X@X%X$X@X#XOXP.#XhXdXdXdXdXdXhXaXiX#.S h = X b mXJXNXNXR.F.Z.`.H.Z.Z.^.^.Z.B.$./ / / ..4.S.'.'.F.~.(.^.Z.Z.Z.j.j.B.f.4.<.>.>.>.:._ ` :._ ` y.B.B.y.B.B.<._ X.t.E B S 4 @ O 2 1XlX>XW.3.a.3.a.L.L.).P.L.C.C.C.p.C.B.4.<.,.,.a.D.4.,.a.C.C.C.H.).J.J.J.J.XXXXXXI.OXOXOXXXXX).P.G.s.a.N.,.,.W.D.M B S < & . ! JXmXBXjXK.`.Z.F.Z.Z.Z.Z.Z.Z.f.f.B.'.F.B.B.B.g.f.4.g.&.` &.` ` :.` -.X.| | | Y H e p K R ) _ =.:.:.=.:.1.2.u.r.I 0 k l $ o , ;XmX6XvXR.` 4.L.H.)./.h.l.l././.l.z.s.J.h.p.p.a.f.4.>.&.:.p.C.f.<.f.H.).[.L.).f.( ,.D.C.a.B.<./ >.F.Z.Z.h.C.L.K. .M N q ",
"MXZXZXjX{.K.L.[.=X=X[.[.[.+X+X+X+X[.[.).[.[.).).`.[.[.`.).).`.^.f.Z.L.L.H.^.(.L.(.(.L.Z.C.Z.F.(.].]._.`.`.`._.}.Y.U V j # X v 0XlXuXW.@.O.L.C.B.<.<.^.^.Z.H.Z.G.].OXOX].).P.P.).p.*.p.L.).(.Z.p.h.j.H././.).).).s.s.f.f.g.g.g.f.C.:.] C.H.L.].M.M m 9 *   S FXzXiXE.N.a.r.4.:.:.5.2.=.) -.2.r.B.V.g.5.f.B.Z.V.V.5.~.4._ 4.y.>.2.1.` | _ J J } -.;.1.2.:.=.$.%.( $.>.4.2.2.t.o.g * X 2 > v.PXMXVXiXK.C.] / B.}.}.sXhXE.3.] ` 4.(.,.] G.P.P.P.H.J.H.s.p.h.,.*.C.).H.Z.h.h.h.H.H.J.h.l.^.[ f.Z.(.F.f.a.>./  .w C f O & o :XGXyXsX'.>.( :.B.B.Z.S.B.>.<.$.` 4.4.$.=.2.2.` Y a 2.` 4.B.B.B.B.B.5.5.5.5.4.>.>.5.B.B.5.5.5.5.B.F.5.4.V.5.4.A.r.L 0 f = X , 0XMXnXjXOXH.H.H.H.H.H.H.H.H.H.G.G.H./.)./.H.H.).).G.G./.)./.P.J.H.H.P.@XrX&X&X&X&X@X@X@X$XOXL.#XhXdXdXdXdXdXhXaXiX#.S h = X n mXmXNXNXR.F.Z.^.H.Z.Z.F.Z.f.<.s / =.1.y.Y.'.'.'.'.F.F.Z.F.Z.g.j.g.f.<.4.<.<.>.:.` _ ` :./ _ B.B.B.y.B.B.>._ :.t.E B S l X + 3 :X8X4X3Xe.4.3.N.P.P.L.G.G.C.C.C.<.h.f.<.4.<.4.Z.Z.4.,.h.G.C.C.P.).).J.J.J./.XXJ.J.P.OXOX).XX).P.J.s.a.N.O.,.W.N.M B S , & . ! JXmXNXjXK.(.Z.F.Z.Z.Z.Z.Z.Z.f.B.B.F.F.Z.Z.Z.B.g.g.B.:.:.<.:.` ` ..........| Y p r r H R ) _ ` -.=.:.:.1.2.t.r.^ q D l $ o , ;XFXzXyXW.1.B.L.Z.).).l.l.J././.l.z.p.H.h.p.a.f.a.4.>.] &.<.h.h.p.f.Z.H.[.L.H.a.] a.D.L.Z.Z.<._ <.F.C.H.h.C.L.K. .M Z w ",
"MXZXZXjX{.K.L.[.=X=X[.[.[.+X+X+X+X[.[.).[.[.).).).[.[.).`.).`.^.f.Z.L.^.^.^.(.^.(.^.L.Z.Z.Z.L.'.(.(._._.`.`._.}.Y.U V j # X v 0XtXuXW.O.:.L.B.f.<.*.^.H.Z.H.C.C.OXOXOX].).P.P.).p.*.a.L.(.H.h.p.h.h.H.).).).P.H.h.h.f.f.g.B.g.f.B.&.` h.H.L.{.M.t m * *   S cXzXyXR.M.4.4.<.>.:.4.B.=.) 1.y.r.B.V.g.5.B.V.Z.V.B.5.|.y./ :.y.2.4.2...` _ K K | 1.1.2.2.-.` ` ` ( ` :.2.2.2.r.o.z * @ 2 . v.PXMXBXpXN.a.' / Z.}.'.hXhX{.3.' _ 4.'.[ [ G.OX).).H.J.).p.f.Z.p.*.f.].H.Z.h.h.h.H.H.G.p.h.H.( p.F.(.F.<.4.>. . .w B < O + o :XGXuXsXR.3._ O.B.Z.F.F.B.>.4.$.` y.5.$.=.1.2.` / a 4.=.y.5.y.B.B.B.B.B.g.5.4.>.>.4.5.5.5.4.4.4.B.F.f.4.V.f.4.A.t.U g g = X , 0XHXnXjXOXH.J.H.H.H.H.H.H.H.H.H.H.H.).)./.H.H.).^.G.j.H./._.H.G.h.s.G.).$X$X&X&X&X@X@X&X$XOXL.#XhXdXdXdXdXdXhXaXrX#.S h = X b cXmXbXjXR.F.Z.Z.Z.~.~.S.f.:.` s :.B.F.F.'.'.F.'.'.S.B.Z.`.^.g.g.f.<.<.<.4.4.<.` ` _ :.:./ ) B.B.B.r.B.B.>._ :.t.E B S l O O 4 ;X8XtX3X3.4.M.].P.H.C.h.h.h.C.C.,.f.a.,.<.4.B.(.G.p.,.h.G.C.C.P.XX).).J.J.J.J.J.G.P.OXOX).XX).P.P.s.p.h.] O.L.e.M m S , &   ! JXmXNXsXZ.(.Z.F.Z.Z.Z.Z.^.Z.f.B.V.B.B.S.F.F.Z.g.f.<.&.<.B.<.` ` ` ` ..X.-...) p r y u Y ) ) _ ;.=.>.2.1.2.t.r.^ 0 D k $ o , ;XHXzXtXW.a.F.^.h.)._.l.l./././.J.z.p.h.h.p.a.f.f.4.>.:.*.<.h.Z.f.p.f.f.^.).L.h.,.D.Z.(.Z.F.4._ 4.(.Z.H.h.h.K.K. .M N q ",
"nXVXZXNX{.D.F.[.[.=X[.[.+X+X+X+X[.[.[._.).)._._._._._.[.[._._._.j.Z.H.^.`.`.^.^.^.(.^.Z.Z.Z.~.'.F.L.`.).`.`.[.}.Y.H E f *   b 9XxXxXT. .:.Z.Z.<.[ p.H.G.z.H.H.l./.XXXXXX_.OX).L.a.] f.].Z.f.C.f.p.(.^.).).H.).Z.*.p.f.g.B.B.B.4.4./ ( Z.^.H.L.N.N B f = $ A FXwXyX{.a.<.B.4.$.4.B.5.y._ =.4.1.A.V.g.B.V.V.B.B.V.V.S.B.` $.y.2.5.:.4.=.) _ ) ) 2.-.-.1.:.=.` _ _ X.:.2.>.=.1. .z 9 X O @ v.PXnXfXrXK.,.( _ 4.'.].aXkXR.@. .O.B.S.' [ ].).$X/./.G.^.Z.f.Z.<.( f.H.H.f.h.Z.f.C.^.^.g.f.a.d a.L.S.F.4.M.1.) +.U B # O + + :XcXxXpXR.M.:.2.B.4.B.F.f.>.B.:./ r.r.-.2...=.2.) a :.2.:.5.4.>.2.5.V.V.B.B.5.>.>.5.B.B.5.5.5.5.5.5.g.B.V.f.4.A.w.L g g % o , 0XHXnXBX#XG.).H.G.H.^.^.H.j.j.H.H.^.^.).^.Z.Z.H.H.Z.Z.Z.H.^.h.G.p.,.P.hXaXOX&XOX%X&X@X&X@XP.G.&XhXdXfXfXdXdXaXaXpX{ C f $   b mXmXNXNXR.F.D.S.'.'.F.2._ Y / 2.y.S.F.(.'.`.^.(.'.'.(.F.Z.Z.Z.Z.f.4.4.y.4.4.2.-._ =.2.` _ 2.B.y.V.B.B.B.` ' 4.A.N Z A 3 & + 3 ;XlX>X3X3.3.D.L.Z.Z.Z.h.Z.H.C.<.<.F.f.4.a.4.B.f.L.a.<.h.C.h.G.).).).P.z.s./.XXz.P.].OXOXXXOXXX).).C.x.a.,.O.M.M.t m ! , O @ ! KXmXNXaXZ.Z.Z.'.Z.F.Z.Z.Z.F.V.B.5.B.5.B.F.~.F.V.F.5.4.4.4.4.2.2.2.=.;.....| _ ) R p y e J W } | ;.:.=.4.4.u.t.I w B h O o , m.FXzXuXR.D.H.^.^.L.).H./././././.l.l.H.H.h.*.a.Z.f.f.<.*.<.Z.Z.g.f.<.^.Z.^.(.f.,.h.L.L.<.f.4./ 4.}.j.H.H.h.C.K.@.t M q ",
"nXVXZXNX{.C.K.[.[.=X[.+X[.+X+X+X[.[.[._.).).)._._._._._._._._._.j.Z.Z.^.^.^.^.Z.^.(.^.Z.Z.Z.F.'.F.L.(.).`.`.[.}.Y.H E f *   b 9XzXiXR.O.<.F.B.,.[ p.G.G.z.H.H.l.J.J./.J.)._.].L.a.] f.].L.a.f.a.p.P.^.).).L.).Z.*.p.g.C.B.B.B.4.r._ :.H.H.G.K.N.N B f # o A MXwXiX}.B.4.B.4.$.<.5.4.y.$._ 2.2.B.V.V.V.F.F.V.B.B.V.V.V.` $.y.4.5.2.>.$._ _ _ | 1...-.1.1.=.=.=.=.X.X.:.:.$.:.) 0 6 X O X v.PXnXBXrXD.:.( ( 4.(.].rXjXK.O. ...B.S.' [ ].].XXJ.J.H.L.D.f.Z.<.( f.H.^.h.h.h.f.f.Z.Z.F.C.a.d B.'.F.B.4.:.) | t.U B < O + + :XcXuXpXR.B.X.:.r.r.B.S.B.:.4.` _ r.4.1.S.:.-.2._ a ..:.:.4.4.2.4.5.B.B.5.B.4.>.:.<.5.5.5.f.5.5.5.5.g.g.g.f.4.B.w.L z g % o , 0XHXmXBX.XG.H.H.Z.H.H.H.H.j.h.j.H.H.^./.^.Z.H.H.H.Z.Z.H.H.H.p.h.p.p.P.&X@XOXrX#X%X@X@X@X@XI.G.%XhXdXjXfXfXfXhXhXpX{ Z 9 $   b mXVXnXjXR.D.D.S.S.S.2._ Y ) ..A.F.~.F.F.^.Z.f.F.Y.~.~.F.Z.Z.Z.Z.a.<.4.r.4.2.1._ _ =.2.=.:.y.B.B.B.5.B.B.$./ <.N.N Z B 3 + + 2 ;XlX>X4XM.r.D.L.Z.Z.Z.Z.Z.Z.g.<.<.Z.a.4.a.<.f.a.H.p.p.h.G.h.z.P.P.P.J.h.s.J.XXH.P.].OXOXXXOXXX)._.G.p.p.*.[ M.M.t m ! < + @ ! HXCXjXaXj.^.Z.'.Z.~.~.F.Z.Z.F.V.V.V.B.B.V.V.V.B.B.B.y.5.4.2.1.1.1.-.-.;.......| _ p i u P W X.-.-.=.` >.1.t.t.I w B h o o , m.FXzXiXE.D.H./.).(.).H./././././.^.H.^.H.<.[ <.g.f.g.f.*.<.Z.C.f.f.p.^.Z.`.^.p.*.f.Z.H.f.f.<._ 4.'.Z.H.H.h.D.K. .t m q ",
"MXVXZXNX{.C.K.[.+X=X[.+X+X+X+X+X[.[.[.).).).)._._._._._._._.).].j.j.Z.^.^.^.Z.Z.^.(.^.Z.Z.Z.F.(.F.L.(.`.`.`.[.}.Y.H E 9 *   b 9X6XtXR.3.4.F.f.&.] s.G.G.z.l.H.l.z.l.H.H.)._.).L.a.] a.[.L.<.,.a.a.L.L.).).^._.H.*.p.g.C.D.B.f.<.4.` 4.^.l.h.K.D.M c f # o A cX7XiX}.B.4.B.4.:.<.5.4.V.:.Y =.r.y.V.g.B.~.'.~.B.5.V.V.V.=.$.5.5.y.4.$.` ` ) _ ;.-...-.1.1.1.:.=.:.X.1.1.:.$.:.) 0 6 X & X v.PXnXBXrXC.] ( ` 4.(.].&XjXK.[ ' ` B.S.' ] #X].XXH.J./.G.C.a.D.<.] h.H.(.Z.h.h.g.g.Z.L.(.C.f./ B.'.Z.,.<.) K 1.T.E k h O + + :XcXuXpXL.B.| ` 4.y.B.B.B.<.4.>.:.4.1.1.Y.r.-.2...Y ) ` 2.2.2.4.5.y.y.5.4.B.5.>.>.>.<.4.f.f.5.5.5.5.f.g.g.f.4.B.w.L z g % o , 0XmXnXNXE.h.G.Z.Z.Z.H.H.Z.Z.h.j.j.Z.^./.^.Z.H.Z.j.j.H.H.Z.Z.f.h.h.G.#X&X%XrXrX#X@X@XOX@X@XJ.G.@XhXdXfXfXfXfXhXhXpX{ Z f $ X n mXVXnXjXL.D.D.S.B.2._ K ) 1.y.A.S.F.F.Z.^.Z.Z.V.S.F.F.F.Z.Z.Z.B.4.<.4.4.1.X.| _ ` :.2.2.y.V.B.B.B.B.B.B.$.' :.N.M Z b 2 + O 2 ;XlX>X4XM.r.B.D.Z.Z.Z.h.Z.h.f.<.,.Z.4.4.f.<.4.4.F.p.p.h.C.h.h.).P.J.z.s.x.G.P.G.I.].OXOX).XXXX).OXH.p.p.] [ B.N.w m S < + . ! HXmXjXaXl.H.Z.'.Z.~.~.F.V.V.~.~.V.B.V.B.y.5.y.5.5.B.y.4.2.=.:.1.1.-.;...........| K p i u J T | ;.=._ :.:.r.r.U 0 B j $ o , m.FXzXiXE.C.H./.).(.).H././././././.)./.Z.[ d *.f.f.g.f.*.<.Z.g.f.f.f.H.Z.^.H.<.*.f.h.H.Z.f.:.:.a.F.Z.H.H.C.G.K. .t M q ",
"MXZXZXNXE.C.K.[.[.=X[.+X+X+X+X+X[.[.[.).).).)._._.).).).).).).].j.Z.Z.^.^.^.Z.Z.^.(.(.F.Z.Z.F.(.(.'.(.`.`._.[.}.R.H E 9 *   b 9X6XuXW.M.B.F.f.&.,.h.H.G.z.z.H.l.z.z.z.H.)._.).L.,.( <.].L.*.( p.a.L.L.).).^._.H.*.p.C.C.B.B.4.<.2.` 4.^.j.Z.L.N.M k f # X A cX7XiX'.B.a.B.4.>.<.5.<.S.2.a _ u.r.B.5.f.F.'.(.F.B.V.B.S.>.` 4.5.y.5.` =.=.Y Y ;...-.1.2.1.:.=.$...2.2.4.2.>.1.| 0 6 X & o v.PXnXBXrXM.] ( ` 4.L.].&XjXK.[ ' ` A.Y...O.#X].XXJ.).).Z.B.4.D.4.*.Z.H.H.Z.f.f.C.C.Z.].L.f.B.' B.'.F.,.:./ Y 2.Y.U z k $ O + :XcXzXpXL.B.| ) 1.B.B.B.B.4.<.:.>.r.:.1.S.y.=.2.-.Y Y _ 4.2.2.4.5.4.4.4.4.B.5.5.4.<.<.4.B.g.g.f.f.f.f.g.g.f.4.B.r.L z g % o , 0XmXnXfXE.s.h.j.Z.H.Z.Z.H.H.j.j.j.j.^./.^.j.Z.h.h.j.Z.H.Z.h.H.G.C.P.&X&X#XrXrX%X%X&X$X&X@XI.J.&XhXdXfXfXrXdXhXhXiX{ C h $   n GXJXnXsXL.D.D.S.y.:._ _ 1.A.'.A.S.F.Z.Z.^.`.^.V.S.F.F.Z.B.g.g.<.4.4.5.4..._ ) =.1.2.2.2.B.V.4.B.B.B.B.4.` ` 2.A.M Z b 2 + O 2 ;X1X<X3XM.r.M.M.C.h.h.g.g.f.a.<.,.C.4.f.B.<.4.a.Z.f.p.h.C.h.G.).).J.z.p.*.s.G.s.I.].OXOX).XXXX).OX).h.p.] [ B.M.t m S , + @ 7.HXnXjXhXH.H.Z.'.Z.B.Z.F.B.B.~.~.V.B.V.B.y.4.y.B.y.2.4.2.:.=.1.2.2.1.-.;.........| ..Y u u F P T _ =.` :.:.2.q.U 0 B k $ o , m.FXzXiXE.C.Z.^.H.L.P./././././././.).).h.d d ,.a.g.f.<.*.p.h.f.p.f.f.^.H.^.Z.<.<.C.Z.Z.L.4.` ,.B.B.Z.j.G.h.G.L.@.t Z j ",
"MXZXZXjXE.C.K.+X=X=X[.[.[.+X+X+X[.[.[.).`.`.)._._.).`.`.`.`.).].Z.Z.H.^.`.^.^.Z.^.^.^.F.Z.Z.F.(.'.'.(.`.`.`.[.}.R.U E f *   b 9XzXxX3XN.B.F.g.<.p.G.J.J.z.h.l.l.l.z.H.H.)._.L.D.( ( ,.(.L.] ( p.a.L.L.).).^._.H.*.p.C.C.B.a.4.<.>.` <.Z.j.H.L.M.M k f # X A cX7XsXR.B.B.f.4.4.<.4.4.V.5.a Y y.r.B.4.4.V.~.~.V.B.V.5.F.4.` 2.5.5.4.` :.:.Y a _ | -.1.1.1.:.=.` ` r.2.4.4.>.<.| 0 6 # ; o 9.IXnXVXpXM.( ( ` <.F.].&XjXK.O.' ` A.Y.1.O.].].+X/./.).C.B.4.D.a.<.H.H.^.^.f.p.C.g.C.].F.<.f.] D.(.L.4.:.:.:.r.A.U B h & O & :XcXzXpXR.B.-.) :.A.B.B.V.>._ / :.r.1.1.r.y...1.-.) Y ) 4.2.4.4.4.4.2.4.5.5.4.5.B.5.>.4.B.f.f.g.g.f.g.f.f.f.4.B.r.U z g % o , 9XmXnXfXE.h.h.j.Z.H.H.H.H.H.Z.Z.j.j.^./.H.h.j.h.f.h.H.^.H.Z.Z.h.a.K.$X$X#X&XrX%X@X&X@X&X@XP.I.&XjXdXfXfXrXdXaXhXiX#.~ h $   b HXJXnXsXL.D.B.B.2...=.4.A.Y.~.'.'.'.F.Z.!.H.Z.S.F.F.S.B.f.f.4.:.<.f.B.:.) ) _ 2.2.4.2.:.y.V.4.B.B.V.5.$._ &.B.A.N Z B 3 + + 2 ;X1X<X3XM.4.4.4.f.f.p.f.f.a.<.<.<.Z.4.f.B.<.a.a.Z.h.f.C.C.h.G.P._.P.J.s.x.h.H.z.L.].OX].).).).)._._.G.C.,.:.C.M.t m S & + @ 7.JXnXjXhXH.Z.V.'.S.5.V.Z.V.V.F.F.V.B.V.B.5.4.4.y.y.>.2.:.=.=.2.y.r.r.2.2.1.1.-.-...-..._ T W | | | =.` :.:.2.r.I z S k & o , m.FXzXiXE.C.Z.H.H.L.P././././.)./././.).h.d ' a.a.B.f.*.*.a.Z.f.f.f.a.L.L.^.g.,.a.L.L.h.L.<.' 4.B.f.Z.h.h.h.G.L.@.N C g ",
"MXZXZXfXR.N.K.=X=X=X[.[.+X+X+X+X[.[.[.).`.`.)._._.).`.`.`.`.).].j.Z.H.^.`.`.^.^.^.(.(.^.Z.Z.F.L.'.'.(.`.`.`.`.'.R.U E f *   b 9XlXxXW.M.4.5.4.<.h.H.J.J.z.h.H.^.J.J.J.J.)._.L.C.' ( <.L.L.] ( a.a.L.L.).).L._.H.*.p.C.g.a.4.4.<.:.` 4.Z.j.H.(.M.M k f # O A cXzXbXR.B.B.f.4.5.<.<.5.y.y.) K w.r.V.5.5.B.Z.V.B.y.F.5.F.5.' :.4.4.2.:.2.2.) p Y ..;.-.1.1.:.:.=.=.2.2.4.2.>.<.| 0 6 # ; X 9.LXnXVX#Xa.] ] ` ,.F.].&XkXE.@. ...A.Y.3.,.].).+XXXoX/.C.B.4.C.f.a.^.H.$X=XH.f.Z.f.a.(.Z.` <.:.D.L.L.D.:.5.B.B.A.E V h & O & :XcXzXpXR.B.r...=.B.B.B.B.B.:.` >.r.4.1...y._ 1.1._ / / 1.4.2.2.2.2.4.4.5.2.>.4.B.5.>.>.5.5.5.g.g.g.g.g.g.f.f.B.r.U z g = o , 9XmXnXjXE.h.h.j.j.Z.H.H.H.H.Z.Z.j.H./._.^.h.j.h.j.j.H.^.^.Z.f.p.,.C.$X&X#X&XrX#X@X&X@X&X@XJ.G.@XhXrXfXfXfXfXaXhXiX#.! h $   b HXJXnXjXR.C.,.` ` :.<.A.F.F.S.'.|.'.^.Z.Z.Z.Z.F.F.F.Z.g.f.4.4.:.<.f.4.` / ) -.4.2.4.2.2.y.V.y.B.5.B.5.( ' <.B.N.M Z b 3 + + 2 ;XlX>X4XM.4.4.a.<.<.<.f.f.<.<.<.4.Z.4.f.B.<.a.f.Z.h.h.C.C.h.G.L.).P.P.J.h.H.XXP.L.).OX].).).).).)._.H.G.a.,.C.3.t m S & + @ 7.JXmXjXhXZ.Z.f.F.B.f.g.V.V.V.B.B.B.5.4.2.>.=.` ` :.2.4.2.:.:.4.y.2.r.4.2.2.1.-.;...) ..-.-.w.w.-._ ` / $...2.t.{ V B k $ o , m.FXzXxXE.C.Z.^.H.L.)././././././.^.^.).j.d [ C.<.B.a.] *.f.Z.f.f.g.f.Z.L.^.f.,.f.^.L.f.C.:._ 4.Z.B.C.k.h.f.C.L.@.N C j ",
"MXVXZXfXL.a.F.=X=X=X[.[.[.+X+X+X[.[.[.).).`._.[._.).`.`.`.`.).].g.j.Z.^.`.`.^.^.^.(.(.^.F.Z.F.F.}.'.(.^.`._.`.'.Y.H E f *   b 9X6XuXW.3.:.:.:.<.h.H.).P.H.G.^././.J.J.J.)._.G.h.( ,.f.L.L.*.' p.a.L.^.).).L.).Z.*.p.C.f.4.<.<.<.:.:.B.H.h.H.(.M.M k f # $ A FXzXNXL.B.D.5.4.g.>.>.5.2.y.-.a X.r.B.5.g.V.V.B.y.y.F.4.~.y./ $.4.4.>.>.2.2.-.K J ....-.1.1.1.1.>.1.2.1.1.2.>.4.| 0 6 # ;   9.JXgXZX#Xa.O.:.] :.Z.].&XkXW.,. .` B.S.3.,.OX)._./././.C.f.<.B.f.a.^.Z.=X=XH.f.Z.C.f.].L.d ` ,.F.F.L.Z.>.B.B.A.T.^ V h $ + + :XcXuXeXK.t.A.1.` r.B.5.B.F.4.:.>.4.r.2._ r._ -.1._ _ Y _ 2.2.2.2.y.y.5.2.>.:.:.5.5.>.>.5.4.5.f.B.g.g.g.g.f.f.B.r.U z g = o , 9XmXnXNXE.C.C.h.h.j.H.H.Z.j.j.j.G.^._.+X/.j.j.j.Z.Z.Z.Z.Z.Z.*.p.p.G.$XrX&XrXrX#X&X&X@X@XOXG.G.&XhXrXfXfXfXfXhXhXiX{ C h $   b GXJXxXsXR.a.` d ` 4.Z.F.F.F.F.~.`.(.Z.Z.^.^.Z.F.F.S.B.f.4.4.5.4.4.2.:._ / ..<.r.1.4.B.y.y.V.B.B.2.4.4.` $.5.B.M.M m b 2 + + 3 ;XlX4X4XM.3.3.a.4.<.a.f.a.<.<.<.4.C.<.f.f.:.4.f.C.C.C.Z.C.C.G.L.).P._.).J.P.XXP.L.P.OX].).).).P.).).G.G.a.a.D.3.t m S & & @ ! HXnXjXaXh.f.4.S.B.V.f.5.B.5.:.:.4.4.:.:.>.=./ / =.4.y.5.:.:.4.4.2.2.1.1.1.1.-..._ ) ..-.-.w.w.-._ ` / ` ` 1.r.I c B k $ o , n.cX8XxXE.C.Z.^.H.L.).H.J././././.^.^.).Z.s *.Z.<.B.4.*.<.C.Z.f.a.g.f.g.Z.(.g.<.g.L.g.p.a.:.] a.F.Z.h.k.h.f.C.L.@.t Z j ",
"MXZXZXfXK.a.F.=X=X=X[.[.[.+X+X+X[.[.[.).`.`.).[._.).`.`.`.`.).].f.h.Z.^.^.^.^.^.^.(.(.^.Z.Z.F.F.}.].`.^.`._._.'.Y.H E f *   b 9X6XxX3XM.:.&.:.<.C.J.P.P.J.H./._./.J.J.J._._.G.a.( a.F.(.(.,.( a.a.).^.).).L.).Z.*.f.C.f.<.<.<.<.=.>.F.^.h.Z.(.N.M k f # $ A HXzXNXL.B.S.5.4.B.<.>.5.>.B.2.p | y.5.5.g.V.Z.V.B.B.F.4.~.B.Y ` 2.2.>.2.:.:.2.) a ;.;.-.1.2.2.2.2.2.2.1.1.>.>.4.| 0 6 # ;   7.JXuXZX{.a.:.:.] *.Z.+X&XkXE.3.` ` y.S.:.,.+X)./.z./.XXC.a.<.f.a.a.L.C.^.].f.*.Z.g.f.[.'.s / >.L.L.L.Z.<.<.<.B.Y.^ V h o X + :XcXtXeXD.r.S.2._ 2.B.4.B.4.$._ ` :.r.y.X.w._ 1.1..._ Y Y 1.1.2.4.B.B.5.>.2.=.=.4.4.>.>.5.4.5.5.B.g.B.g.g.f.f.V.r.U z g = X , 9XmXnXNXE.C.Z.h.h.h.Z.H.j.h.h.h.j.^.+X=X_.H.h.j.Z.Z.h.g.g.g.[ p.C.L.$XrX#X&X&X%X&X&X$XOXP.d.I.&XjXrXdXdXrXdXhXaXpX{ B 3 $ X b GXVXiXsXR.d./ s &.Z.'.'.~.'.'.(.`.^.F.Z.Z.Z.Z.F.F.Z.B.f.5.f.B.Z.4.:._ / _ :.r.r.1.y.S.B.y.y.B.B.:.>.>.$.>.B.4.r.t m n , + + 3 v.lX,X4Xe.O.3.a.f.a.f.g.f.<.,.<.4.B.<.a.f.:.<.f.C.C.Z.Z.C.C.Z.L.P.P._._.J.J.P.J.L.).OX).)._.).P.).).C.C.a.a.D.3.w q S , 2 @ ! cXmXsXaXf.4.>.A.B.F.5.<.5.>./ / $.B.>.2.B.5.` $.y.2.y.5.>.2.y.y.2.1.1.2.2.2.1.-._ -.1.-.;.-.1.2.=.$./ ` _ -.1.H w B h $ o & n.cX6XiXE.C.h.H.G.H.L.G.H.J././././.^.).Z.s *.Z.:.B.a.<.a.Z.Z.a.p.g.f.f.Z.`.Z.<.g.Z.<.p.<.:.:.B.L.(.h.h.h.h.C.K. .t m j ",
"MXVXZXNXR.N.L.$X=X=X[.[.[.+X+X+X+X[.[.)._._._.`.).).`.H.H.^.`.^.g.Z.H.`.`.^.^.^.`.`.(.F.Z.Z.F.F.].}.[.).^.^.`.}.Y.H V j = X v 9XlXeXyXN.B.>.<.g.L.G.H.J.z.G./._././.J.J._.OXG.d.' <.'.[.C.] ] a.a.).).).).L.).j.<.f.<.*.<.f.<.>._ <.Z.j.j.H.K.N.m z f # X A cXzXsX'.B.B.B.f.5.4.5.5.2.B.=.a ..1.5.V.B.5.V.Z.B.V.V.5.S.B.` ` 2.:.>.2.=.=.r.-.K Y ;.1.2.1.1.2.2.1.4.1.2.4.<.2.| 0 = X & X 9.MXMXBX#XB.,.,.:.] 4.L.hXjXrX@. ...B.r.^ @.{.$XH.J.oX).Z.C.a.F.f.,.H.^.H.h.<.<.C.g.f.L.].s i 4.'.'.L.D.Z.] B.B.T.U V f $ & + :XcX7XpXD.4.A.1.` =.<.S.4.B.` ` >.X.1.4.| ;.-.-.-.-...) J ..:.1.-.=.2.5.5.:.:.:.:.:.:.>.>.4.5.5.B.B.B.B.g.f.f.B.u.H V g & O , 9XHXmXNXE.a.h.j.j.H.H.Z.j.h.j.h.h.H.+X=X_.j.^.f.f.f.Z.Z.f.g.f.L.K.D.OXaXrX#X%XrX&X%X@X@XXXG.I.&XhXrXfXfXdXfXaXhXiX#.C h $ X b GXmXuXbXM.' s <.f.V.^.`.'.(.~.`.^.Z.Z.Z.Z.Z.Z.Z.Z.B.B.B.f.B.B.S.<._ ` :.>.<.r.y.y.y.4.2.4.y.B.2.5.>.' ` 4.V.B.A.N m v , 2 : 2 ;X<XW.4X3.O.3.,.B.Z.Z.a.,.<.4.4.B.f.f.a.<.<.<.f.g.L.f.Z.f.Z.p.Z.).).P.J.h.h.G.).G.I.P.P.OX@XOXJ.H._.).h.<.4.a.a.t m S & + @ S FXmXsX$X4.f.5.A.1.:.g.g.$.d $.5.B.V.V.B.B.y.4.5.y.5.>.:.4.y.2.2.4.y.2.y.B.y.y...=.` ..;.-.i.w.r.y._ =.$.' ..) M 0 B b o X 2 m.0X6XiXK.h.H.^.^.).L.H.G./.l.G.).Z.H.[.*.*.<.f.Z.4.4.<.f.D.C.f.4.f.B.B.Z.(.B.&.a.Z.,.f.Z.] :.F.F.Z.g.h.h.h.L.R. .t C k ",
"MXVXZXNXR.N.L.$X=X=X[.[.[.[.+X+X+X[.).).)._._.`.).).`.H.H.^.).`.g.Z.H.^.`.`.`.`.`.`.(.F.Z.Z.Z.F.'.'.`.`.`.`.[.}.'.U V j # X v 9XtX7XyXM.4.:.:.g.H.G.J.J.z.G././././.J.J.)._.C.,.( <.(.].C.*.*.a.a.).).).).L.).h.<.f.p.<.a.f.<.<./ <.B.h.h.G.D.M.m z f # X A cXzXbX'.B.B.Z.B.5.5.5.5.5.V.=.a | :.5.B.f.4.B.V.B.B.V.5.S.V.$.` >.2.>.4.:.=.y.1.Y K | -.1.2.2.4.4.2.1.X.:.>.>.<.| 0 * O & X 9.MXMXVX{.B.,.a.4.:.,.C.rXhXrX@.` ..B.r./ ,.{.@XG.H.XXJ.C.B.a.Z.a.,.H.^.^.Z.<.<.C.g.f.Z.(.s a f.L.F.F.Z.g.( Z.Z.R.U Z h $ & o :XcX6XpXD.2.A.-._ ` >.Z.4.B.<.>.>.:.1.2.1.;.-.;.;.;.;._ Y ` :.2.:.:.1.2.4.2.2.2.2.>.>.>.>.4.5.g.B.V.V.V.B.f.f.B.u.L V g = o , 9XmXnXjXP.a.h.j.Z.H.H.j.j.h.h.j.Z.H././.H.j.^.f.g.f.f.h.<.f.Z.L.D.D.#XaX&X#X%XrX&X%X@X@XXXG.I.&XhXrXfXfXdXfXaXsXiX#.C h $ X b FXmXxXiXO./ ] f.B.Z.^.`.`.^.^.`.^.Z.Z.Z.^.F.Z.Z.Z.B.B.B.B.B.B.S.<.` :.4.4.4.<.4.r.4.4.4.5.y.B.2.4.:.` :.B.Z.B.N.M m j & & : 2 ;X<XW.4X1.' O.:.B.Z.C.4.<.<.4.<.B.f.f.f.f.<.<.f.f.Z.f.Z.C.H.p.C.].).).H.h.s.h.P.L.P.OX).XXOX).J.G.).^.C.p.f.M.a.t m S & + @ ! HXmXsXpXa.B.4.u.X.$.5.B.>.$.<.B.V.V.V.B.y.y.y.y.5.5.:.$.>.y.y.4.2.2.2.A.2.=.=.=.y.=._ ) | i.u.u.y.=.:.$.$.3.X.U w B n o X 2 m.0X6XiXK.h.H.H.).).L.G.z./.l.h.H.Z.H.[.<.<.f.C.F.f.a.4.B.Z.Z.f.f.f.B.Z.Z.F.f.*.a.Z.4.f.Z.&.:.D.B.Z.Z.h.h.h.L.R. .t C j ",
"MXVXZXjXR.N.L.$X=X=X[.[.+X+X+X+X[.[.).`.).)._.).).).^.Z.Z.^.).).g.Z.H.^.`.`.`.`.`.`.(.F.Z.Z.Z.F.'.L.L.^.`._.[.].R.U V j #   v 9XtX7XeX3.4.:.<.h.G.G.J.J.z.G./.H./.XX/.J.).).h.,.] a.(.'.C.<.<.a.a.).).).).L.).h.*.f.f.f.D.B.4.r.) <.C.h.h.G.D.M.m z f # X A cXzXNX].B.B.Z.B.5.5.5.5.5.y._ i Y ` 4.g.5.4.g.B.5.B.V.5.V.F.>.` :.5.>.5.2.:.r.w.) a _ ..1.2.2.4.4.2.1.....:.>.4.| 0 * # & o 9.GXMXBX{.M.3.B.B.<.:.a.rXhXrX@. ...y.4./ 3.{.@XG.z./.H.h.a.4.B.4.,.H.H.^.Z.p.<.C.C.a.f.L.d d D.L.D.F.L.<.' Z.F.{.^ C h $ , + :XcX6XpXD.1.t...) ) :.B.f.B.B.>.=.1.1.1.2...-.;.....-.;._ _ -.2.2.1.1.1.1.4.2.2.2.2.2.2.2.4.4.5.B.V.V.V.V.g.g.B.t.H c g = O , qXMXzXfXP.d.C.Z.H.H.H.Z.j.h.h.Z.H.H.j.h.f.h.G.p.f.p.f.h.<.h.L.C.,.N.$XrXrX&X%X&X&X%X@X@XOXG.I.&XhXrXfXfXfXfXhXsXyX{ S f $ X v cXmXuX{.^ / B.S.F.^.(.(.^.^.^.^.^.^.^.^.^.F.Z.Z.B.B.g.B.B.B.B.4.:.` >.4.y.<.>.r.r.4.r.y.y.y.y.4.2.:.:.5.F.F.B.M.t j h & + : 2 ;X<X<XyX1./ ` 3.B.B.f.4.<.<.<.<.C.g.g.g.f.<.<.f.f.F.f.F.Z.L.a.h.).).).L.h.s.h.G.P.].OXOX).).).J.G.H.H.C.C.Z.D.M.N m S & + @ ! HXxXiXpXf.B.4.t.| ` <.B.4.4.B.V.V.V.S.V.5.y.B.B.4.>.>.:.:.4.5.5.>._ ` :.Y p Y Y _ 1.-...-.w.y.u.y.4.>.` :.B.r.I e B k o X 2 m.0XzXuXK.f.H.H.).].P.h.h.^.j.h.H.h.G.[.<.<.f.Z.F.a.4.f.B.S.Z.B.f.B.B.S.B.B.a.>.a.Z.f.f.C.&.:.f.f.Z.Z.h.h.h.L.R. .t C g ",
"MXVXZXNXL.N.L.+X=X=X[.[.+X+X+X+X[._.`.`.).)._._.).).^.Z.Z.`.[.[.Z.Z.^.^.(.^.^.`.(.(.(.F.Z.Z.Z.F.L.L.(.`._._.[.].R.U V g #   v 9XtXeXyX3.<.:.<.Z.G.G.J.J.h.G.^.H./.XX/.J.).).C.,.,.C.(.(.Z.a.a.a.a.).(.).).L./.f.<.f.C.Z.F.B.4.B.` 4.Z.Z.j.G.D.M.z z f # X A cXzXNX].B.B.S.B.5.5.5.5.5.y._ i Y ) 4.g.f.4.g.B.B.V.V.5.V.F.4._ $.5.=.4.2.:.w.r...a R | 1.1.2.4.4.1.t.1.=.:.>.4.| 0 6 # & o 9.GXMXnX#XM.,.a.Z.4.,.d.rXrXeXO. .` 4.1./ M.+X+XG.z.z.H.h.a.4.B.<.:.H.H.^.H.p.<.C.C.f.f.L.d d D.L.D.Z.Z.&.d g.(.{.^ Z 9 o , o :XcX6XpXD.1.y.-._ / ` B.B.f.B.:./ -.:.| 1.-.-.;.| | -.-.;.) ..1.2.1.=.:.1.2.2.2.2.2.2.2.2.:.>.4.5.B.B.B.g.g.g.B.t.L c g = O , qXcXgXfXP.d.G.H.H.H.H.Z.j.h.j.Z.H.H.h.p.p.h.h.p.f.p.f.Z.g.L.B.] ' a.$XaX#XrX%X&X&X%X@X@XOXG.I.&XhXrXfXfXfXfXhXaXtX{ B f $ X v FXcX>XW.' O.F.L.^.^.^.^.^.^.^.^.^.`.`.^.F.Z.B.g.B.B.f.B.B.B.y.` ` =.2.4.4.4.<.y.r.4.y.y.y.5.4.4.4.4.4.V.F.F.B.M.t q h & + : 2 v.2X<XyX3./ O.B.B.f.4.<.<.<.<.<.C.C.C.Z.g.p.<.p.f.Z.f.Z.C.Z.<.f.L.H.H.G.h.s.h.G.G.I.].OX).).XXOXH.H.G.h.C.L.F.M.N m S & + @ ! HXzXiX$Xa.y.r.t...` <.5.4.5.V.V.5.V.V.B.4.5.S.V.4.$.5.B.4.>.<.4.:.:.2.4.` _ =.Y p / ` -.2.1.2.2.2.5.&./ :.D.t.I w B k $ @ 2 m.cXzXuXK.f.H.H.).].P.h.h.^.j.h.H.C.H.].,.<.f.B.Z.4.<.f.B.Z.D.B.f.B.B.S.B.4.4.<.4.B.B.f.a.` :.B.B.F.Z.h.l.h.K.R.@.t N j ",
"MXVXZXNXL.a.L.+X=X=X[.[.+X+X+X+X[._.`.`.`.).).).).`.`.Z.H.`.[.[.Z.H.^.`.^.^.^.^.(.(.(.^.F.Z.Z.F.F.'.[.[.`.`._.}.Y.U V j # X v 9X6XeXeX+.1.>.4.Z.H.H.J.G.h.l./.^.J./.).J.).).G.a.a.K.].L.C.f.f.p.a.L.(.).).L.).k.<.h.Z.Z.F.B.f.B...B.F.Z.j.G.D.e.z z f # X A FXzXbX'.B.B.Z.B.5.5.5.B.y.B...a ) / >.g.g.4.g.B.5.B.V.B.B.F.y.` _ 2.:.2.4.:.1.2.;.a Y _ -.:.1.2.>.:.t.1.=.:.>.4.| 0 6 # & o 9.JXMXgX#XM.] 4.B.f.a.a.rXrXrX] ' / 1...' C.+XOXH.l.H.J.h.f.4.a.,.,.H.H.^.H.p.<.C.Z.B.g.(.d s B.'.F.F.C.&.s g.(.3X^ Z < o & o :XcX,XpXD.1.A.1...) _ f.B.f.B.` / ..-._ ..-.-.-.| | ..-.;.R _ -.1.1.1.:.1.2.2.1.1.:.2.>.>.:.>.4.5.B.B.B.B.g.B.B.A.L c g = o , qXcXgXfXP.d.G.H.H.H.H.Z.Z.j.H.Z.Z.Z.h.p.k.h.h.p.h.f.f.Z.Z.(.<.' d a.rXaX#XrX%X&X&X%X@X&XOXG.P.&XhXdXfXfXfXfXhXaXtX{ B f $ X v GXcXW.R.3.M.F.(.^.^.^.^.^.^.`.^.^.`.^.Z.Z.B.f.g.B.B.f.B.B.B.4.) ..2.4.4.4.B.B.B.y.y.y.y.y.4.:.4.4.4.5.B.V.V.S.N.M j h & + + 2 v.<X<XyX3./ O.N.f.4.<.<.<.4.4.4.Z.C.Z.Z.h.a.<.p.f.Z.4.B.f.Z.<.f.h.h.h.C.h.p.f.h.C.G.P.OXXXXXXXOX).P.C.p.C.L.K.M.U Z S & & @ ! FXzXyX#X4.4.4.A.1.:.<.5.4.f.V.V.5.B.B.5.4.y.S.V.4.$.5.V.5.4.B.y.:.>.4.F.y.y.S.-./ a a K ) ;.1.2.1.5.&.d ` A.t.I r B k $ @ 2 m.0XzXuXK.h.H.H.).).P.h.h./.G.C.H.Z.H.(.*.<.a.B.B.<.<.f.B.B.B.f.f.f.B.F.D.a.4.4.a.f.B.a.,.' <.B.D.(.h.h.l.h.G.L.@.t Z j ",
"MXVXZXNXL.a.L.+X=X=X[.[.+X+X+X+X[.[.`.`.`.).).).)._.`.^.^.`._.).Z.H.^.^.^.Z.Z.^.(.(.(.^.F.Z.Z.F.F.'.[.[.`.`._.}.Y.H V j # X v 9X6XeXyX+.>.<.f.Z.H.J.J.z.s.G._.^.H./.).J.).).G.p.a.L.].F.f.f.f.<.4.L.L.(.).L.^.p.p.Z.Z.C.S.Z.B.4.:.B.F.Z.h.G.C.e.z j f # X A MXzXsX].B.B.Z.B.5.5.5.5.4.y...a ) K =.5.f.4.g.f.5.B.B.B.B.V.B.=.' :.4.4.4.2.;.-...K K ) ..=.-.:.:.=.2.X.` =.>.4.| 0 6 # & o 9.GXnXfX$XM.] ,.g.f.f.D.rXhXrX] ' / -.) ..K.+X].).H.l.).C.C.a.a.:.,.L.H.H.H.f.p.C.Z.C.Z.].d a B.'.F.F.B.*.s f.(.{.^ m < o & o :XcX,XpXD.1.A.r.1.` _ 5.B.B.B.>._ ..:.-.X.-.1.-...| ..;...) ) _ -.1.1.1.1.1.1.1.1.:.:.>.>.>.4.5.B.B.B.V.B.g.B.B.A.H c g % o , qXMXzXfXE.d.G.j.G.G.Z.G.Z.j.H.j.j.H.j.f.h.Z.Z.h.Z.f.g.L.B.Z.,.' / N.aXaX#XrX%X&X&X%X@X&XOXG.I.&XhXdXfXfXfXfXhXsXyX{ S f $ X v FXzXQ.W.D.D.F.(.^.^.^.^.^.^.^.^.^.`.^.Z.g.f.f.g.j.B.f.B.B.y.1.) -.4.<.<.4.B.S.B.B.y.y.y.4.2.>.2.>.>.5.B.5.B.S.M.M m h & + + , v.<X>XyX1./ O.3.4.<.<.<.<.<.4.f.Z.Z.Z.Z.h.a.<.p.f.Z.<.f.f.Z.<.f.f.p.a.f.p.p.f.h.C.G.P.OXOX).).XX_.P.h.p.h.K.F.M.U Z S $ & @ ! FXvXiX{.>.>.2.A.2.4.5.5.5.g.V.V.B.B.4.:.2.B.V.B.5.4.5.5.5.F.'.F.>._ >.F.B.r.B.r.B.>./ u p | 2.2.=.5.>.( ` B.t.I 0 B n & o , n.0XzXiXK.h.H.H.^.).L.C.G._.H.Z.H.C.H.(.*.<.a.B.B.4.4.a.f.f.f.a.a.f.f.Z.F.B.,.4.f.f.C.a.] ( 4.Z.Z.(.f.h.G.Z.G.L.@.t Z z ",
"MXVXZXjXL.a.(.=X=X=X[.[.[.+X+X+X[.[.[._.).[.).).`._.`.^.^.`.).`.j.Z.H.H.^.^.^.^.^.(.(.^.F.Z.Z.Z.F.L.(.`.`.`.[.}.Y.H V g # X v 9XtXuXiX3.4.4.B.H.G.J.P.G.h.H._.^.H./.).J.).).C.a.,.K.(.C.<.f.f.p.p.L.L.(.).L.^.<.<.H.(.B.S.F.f.:.1.S.^.Z.j.G.D.M.z j f # X A MXzXbX{.B.D.F.V.B.B.5.5.2.5.=.) | Y $.5.g.5.B.g.5.5.5.V.y.y.S.4.` :.5.>.4.4.....-.| J R _ ..-.:.>.:.2.X...:.>.2.| w 6 X O o 9.GXgXrX#XM.] 4.B.f.f.C.rXhXrX@.' / -.) O.L.].P.).J.l.).G.F.a.a.:.,.^.H.Z.^.Z.f.C.Z.C.Z.].d s a.L.F.F.B.<.d g.(.{.U m 9 o & o :XcX>XpXD.1.S.B.4.../ 4.B.B.B.B.>._ -.2.1...-.-.-.| ....| ..) R ..1.1.:.:.=.=.=.:.:.2.2.2.2.4.5.B.V.V.B.B.g.B.B.A.H c f $ o , 9XmXmXNXE.a.h.j.j.j.j.Z.G.G.H.j.Z.H.Z.f.h.L.Z.f.Z.f.f.L.f.f.<.] ] C.aXrX#XrX%X&X&X%X@X&XXXG.I.&XhXdXfXfXfXfXaXsXiX#.C h $ X b cX6XW.yXW.Y.F.(.^.^.^.^.^.^.^.^.^.^.Z.g.g.B.B.g.Z.C.f.B.B.r.-...1.4.<.4.f.B.f.B.B.B.y.4.4.2.2.>.=.:.B.V.B.V.S.e.t j h , + + , 0.<X>X4XO. .O.:.4.<.<.4.<.<.4.B.Z.Z.Z.Z.h.p.<.p.f.Z.<.B.B.F.<.f.a.<.p.a.p.a.f.C.C.G.J.OXOX).P.P.H.J.h.p.f.K.F.M.U m S $ & @ ! FXvXiX{.>.:.1.t.1.5.g.B.g.B.V.V.V.5.$.` >.B.B.y.5.5.f.5.g.F.'.~.V.2.5.'.F.S.Y.F.}.'.4._ Y | 2.2.=.5.5.&._ 4.t.^ r B b & o , n.0XzXiXK.C.H.H.H.(.H.C.G.[.H.C.G.h.Z.(.:.<.4.B.B.4.B.a.f.f.a.a.a.f.f.a.F.4._ &.4.f.Z.a.] ' B.B.B.(.f.h.H.G.G.L.@.N Z m ",
"MXVXZXjXL.N.(.=X=X=X[.[.[.+X+X+X=X[.[._.[.[.).`.`.[._.`.^.).`.^.g.j.Z.Z.Z.~.^.`.^.(.(.^.F.F.Z.Z.F.F.Z.^.`._.[.}.Y.H V g # X v 0XvXxXbXM.B.B.Z.`.h.H.).J.z./.oXH.J.XXXX).H.L.C.<.*.D.L.a.,.a.f.a.p.L.L.).).L.^.<.<.^.`.B.F.(.a.' 4.F.(.H.j.G.D.N.w j f # X A HXzXNX}.D.D.F.Z.V.g.g.g.5.V.4.=.2._ $.5.V.B.V.B.5.B.4.V.5.5.F.B.:.:.4.=.2.r._ | w.w.a Y _ ..-.2.4.4.r.2.1.2.>.2.| w 6 # O o 9.MXuXrX{.a.>.f.F.B.a.C.rXhXrX@.' / :._ :.L.].H.).J.G.).H.K.f.f.,.,.^.^.Z.).H.f.C.Z.Z.Z.].d s B.L.Z.Z.D.f.( Z.'.{.U m h o + o :XcX>XeXD.:.A.A.y.:./ <.5.f.B.S.4./ | r.2._ -.-.-.......| -.) Y _ 1.1.-.-.=.=.=.:.:.2.2.4.>.4.5.5.B.B.B.g.g.B.B.A.H c f $ o , 0XHXmXNXE.a.h.h.h.j.j.Z.Z.H.j.j.H.^.Z.f.h.^.g.a.g.<.f.L.f.<.,.O.O.D.rXrX#XrX%X&X&X%X@X&XOXG.I.&XhXrXdXfXdXfXaXsXiX#.C h $ X b 8X<X>XbXW.D.L.(.`.`.`.`.^.^.^.^.^.!.Z.g.g.Z.Z.g.Z.Z.f.B.B.4...4.r.y.B.B.Z.B.4.y.y.B.y.4.2.4.4.2.` =.V.'.~.F.F.1.w j h 2 : + & 0.,X4X4X1.O.3.3.<.<.4.4.<.,.4.Z.Z.Z.Z.Z.g.p.<.p.f.Z.4.Z.Z.(.a.f.f.p.p.a.a.a.f.C.C.h.G.].@XOXP.P.G.Z.h.p.f.K.D.M.U m S $ & @ ! cXvXiX{.>.:...w...4.5.B.B.B.V.V.V.5.` / >.B.B.5.B.y.F.~.S.y.B.~.}.S.y.S.F.~.'.V.~.F.B.4.=.;.=.1.4.4.B.>._ 1.t.) 0 B b & o , n.0XzXxXL.C.H.H.L.^.G.h.H.+XH.C.G.h.Z.L.:.>.4.a.B.4.B.a.a.f.a.a.a.f.B.>.S.,.s / :.4.Z.f.&.` B.f.4.Z.f.h.H.G.G.L.@.M N n ",
"VXVXZXfXL.C.(.[.=X[.[.[.+X+X+X[.=X[.[._._._._.`._.^.^.^.H.).[.^.g.Z.F.^.^.^.(.'.`.^.(.(.F.Z.Z.L.Z.D.Z.^.`.`.`.].Y.H m h # X v 9X6X3XyX3.a.C.H.G./.oXH.h.l.H.H./.H./.XXH.G.C.a.] 4.B.S.f.<.4.B.C.p.J.).).)._.Z.<.h.f.(.Z.D.'.4./ B.B.G.H.j.Z.F.N.c k f % # A HXzXbX{.F.Z.Z.Z.g.f.&.g.S.F.y.r.r.Y K :.y.5.B.V.B.V.B.B.g.g.V.V.4.=.2.y.2.:.-._ ..r.) Y Y _ 1.w.2.-.w.4.4.>.>.r.X.w * & & X 9.JXuXrXpXB.2.B.B.B.C.h.aXjXhX:./ -._ =.<.C.^.H.H.^.^.H.].C.C.f.*.f.(.Z.^.^.G.h.h.Z.H.H.].d a a.K.L.L.D.h.h.H.$X{.U m 9 $ O & ;XcXlXeXD.4.A.A.4.:./ _ 4.B.4.B.B._ ) 2.4.) | -.-.| ..X.) | ..) K | w.w.-.1.1.1.:.=.:.2.4.5.5.B.V.V.g.g.g.j.V.V.A.H c g * & , 0XHXVXNXP.p.f.f.h.Z.Z.j.j.H.j.j.H.^.Z.g.g.Z.B.f.g.h.j.f.a.4.,.O.O.R.rX%X&X&X@X&X&X@X&X&XOXG.OXrXhXdXrXrXdXfXaXjXiX#.C f $ X b 9X<XW.NX{.D.^.`.`.`.^.^.`.`.`.`.^.!.Z.g.g.g.g.Z.V.V.V.B.4.=.` 2.y.S.B.5.5.g.B.B.S.A.r.1.:.2.4.-.` :.S.~.B.y.Y.q.q 0 k 3 : + 2 v.1X<XyX2. .r.r.4.<.>.<.<.<.<.f.Z.C.C.Z.h.p.a.C.4.>.>.f.Z.Z.f.<.p.f.f.p.<.a.B.B.B.j.H.L.L.].OXJ.h.H.f.g.B.a.C.e.C Z n , o o S FXlXxX{.4.2.2.1.X.4.B.V.V.V.S.V.f.$.$.` $.5.~.F.5.S.Y.r.K e J | X.r.r.t.A.B.y.f.B.F.V.~.|.5.s Y 4.y.y.4...w.t.U w B k o @ , m.0X7XiXR.a.h.).+X^.C.h.H.`.^.G.Z.F.S.F._ <.&.:.Z.>.f.B.g.4.4.B.4.>.4.B.B.` _ ` / <.Z.4.<.:.4.Z.B.f.j.^./.l.G.L.@.M N j ",
"MXVXZXfXL.C.L.[.=X[.[.[.[.+X+X[.=X[.[._._.[._.`.`.^.^.H.Z.`.[.^.g.Z.Z.^.F.^.(.'.`.(.(.(.F.Z.Z.F.L.F.^.`._.`.`.].Y.H m g # X v 9X6X3XyX3.d.h.G.l.^._./.l.H.J.J.)./././.).).G.a.] <.B.S.B.4.4.B.f.h.H.).).)._.H.<.C.C.'.F.F.(.<./ Z.C.G.H.h.G.F.M.c D f % # A HXzXNX{.D.D.Z.Z.g.f.<.g.g.S.B.y.r.Y Y 2.B.y.V.B.f.g.V.V.g.g.V.V.4.=.>.2.2.=.=._ =.y.) Y Y | -.-.-.1.2.2.<.>.>.r.o.0 * & & X 9.JXgXpXyXA.2.B.B.B.C.a.$XkXsX>./ =.` 2.f.Z././.^.^.^.H.^.f.f.p.*.f.(.Z.L.L.G.h.f.Z.G.G.).d a p.K.K.D.h.p.s.G.+X{.U m 9 $ $ & ;XcXlXeXD.<.B.B.4.>._ ` 4.B.4.B.B._ / >.4..._ -.1.....X._ | ..) K T -.q.-.-.1.1.=.=.:.>.2.4.4.4.5.f.5.f.V.j.Z.S.A.H x g % = , 0XHXmXfXP.f.C.C.Z.H.Z.j.j.H.j.j.Z.H.Z.f.f.C.B.f.g.j.h.f.p.f.<.O.O.R.rX%X&X&X@X&X&X@X&X&XOXG.E.&XhXhXrXdXdXdXaXjXiX#.C h $ O v 9X2XW.bX].C.^.`.`.`.^.^.^.(.`.(.^.!.Z.j.g.g.Z.V.g.g.B.B.4.:.:.4.B.V.B.5.5.g.B.y.y.y.r.1.1.2.2.` =.r.Y.Y.A.y.S.q.0 0 k 3 : + 2 v.5X<X4Xq.) 2.1.4.<.<.<.<.<.<.g.Z.C.C.Z.C.a.a.C.<.:.>.a.Z.Z.f.<.<.p.p.<.4.f.B.Z.Z.g.Z.G.G.OXOXL.G.^.B.B.f.4.B.e.N Z v , o @ S FXvXbX3XB.B.B.r.2.4.g.V.V.F.S.B.4.$.` $.&.<.5.g.F.Y.-.u 7 r e u u | 1.r.y.B.S.B.<.B.f.Z.|.S.%./ $.y.y.y.X.w.t.U w k b & o 2 m.9X7XuXR.a.f.H.).L.G.h.H./.H.Z.Z.F.F.F.( <.:.<.F.4.B.f.B.B.f.4.:.:.B.4.B.:.$.:.` <.f.4.<.:.4.F.Z.f.j.^./.j.G.R.@.M N j ",
"MXBXZXjXR.C.L.).=X[.[.[.[.+X[.[.+X[.[._.[.[.).).^.Z.Z.H.Z.`.[.Z.g.Z.Z.Z.Z.Z.^.'.'.(.(.(.Z.C.Z.Z.'.'.(.)._.`.`.}.Y.H V g # X v 9X6X3XyX3.3.h.G.l.l._./.l./.).J.J./.J./._._.D.,.( <.B.A.r.<.4.f.a.G.)._.^.).).H.<.g.f.L.L.L.F.:._ F.D.Z.H.h.H.D.e.c D f % # A HXzXbX{.F.D.Z.Z.g.f.k.f.6.V.S.B.r.K Y 2.B.B.V.V.5.f.V.V.B.g.V.V.5.:.=.2.1.=.=...-.y._ Y Y | -.| | 1.1.1.<.>.>.4.} 6 * & & X 9.JXgXpXaXA.2.r.B.B.C.a.+XkXsX,./ ` -.5.h.j.^.)./.H.H.^.C.p.a.p.*.a.(.H.H.H.G.h.f.C.Z.Z.G.d a ,.F.Z.C.p.p.x.G.+X{.^ m f $ $ & ;XcXlXeXD.<.B.B.B.<.` ` 4.B.B.S.B.` / :.<.1._ ..1...| ....) | | Y I } -.1.1.1.1.:.=.:.>.>.4.>.<.4.5.5.g.V.Z.Z.S.A.L c f # $ , 0XMXnXfXP.h.Z.Z.Z.H.H.j.j.j.j.j.H.H.h.f.a.f.B.f.g.j.g.p.f.B.4.O...K.rX%X&X*X@X&X&X@X&X-XOXG.L.#XhXhXdXdXdXdXhXjXiX#.C h & X v 1X:X<XbXE.G.^.(.^.`.^.^.^.(.(.!.!.Z.j.j.j.j.Z.Z.g.5.5.5.>.=.=.y.B.B.5.5.g.g.B.y.y.y.4.:.=.=.:._ :.V.F.F.V.y.y.8.0 0 b 3 : + 2 ;X5X>X4X1.) 1.1.4.<.<.<.<.<.f.Z.Z.C.C.Z.C.f.p.f.>.:.:.4.D.C.f.<.p.<.<.<.4.f.B.S.Z.g.g.f.h.OX@XP.C.H.f.5.<.>.M.e.N Z v , o @ S FXvXxX{.M.B.A.r.1.4.g.Z.~.F.V.5.>.>.$.` <.5.5.g.~.Y.I 7 r H e r r | r.S.r.r.B.V.4.B.f.V.~.Z.<.%.( 5.y.y.1.r.t.I w k b & O 2 n.qX<XuXE.C.f.h.Z.L.L.h.H./.H.C.C.F.F.Z.( <.<.4.F.5.f.f.B.B.B.>./ ) A.2.B.:.` :.>.f.4.4.,.&.4.(.~.f.j.l.^.j.G.R.@.M N j ",
"nXBXZXjXR.C.L.).=X[.[.[.[.+X[.[.+X[.[._._.[.).).`.Z.H.H.Z.`.[.Z.g.B.Z.Z.Z.Z.^.`.'.(.^.^.Z.g.g.Z.'.'.(.`.`.`.`.}.Y.H V g # X v 9XtX3XyX3.3.a.G.l.l././.l.).).J.J./.H.H.).L.a.] ` a.B.B.4.,.4.f.a.Z.)._.^.).).Z.*.<.,.B.F.L.B.( ] F.D.Z.j.h.H.D.3.c D f % # A HXzXbX}.S.C.Z.Z.g.g.f.f.6.V.V.y.2.a p -.y.y.V.V.g.g.V.V.B.g.B.B.4.:.` 1.1.=.:...-.y...K J | -.| | 1.1.1.<.>.>.2.} 7 * % & X 9.JXuXrXpXB.>.4.a.M.N.N.#XkXhX4./ _ :.B.h.f.j.^./.H.H.).g.<.a.p.*.a.(.H.G.H.G.h.h.C.Z.C.C.d i ] C.K.D.C.*.*.H.+X{.^ m h $ O & ;XcXlXeXD.<.B.B.B.4.:.` <.B.B.S.B.:./ ` 1.r._ | 2.-._ ..1.) | ..) J I | 1.2.2.1.1.:.=.:.>.4.4.4.f.5.5.g.V.g.V.S.S.L c 8 # $ , 0XMXzXrXP.C.Z.Z.Z.H.Z.j.j.j.H.H.H.H.h.f.g.Z.f.f.g.j.f.p.f.Z.4.O...R.rX%X&X*X@X&X&X@X&X-XOXG.P.$XhXhXrXrXdXdXaXjXiX#.C h $ O v 1X2X,XNXE.G.^.^.^.^.^.^.^.^.!.!.Z.Z.j.j.j.!.Z.Z.V.B.B.y.>.=.=.y.B.B.5.5.B.B.B.B.y.4.2.:.` _ _ ` 2.S.S.S.S.y.2.X.0 0 b 3 : + 2 ;XlX3XyXq.) 2.1.4.4.4.<.<.<.f.Z.Z.Z.Z.Z.Z.g.a.a.>.:.:.a.D.C.f.p.f.<.<.<.4.4.B.S.Z.f.p.p.s.).@XJ.p.g.:.:.$.` r.e.N B v , o @ S FXvXxXW.4.y.A.2.` 5.g.Z.~.~.V.f.<.B.:.` >.V.F.V.y.| u r P I F e H J 1.Y.A.y.B.Z.Z.Z.V.g.g.5.5.>.&.2.y.A.2.r.t.U w k b & + 2 n.9X7XiXE.C.f.h.Z.L.L.h.H./.H.h.C.F.F.a._ >.<.4.Z.5.4.4.f.B.B.:.a a r.4.A.` / $.<.B.4.a.:.` <.F.F.g.j.j.H.j.G.R.@.M V w ",
"nXVXLXNXW.D.'.[.=X[.[.[.+X+X[.[.+X[.[._._._.).).).^.^.H.Z.`._.H.f.B.Z.Z.Z.Z.^.`.'.(.^.Z.Z.g.g.Z.(.L.L.^.`.`.`.}.Y.H V g #   v 9XlXeXyX3.,.a.G.l.^./.l.l./.).P.P.)./.).).h.*.] :.B.D.B.<.,.f.B.f.h.H.).).).).h.[ <.<.B.Z.F.f./ :.F.C.Z.h.h.G.D.+.M c f % X A HXzXbX}.S.B.Z.Z.g.g.f.f.5.S.y.-...a p =.4.y.V.V.B.V.g.g.g.5.f.g.5.>._ =.:.=.:...-.y.1.K p ) -...;.1.1.1.<.>.>.2.} 7 * ; & O 9.LXgXdXpXM.:.4.a.M.N.N.{.kXaXC.] ` <.B.C.h.j.^./.H.H.).h.p.f.p.*.a.(.H.H.L.H.Z.C.G.G.Z.C.( a ( B.F.D.G.] [ L.OX{.^ w g $ $ & ;XvXlXeXD.4.B.B.B.B.:.` >.4.B.B.B.>._ _ :.y._ _ 2.-._ ..1.| ..X.| I J } 1.2.2.2.2.1.1.:.>.4.4.5.V.B.5.5.f.f.B.V.A.L x g % $ , 0XmXzXiXE.D.C.C.Z.Z.Z.j.j.j.j.H.H.Z.h.h.Z.Z.f.f.B.j.f.p.g.Z.r.1.O.W.rX%X*X*X@X&X&X@X&X&XOXG.].&XhXrXrXrXdXdXaXjXiX#.C f $ X v :X1XtXNXE.L.^.^.^.`.^.^.^.!.Z.Z.Z.j.j.j.j.!.Z.g.B.V.Z.V.4.:.:.y.B.B.5.5.B.g.g.B.y.4.4.:.` _ ` 2.y.B.y.S.F.B.1.X.0 0 b 3 : + 2 ;X5X>XyXq.) q.2.4.4.4.<.<.4.f.B.C.Z.Z.Z.Z.C.f.a.:.:.>.a.Z.C.f.f.g.<.<.<.<.:.<.Z.g.f.p.,.a.P.OXC.p.f.&.$._ / 1.e.N B v , o @ S FXvXbX{.r.B.F.t...Z.Z.Z.~.!.Z.g.f.g.5.>.:.4.S.4._ e r x G F e e H 7 u | y.S.Z.V.Z.Z.F.V.f.5.5.5.4.>.y.B.2.r.t.U w j b & X , n.0X8XxXE.B.f.Z.H.L.G.h.H.^.Z.h.g.Z.F.<.( >.4.4.B.5.4.f.f.f.B.<.a a 1.4.A.` / :.4.B.4.a.*.' :.Z.Z.g.j.j.l.h.G.R.O.m V w ",
"MXVXLXNXW.D.].[.=X[.[.[.+X+X[.[.+X[.[._._._.).).[.^.^.H.Z.^.).Z.f.B.Z.Z.Z.Z.^.(.'.(.Z.Z.Z.f.g.Z.F.F.Z.^.`.`._.}.Y.H V j #   v 9XlXtXyX3.3.a.G.G.^./.l.h.H.).P.)././.).H.a.*.:.4.B.D.f.,.<.B.D.f.h.H./.)._.).f.( a.g.Z.B.F.4./ >.D.Z.Z.h.s.G.D.+.M c f % X A HXzXbX}.D.B.Z.Z.Z.Z.6.5.5.F.y._ _ K K 1.B.B.S.V.B.B.5.f.5.5.5.g.5.4._ =.:.:.1.....w.2.Y p Y ..-.-.-.X.:.2.>.>.2.} 7 * & & X 9.LXgXdX#Xa.O.3.a.a.N.N.L.kXaXL.a.:.B.F.L.H.H.^.`.^.H.^.h.p.f.p.&.<.(.H.L.^.L.G.Z.H.H.Z.L.,.d d a.D.C.C.[ ( ).+X{. .q j $ $ & ;XcXlXeXD.4.B.B.B.B.>._ =.4.B.B.y.4.` / ..y.| _ 1.-.| ..-.........) J T ..1.2.2.2.1.1.:.2.4.4.5.B.f.4.<.4.f.g.B.A.L x g * $ , qXmXnXfXE.D.g.h.Z.Z.Z.j.j.j.j.j.Z.h.f.g.Z.Z.B.f.g.g.f.p.g.F.4.1.+.W.rXOX*X X*X&X&X@X&X&XOXG.OX&XhXrX&XrXdXdXaXaXiX#.C 9 $ X b :X<XvXNXR.).^.^.^.`.^.^.H.Z.Z.j.j.j.j.j.j.g.g.V.V.V.V.5.=._ / 2.y.B.B.B.B.g.5.5.4.4.y.2.=.:.4.S.S.B.B.S.F.A.w.X.0 g b 3 : O 3 0.,XW.4X1.) 2.2.<.4.<.>.<.4.a.4.B.Z.Z.Z.Z.Z.p.<.:.:.,.f.D.B.f.f.B.4.<.4.:.' :.V.5.f.f.,.p.P.OXC.h.g.:.$._ / 1.3.N m k , o o S FXlXbX{.4.B.Y.A.1.~.Z.Z.!.!.V.V.V.>.V.B.=._ =.` a L P x r r F L H I u e / 2.B.B.Z.B.F.~.Z.V.B.5.>.2.4.y.1.r.t.U w j b & X & n.0XzXxXR.a.f.H.).L.D.h.G.H.Z.h.C.Z.Z.,.:.<.B.5.4.f.5.f.f.f.B.4./ K :.1.B.:.:.4.4.f.<.4.:._ :.B.Z.f.j.j.l.h.G.L. .w m w ",
"MXVXZXjXE.C.].[.=X=X[.[.+X+X[.[.+X[.[._._._.).).[.^.^.H.Z.^.^.Z.f.B.Z.^.^.F.^.(.`.^.Z.Z.B.f.g.Z.F.F.Z.`._.`._.}.R.U V g #   v 8XlXtXiX3.3.h.G.G.^./.l.s.H.).P.P.G.P.^.h.p.,.4.a.B.B.4.<.4.B.C.a.h.H.).)._.].h.[ a.Z.Z.4.B.4./ <.B.Z.H.j.s.G.D.3.M c f % # A HXzXbX}.A.B.Z.Z.Z.Z.6.<.5.~.y._ _ K ) r.S.B.V.V.5.g.5.5.5.4.5.B.B.5._ =.1.1.:.` _ 2.w._ J K ) | ....X.:.1.:.=.2.W 6 % % + X 9.LXuXrXrXM.,.,.d.a.s.a.C.jXaX#XK.a.D.K.L.^.^.H.H.^.^.H.h.p.f.p.` <.(.^.L.^.L.H.G.L.H.Z.).p.d ( C.K.C.C.[ ( ).+X{. .q j = $ $ ;XcXlXeXD.<.B.B.B.B.2.` ` 4.B.B.y.B.>./ ..r...| 1.X...X...X.| | ..| I I | -.-.1.1.1.=.:.:.4.2.4.5.5.4.4.5.g.B.B.A.H c g * $ & qXMXnXjXE.C.C.Z.Z.H.Z.j.j.j.j.^.Z.g.f.f.Z.Z.B.f.f.f.f.f.j.F.1.1.3.{.rXOXOX X*X&X&X@X&X-XOXJ.].&XhXhXrXdXdXdXrXaXiX{ C 9 $ X b :X1XcXbXR.L.^.^.`.`.`.^.Z.Z.Z.g.g.g.j.g.g.g.g.Z.V.V.g.:./ a a =.4.V.V.B.B.f.5.>.2.4.5.2.$.2.S.F.S.V.B.B.B.y.4. .6 g D 3 : O 3 0.,XW.4X1.) 1.1.4.4.2.:.<.4.4.:.B.Z.Z.Z.Z.Z.p.,.:.:.,.a.B.B.a.a.B.4.<.4.] / ` Z.g.g.g.p.d.P.OXG.C.f.:.:._ / 1.e.N m j , o @ S GXlXxXW.3.4.S.A.1.^.Z.Z.!.!.V.V.Z.4.B.B.$._ _ ) Y i.o.G e x G L H i.} H u K =.f.S.V.S.~.F.Z.V.4.:.4.y.y.1.t.A.I w j b & o , n.0X7XuXR.a.p.H.^.L.G.h.l.Z.Z.C.Z.Z.B.>.,.f.Z.5.<.B.g.f.g.5.4.<._ / =.4.B.>.<.B.4.a.4.<.:.$.<.Z.B.p.h.j.H.h.G.K. .w z q ",
"MXBXZXfXL.C.].[.=X=X[.[.+X+X[.[.+X[.[._._._.).`.[.^.^.Z.Z.H.^.h.f.B.F.(.(.^.^.^.`.F.Z.Z.B.f.g.Z.F.F.L.)._.`.`.}.'.U V j #   v 8XvXtXiX3.d.h.H.H.l./.l.h.H.).J.J.h.G.G.p.<.a.f.4.4.a.4.<.4.C.B.<.G.J.).H.).].Z.*.<.Z.Z.,.f.4./ 4.B.Z.^.j.s.G.K.e.M c f % # A HXzXbX}.A.B.Z.Z.Z.Z.6.<.<.~.B.` | K ) r.B.B.B.B.5.g.5.5.5.5.5.B.B.B._ =.1.1.:._ _ 1.2...Y J K ) | | | ..:.=.=.1.W 6 % O O X 9.JXuXpXrXN.O.3.d.d.a.d.C.kXhXrXE.M.K.D.G.^.^.Z.G.).^.Z.f.<.a.<.( <.(.^.H.L.L.H.G.L.H.Z.L.h.( ( D.L.C.D.[ ( ].+X{. .q j = $ & ;XvXlXeXD.>.4.B.B.A.<.` ` B.S.B.B.S.4._ ..r.X...-.....-.| -.| ) ..| I J T ..;.-.-.=.=.=.:.4.2.4.4.4.4.5.g.V.V.V.u.G x g = & & qXMXmXNX].C.Z.Z.H.H.H.j.j.j.^.^.^.j.f.g.Z.Z.D.f.f.f.g.j.Z.F.>.3.3.#XaX XOX X*X&X&X@X&X-XOXJ.P.$XhXjXdXdXdXdXrXaXiX{ C 9 $ X b ;X<XcXbXL.L.H.^.`.`.`.^.Z.Z.g.g.g.g.g.g.g.g.g.g.f.f.5.>.` _ _ ` 2.V.V.B.f.5.5.>.>.4.5.:.` :.S.V.B.B.V.y.4.2.2. .6 g D 3 + O 3 0.,X<X4X1.) 2.1.4.2.>.>.<.4.<.` f.C.Z.C.Z.Z.p.*.*.:.>.a.B.f.4.4.B.<.<.4.` s ` S.V.Z.Z.p.d.I.OXJ.a.f.&.:.` / 1.t.N m j , o @ S GXlXbX{.3.4.A.A.>.~.j.Z.^.!.j.V.V.Z.5.>.=.-.-.=...-.Q P G e r e G H o.-.K p / <.B.F.S.V.V.F.V.4.:.5.5.y.1.t.A.I w j b 3 + 2 n.qX7XuXR.a.p.j.H.L.L.h.j.j.j.Z.Z.D.f.>.<.B.S.4.:.B.B.4.f.4.>.:._ / =.B.A.>.<.f.<.f.B.,.:.:.4.F.B.<.f.j.H.h.G.K. .w z q ",
"MXVXLXfXK.a.L.).[.=X[.+X+X+X[.[.[.[.`.`.`.)._.`.^.^.H.H.H.Z.Z.Z.B.Z.Z.^.F.Z.F.F.^.Z.Z.Z.g.f.f.Z.L.F.F.)._.`.`.].Y.U V g # X b 9XvXiXpX@.3.C.Z.G./.l.h.l.J./.P.J.p.G.C.p.,.a.B.a.>.,.:.:.a.f.a.f.h.H.^.)._.G.*.( <.Z.f.B.B./ ] Z.Z.F.Z.^.G.h.K.3.M B 8 *   S cXzXiX{.B.B.Z.g.!.g.6.<.<.y.S.r.) p ) =.y.B.B.B.g.5.5.f.5.5.4.4.5.y.=._ 2.1.:.=._ ;.w...J J R Y Y | | | :.=._ 1.} 7 # % : X 9.MX7XrX%XK.] d.,.O.C.[ C.jXrXjX].] K.P.H.^.^.^.H.H.H.H.<.a.p.*.,.f.L.^.G.H.].C.h.(.L.).(.<.d p.}.D.D.C.p.J.).].#X^ q j # & o :XcXtXyXD.:.4.B.B.B.B.:./ 4.4.y.B.B.4.` / 4.t.1.) X.1.-...-...| | ..| I H } ..-.;.-.1.1.=.>.>.4.4.4.5.g.g.g.V.S.u.G x g = $ , 0XHXnXNXE.h.Z.Z.H.H.H.H.Z.Z.H.^.Z.h.g.g.g.f.f.f.Z.Z.h.j.Z.C.>.:.3.eXrXdXOX*X@X@X&X@XOX&X].p.].&XaX&X%XrXfXfXrXrXpX{ C 9 & O v 1X<XzXCX{.L.^.H.^.^.`.^.j.g.Z.!.j.g.Z.!.g.g.Z.g.Z.Z.4.:.>.B.S.B.B.B.B.B.g.5.5.B.4.>.2.>.=.2.B.S.F.~.F.B.5.5.y.X.w 0 k 4 : @ ; 0.<X<X4X1. ...X.1.4.=./ :.4.<.:.B.Z.Z.Z.C.Z.Z.C.B.f.a.C.F.B.B.B.4.` :.S.) ) 1.'.B.~.C.<.d.].OXJ.C.f.f.f./ :.) X.M Z S , ,   ! FXlXyX{.:.1.S.t.>.Z.Z.Z.Z.Z.Z.Z.Z.F.B.=./ _ 1.1...-.o.L F F H F r I } X.K _ ) s F.F.S.~.}.B.$.:.>.4.B.2.1.t.t.) w B k & o & m.0X,X>XK.B.h.C.C.Z.G.Z.h.h.h.h.Z.Z.:./ 4.B.Z.4.:.f.5.4.f.B.4.:.` =.4.r.4.<.>.<.4.f.4.4.&.` <.V.Z.g.f.j.H.j.C.D. .w w 9 ",
"MXVXZXjXK.C.L.[.[.=X[.+X+X+X+X+X[.[.`.`.).)._.`.`.^.H.Z.Z.Z.Z.Z.g.Z.Z.^.^.^.^.(.^.Z.Z.Z.Z.f.f.C.F.F.Z.`._.`.`.'.Y.H V g # X b 9XvXxXyX+.a.D.G.H./.H.l.l.J.).P.J.h.G.Z.f.4.a.f.f.<.4.:.:.f.g.f.h.f.G.H.H._.G.<.*.C.).Z.Z.B.( :.F.D.Z.Z.^.G.h.L.e.z B 8 *   S cXzXiX{.B.B.Z.g.!.g.6.6.5.B.S.y.| a Y 1.B.B.5.B.g.5.5.5.5.5.4.5.5.B.=._ 2.2.1.1.) ..2...K J Y K K ..| | :.=...2.o.6 # % O @ 9.GX7XdX%XK.,.,.O.,.D.] M.pX#XjX].,.K.P.G.H.H.H.H.H.H.H.p.f.f.<.<.C.L.L.G.H.).h.h.L.H.).C.( i f.+XF.K.C.s.J.).OXpX^ w j # & o :XcXtXyXD.:.4.B.B.B.B.>./ 4.4.B.B.B.4.` Y 1.r.-.) ..1.X...-...| | | | I J R } ..;.-.2.1.=.2.2.4.4.4.4.g.g.g.Z.S.u.G x g = $ , 0XMXnXfXE.h.Z.Z.H.H.H.H.Z.j.j.H.Z.h.f.g.C.g.Z.f.C.Z.f.j.Z.Z.2.:.3.eXrX&X X*X@X%X@X@X@X@XOXs.].&XhXrXrXdXfXdXaXaXpX{ C h $ X l 1X1XvXCX].H.^.^.^.^.`.^.Z.j.Z.!.g.g.Z.!.j.j.!.Z.Z.V.<.$.:.4.y.y.y.B.B.B.B.g.g.V.y.4.4.4.5.B.F.S.F.~.F.V.B.B.A.o.0 j k 4 : @ 2 0.<X>X4X1.) ....2.2.-.` 1.4.>.:.B.C.Z.C.Z.Z.G.C.Z.B.f.C.D.B.a.M.<.' :.B.) / 1.F.Z.Z.f.<.N.].OXP.D.f.f.5./ O.^  .m B S , ,   ! FXtXyX{.:.1.S.t.4.Z.Z.Z.Z.Z.Z.Z.Z.Z.V.2.$.=.2.2.-.w.-.W F r e u u } } | Y _ K p S.Y.S.F.~.S.>.:.>.4.y.:.| 2.2.K q V b & O , m.FX6XtXE.D.C.Z.G.L.H.h.h.j.Z.h.Z.B.` / <.B.B.4.:.B.5.B.f.4.4.:._ :.y.y.r.4.4.4.f.f.f.4.&.` 2.B.B.f.f.j.H.j.C.D. .w w 9 ",
"MXBXZXjXE.D.L.).[.[.[.+X=X=X+X+X[.[.).`.).)._.`.`.^.H.Z.Z.Z.Z.Z.f.B.Z.^.^.(.(.`.Z.Z.Z.Z.Z.f.f.B.F.F.Z.^.`.`.`.'.Y.H V g # X b 9XvXxXiXM.C.L.L./././.H.H.J.).P.P.G.L.L.C.<.,.4.B.B.B.<.,.B.Z.g.h.p.h.Z.H.).G.p.<.Z.(.B.C.a.' ,.S.F.L.Z.^.l.h.F.3.z B 8 *   S mXmXiX{.B.B.Z.g.Z.g.f.5.5.5.B.y.X.Y J 1.V.5.4.g.B.5.5.5.5.5.5.5.g.B.=.` 2.2.2.1.) _ -...K J Y J P ..| | ..` =.r.o.6 # % O @ 9.JX7XfX#XL.d.,.[ ,.F.:.3.'.].hX#Xd.L.P.G.H.H.H.H.H.H.H.f.h.f.<.a.Z.^.H.G.H.).h.f.L.G.L.C.d d (.$XK.F.a.h.J.).OX#X^ m j # ; o :XcXtXyXD...4.B.B.B.B.>./ 2.B.B.y.y.B.:.Y ..2...) ..1.X...1...| | | | T J J Y } ..-.1.1.=.2.4.4.4.4.4.y.B.V.Z.S.u.F c g = $ , 0XMXnXfXE.a.Z.Z.Z.Z.H.H.Z.j.h.H.H.h.f.f.C.C.F.B.g.f.p.g.Z.F.1.:.3.pXpX*XP.*X&XOX@X-X&X@X+XL.E.&XhXdXrXdXfXdXhXsXiX{ C 9 $ X 4 1X8XxXCXR.G.H.^.^.^.`.^.Z.j.Z.g.g.g.j.j.g.j.!.Z.Z.B.>.:.:.2.2.y.y.B.B.B.B.g.g.5.5.4.2.4.B.S.F.V.F.F.F.V.B.B.A. .0 z b 3 : O 3 0.<X>X4X1.) | | r.2.X.-.4.<.:.<.4.B.C.C.Z.Z.G.Z.Z.g.g.C.B.B.M.B.<./ O.4.` a 1.S.F.V.4.<.C.E.OXOXK.B.f.4.) O./  .m m S , ,   ! FX6XyX3X:.:.B.t.B.~.!.!.!.!.!.Z.Z.Z.V.5.>.:.4.4.1.y.r...J r r H I 1.| ) | ..p e 4.S.Y.S.V.~.5.$.>.5.B.:.) -.+.H y C b & o , ;XHX8XxX{.F.Z.H.G.G.G.h.h.Z.Z.h.C.4./ / <.f.B.4.:.g.f.B.4.4.f.>./ ` r.y.r.4.4.f.f.f.4.4.&.` >.4.4.f.f.j.H.Z.D.D. .w w 9 ",
"MXMXCXNXE.C.K.^.[.[.[.+X=X=X+X+X[.[.`.`.).)._.`.).^.Z.Z.Z.Z.Z.Z.f.g.Z.^.^.^.^.(.F.Z.Z.Z.Z.f.f.B.F.F.L.^.`.`.`.'.Y.H V g # X b 9XvXxXsXM.K.L.L.)./././././.J.P.P.L.L.K.a.*.[ <.D.B.B.<.,.g.Z.g.h.p.h.h.H.^.h.p.p.h.Z.f.B.4.' <.B.L.L.Z.H.h.h.D.+.z B ; *   S mXmXiX}.B.B.Z.f.Z.f.g.5.5.5.y.r.-._ p 1.S.5.2.f.B.5.5.5.5.5.5.f.B.V.:.` 2.1.1.1.) | ;...Y a K J P | | ..` _ =.w.} 6 % % : @ 9.GX7XgX%XL.s.,.( 4.F.<.:.B.(.aX].a.L.P.H.^.^.H.H.H.Z.Z.h.h.p.<.f.L.(.H.L.H.).h.f.L.Z.L.f.d [ =X$XZ.C.p.h.P.).].{.^ m j # & O :XcXtXyXD...<.B.B.B.B.1._ :.B.S.B.B.S.4._ ` 1...) X.1.-...1.X.| | | | ) I J R ) | -.-.-.-.2.4.4.4.4.4.5.B.V.Z.S.u.x c g % $ , 0XMXnXfXL.p.Z.Z.Z.Z.H.H.Z.j.j.H.H.h.p.p.f.h.F.f.f.f.p.f.Z.Z.>.:.3.pX$X%XP.*X&X#X@XhX&X$X+X).I.#XhXdXrXjXjXdXhXjXiX{ C 9 $ X 3 1XcXmXNXL.C.H.^.Z.H.^.H.Z.j.Z.g.g.g.g.g.g.g.Z.!.V.5.<.2.5.y.y.y.y.B.B.y.f.5.5.:.>.>.:.2.V.F.V.F.F.F.V.B.5.5.r.I 0 k D 3 : O 3 0.<X>XyX1.)  .| 2.-.| 1.r.:.` <.<.f.Z.Z.C.Z.Z.C.f.f.g.B.B.B.B.B.4.K :.1...p 1.S.S.g.4.a.N.G.E.#XK.4.f.2...1. . .m m S , ,   ! FX,XyX{.:.=.y.t.A.~.!.~.~.~.~.~.~.V.Z.B.4.>.2.4.4.A.B.1.Y p p Y | t.-.| X.1.Y e K y.Y.S.y.~.5.$.4.V.V.:.) X...p q C k $ o , m.FX8XxX{.Z.Z.H.G.C.h.h.h.j.Z.f.f.,.s / <.4.B.4.:.g.B.4.<.B.S.<.s a :.y.4.2.4.f.5.<.<.4.:.:.2.4.<.4.f.j.H.Z.D.D. .w z 9 ",
"VXBXZXNXE.N.D.Z.[.[.[.[.[.+X+X+X[.).).`.).)._.`.`.^.Z.Z.Z.Z.Z.Z.4.g.Z.Z.^.F.Z.Z.^.Z.Z.Z.g.f.f.Z.F.F.^.^._._._.'.D.H V j # X b 9XvXiXsXN.L.L.L./././././././.P.).L.).Z.,.' ' ,.D.B.a.:.:.f.h.f.f.p.h.G.H.H.p.,.p.Z.Z.Z.F.4.` 4.B.F.L.h.H.h.h.K.e.z B 8 *   S mXmXiX{.B.B.Z.g.Z.f.f.6.5.5.y.4.-...p -.B.y.4.5.g.5.5.5.5.5.5.f.B.S.2...=.-.-.:._ ......Y J P J J ) ..X.` _ =.1.I 6 % ; : O 9.JX7XfX&XJ.C.,.( <.D.4.` :.Z.$XL.p.G.L.^.^.^.H.H.Z.Z.h.h.f.<.*.a.L.(.H.^.L.).h.f.L.G.L.,.a ,.aX$XD.a.p.h.P.).].{.^ z j X & o :XcXtXyXD.` <.B.B.B.B.2._ ` 4.B.B.B.S.B.=.) 1...) ..1.-.-.1.-.| | | | } ) T T ) | ..;.;.-.2.4.4.4.2.4.5.B.g.Z.V.y.x x g % $ , 0XMXnXfXL.p.Z.Z.Z.Z.Z.Z.j.j.j.^.^.h.p.<.f.f.S.f.g.j.f.j.Z.B.:.O.3.pX$X@XP.*XOXP.OX@X$XOX].P.C.E.rXrXrXfXjXdXhXjXiX{ C 9 $ X 3 qXFXmXNXK.C.H.H.Z.Z.Z.Z.j.g.g.j.g.g.g.g.6.6.g.Z.g.4.4.y.B.B.y.B.B.B.B.5.5.4.<.>.4.4.>.5.F.~.F.F.F.V.V.y.5.5.r.I w B b 3 : O 3 0.<X3X4X1.)  .| 2.-.| 1.r.=.` <.<.f.Z.Z.C.C.h.h.f.g.f.f.B.B.B.t.2.K X.2...i 1.S.V.V.B.C.N.C.L.$XD.>.4.:...-... .M Z S < ,   S 0X,XtX{.:...4.r.A.F.Z.~.~.~.~.~.F.F.F.V.4.:.>.5.B.B.B.>._ / ` -.-.u.w...1.r.-.J r -.F.S.y.S.5.$.5.S.V.:._ X.| p w C k o o , m.FX8XuXE.Z.H.^.G.C.p.G.h.j.h.p.f.,.d _ <.<.B.4.:.g.B.4.4.V.F.:.i p ..y.2.>.4.f.4.<.<.4.:.:.4.4.4.4.g.h.H.Z.D.D.} w j 9 ",
"VXMXZXBXE.a.C.Z.[.[.[.[.[.[.[.[.[._.).`.).)._.`.`.^.Z.Z.Z.Z.Z.j.<.f.Z.Z.~.F.Z.Z.(.Z.Z.Z.g.f.g.Z.F.L.^.^.`.[.[.'.S.U V j # X b 0XvXyXiXN.L.K.G./.^./././.)./.).).L.).Z.] / ' 4.D.a.4.*.*.f.h.p.p.h.l.G.H.G.p.*.f.L.L.Z.F.<.` f.a.C.D.f.j.h.h.R.N.c D 8 *   S cXzXiX{.B.B.Z.g.Z.f.f.f.5.5.4.2.1.-.p _ y.y.4.5.5.5.<.5.5.5.5.5.B.V.2._ =...=.=._ ;.-.;.Y a P J J Y | 1.` _ 1.-.L 6 % ; : O 9.JX7XfX&XG.H.f.` <.5.f.` / f.[.f.*.h.J.G.H.H.H.H.H.Z.Z.h.h.<.*.<.Z.(.H.).H.).h.h.(.L.^.a.( G.aX$XK.,.,.h.).).L.E.^ m j X & o ;XcXtXyXD...<.B.B.B.B.<.` / >.y.y.B.V.B.:.) -...) ..1.-.-.-.X...|  .| } ) } T ) | | | ..-.1.2.4.4.4.4.4.5.f.V.V.u.G c g # $ , 0XMXnXfXE.h.Z.H.Z.Z.Z.j.j.j.j.^.H.h.p.<.a.a.D.f.Z.Z.Z.H.^.B.:.O.3.pXpX%XP.*X@XOX@X&X@X$X+XL.a.P.$X&XrXdXfXdXrXrXpX{ Z 9 $ X 3 9XFXmXbXK.C.H.Z.j.h.Z.Z.j.g.g.j.j.g.g.g.6.6.f.Z.g.<.4.y.y.y.y.B.B.B.B.5.5.4.<.4.4.4.5.B.F.~.F.F.F.V.V.B.B.B.B.^ w B k 3 : O 3 9.<X>X4X1.) | X.2.-...-.r.-...<.>.f.Z.Z.h.h.h.h.h.h.g.f.B.B.4.:.1.K | t.X.a :.S.S.S.C.C.s.C.P.$Xa.&.4.` ` | .. .M Z ! < , . A 9X,X4XW.:.` 4.2.B.F.Z.~.~.~.~.F.F.~.~.Z.5.<.4.g.Z.B.f.<.&.:.2.r.2.r.q.| -.r.q.| y Y y.S.B.B.5.>.B.V.B.2.` :.| p w C k $ + 2 m.FX8XuXE.F.H.).^.Z.h.G.h.h.f.p.f.4./ ` <.<.f.<.&.5.B.f.f.V.B._ i a 2.B.2.:.4.f.4.<.<.4.>.:.4.B.4.4.g.h.H.Z.D.N.} 0 z g ",
"VXBXZXBXR.a.C.^.[.[._._.[._.[.[.[._.`.`.).).).).^.^.Z.Z.Z.Z.j.j.<.f.Z.F.^.^.F.F.^.Z.Z.Z.V.f.g.Z.S.L.^.^.`.[.[.'.A.H C j # X b 0XvXyXiXD.L.K.G.H.^./././.).).).).L.].L.] / O.B.B.a.4.:.,.Z.Z.f.p.f.h.G.H.G.p.<.h.Z.C.f.B.&.` B.B.C.C.f.j.h.h.].N.M D 8 *   A cXzXiX{.B.B.Z.g.Z.f.g.g.g.5.4.2.1.1.a ) 2.B.y.4.4.5.<.5.5.5.5.5.B.B.:.) ..` =.:._ ..1.-.R a K K J K ) -..._ 2.-.G 6 % ; : O 0.JXuXfX&XC.L.Z.*.:.>.B.$./ B.].<.*.h.L.H.H.H.H.H.Z.Z.Z.Z.Z.a.*.<.C.L.H.L.G.L.p.f.^.H.L.D.p.].=XaX].,.] h.).].L.E.^ m j X & o ;XcXtXyXD.:.4.B.B.B.B.<.` / :.4.B.B.B.4.2.) -.| ) | -.-.-.-.X.....| | } } T T T | .._ _ ..=.1.2.2.4.4.4.4.6.g.V.u.H x g % $ , 0XMXnXjXE.C.H.H.H.Z.Z.j.j.j.j.l.Z.f.p.p.a.a.B.4.g.Z.Z.^.^.B.:.:.r.rXrX%XP.*X&X@X&X-X&XaX$XG.s.P.@X%X&XdXdXrX&XrXeX^ Z 9 & o l DXGXmXbXL.C.H.H.j.g.j.Z.j.g.j.j.g.j.j.g.6.6.g.V.5.4.5.y.y.y.y.B.B.B.B.B.g.5.f.f.4.4.g.V.V.V.V.F.Z.V.B.B.B.B.B.) z B k ; : O ; 9.2X>X4X+./ | -.w.w.-.-.2.1.:.4.&.4.D.Z.h.h.h.h.j.h.f.f.B.B.2.| X.K ) S.| K ` S.F.V.f.,.d.K.].+Xa.&.B.` ..) ..o.m B S < ,   S 0X,X3XR.O.` 2.1.r.S.Z.F.~.~.~.F.F.~.F.V.g.<.<.f.V.h.f.<.:.:.<.4.2.1.| H | -...-.J p -.S.S.y.y.V.V.V.B.<.:.1.X.H w C k $ & 2 n.0X8XuXE.D.Z.).).L.G.l.h.h.f.a.g.a.( :.<.>.5.<.` 5.B.g.g.B.4.` / ` y.B.1.=.<.4.<.:.>.<.:.:.r.B.f.f.f.h.^.Z.C.N.{ 0 z g ",
"VXMXZXBXR.a.D.).[.[._._._._._.).[._.).`.).).).).^.H.Z.Z.Z.Z.Z.h.<.5.Z.F.(.(.^.(.Z.Z.Z.Z.Z.g.g.B.Z.F.^.^.`._.[.(.A.U C j # X b 0XcXiXsXN.L.K.Z.H.^.^.^././._._.).J.+X(.,.' ,.D.B.a.a.,.<.Z.Z.f.p.p.h.Z.H.H.p.<.L.C.a.4.a.` &.^.F.Z.Z.h.j.h.h.L.M.V V 8 *   A cXzXbX3XB.D.Z.g.Z.f.g.g.g.g.y.2.2.1.J Y 1.B.B.4.<.5.4.5.5.5.4.5.y.B.=.) ` ` -.1._ ..1.-.R a Y Y J J I -...` w.-.G 6 % ; : @ 0.JXgXBXrXh.).H.,.:.:.B.>.' Z.}.4.*.C._.^.^.^.H.Z.Z.h.h.^.H.f.*.,.g.L.H.H.G.H.p.p.L.H.L.C.p.(.].aX$X,.] C.OX].L.E.^ m j X & O ;XcXtXyXD.>.4.B.B.B.B.4.` ` :.4.B.S.B.4.4.) X._ Y ) ....-.-.X.....| | } } R K Y | .._ _ ..-.1.2.4.4.2.2.>.<.g.S.A.H B g % o , 0XMXnXNX{.C.H.H.H.Z.Z.Z.j.j.j.j.j.f.f.f.f.a.a.<.f.Z.Z.Z.Z.f.>.3.M.rXrX%XP.*X%X@X&X@X$XaX@Xs.h.P.&X&X%XrXdX&X$X$X#X^ Z h $ o v FXGXmXbXL.Z.H.^.Z.h.Z.Z.Z.j.j.j.g.Z.Z.g.6.g.g.B.5.4.5.B.y.y.B.y.B.B.V.B.V.V.V.V.5.4.V.F.Z.V.Z.F.Z.V.B.5.5.5.4. .z k l ; : O ; 9.2X>X3XX.) X.1.w.r.1.X.2.1.>.4.` <.C.Z.C.h.Z.h.g.f.a.4.B.B.4.) ..K ) Y.) K ) S.F.B.>.( ,.G.].].B.:.S.-.X.) X.X.t m S < ,   S 0X,X3XY.O...2.-.4.B.V.F.~.~.~.F.Z.Z.Z.V.g.4.<.<.f.j.j.f.<.:.>.<.2.X.K r Y ) K 1.-.e _ A.S.y.S.~.V.V.V.4.<.r.1.K t C h o + 2 n.9X6XuXW.h.h.^.).(.L.h.h.h.h.f.C.f.` :.4.>.4.<.` 4.B.4.f.B.f.<.:.<.B.B.:.` :.<.>.*.:.,.O.=.r.A.B.4.p.h.^.Z.C.N.^ 0 z g ",
"MXZXVXNXM.a.C.^.=X[._._._._.[.[.`.[.`.Z.^.[.[.`.`.Z.Z.Z.B.F.F.f.&.<.Z.^.^.^.`.^.Z.Z.j.g.f.p.f.Z.F.F.F.(.`.`.^.F.S.U V j = X v 9XlXxXiXD.L.D.)././.^.l.H./.H.H.L.G.].).] *.C.,.C.a.,.,.a.B.a.a.a.g.f.C.^.Z.<.<.D.f.:.B.a.[ p.j.Z.Z.Z.k.j.h.C.R.r.z k * *   S 0X8XbX{.B.B.V.g.!.g.f.g.g.B.5.2.1.-.J a =.2.2.y.4.5.4.5.5.5.4.5.y.4.=._ Y ) 1..._ -.w.w...Y I J K ..} | ..| ;.u.o.7 * % : + 9.LXnXnX&XP.J.H.).<./ D.:...'.}.<.,.D.H.G.L.H.^.^.Z.<.f.Z.Z.f.,.*.p.G.L.l./.G.h.h.H.L.).Z.,.].hX$X'.4.[ x.XX@XP.E.^ N j # & O :XFXlXyXD.` >.4.4.B.A.r.-...1.4.B.B.B.B.B...| ) ) ) ) ..1.1.-.X...| ..| | J K ) | | ) ) ..-.1.1.:.1.r.r.<.4.4.A.A.x c g # O & qXMXnXjXL.h.Z.Z.Z.Z.Z.Z.Z.Z.Z.Z.Z.f.p.a.f.f.p.a.f.f.g.Z.Z.D.4.] K.$X$X#XP.OX%X&X&X@X@X@XL.x.s.).&X&X@X&X&XOX@X$X#X{ C 9 X   v cXmXxXbXR.L.Z.j.j.j.j.j.j.j.j.f.f.g.Z.j.g.g.V.B.5.4.5.B.V.B.5.B.y.B.B.V.V.F.F.4.4.B.V.S.F.F.F.F.S.B.B.B.f.4.r. .V k b 3 O + ; 0.;X>X4X1. .) 1.2.1.) :.4.:.<.:.] :.a.C.C.f.f.f.g.4.&.:.B.F.2.K _ _ -.2.-.) -.Y.Y.S.1.<.<.h.+X[.D.` ) r.t.1.X.+.M m S 4 , . ! 9X8X3XY.X.) X.| r.B.V.F.F.F.F.F.F.F.Z.g.f.g.g.Z.Z.g.j.Z.Z.5.:.:.2.=.Y a ....) 1.1.p Y Y s / 6.~.~.5.Z.>.4.4.t.^ M V b o X , m.0X6XeXK.C.Z.h.G.L.Z.Z.j.Z.Z.C.Z.B.<.:.' <.B.:.` 4.B.4.B.f.a.f.B.f.4.S.1.)  .' &.<.*.B./ =.4.B.B.4.<.h.Z.^.M.+.^ 0 j j ",
"MXZXVXNXM.a.f.Z.[.[._._._._.[.[.[.}.`.Z.^.[._.^.`.Z.Z.Z.V.F.~.B.:.f.Z.!.Z.^.`.`.Z.Z.Z.g.f.p.f.Z.F.F.~.(.`.`.(.(.S.U V j $ X v 9XtXiXiXN.L.G.).)./.H.j.H.H.H.H.H.C.).L.] ,.Z.a.D.p.<.a.C.D.B.M.f.f.Z.F.Z.B.4.4.f.Z.4.Z.p.[ <.f.h.j.j.k.l.C.D.R.e.z k * * X S DX8XbX{.B.B.S.B.~.Z.g.g.V.B.y.2.1.1.P p ..2.2.B.5.y.4.5.5.4.4.y.y.4..._ K ) 1.;._ -.w.r.-.Y P P R | | X.;.| =.y.o.7 * % : + 9.LXMXnX%XI.J.H.H.p.( a.:.| Y.{.3.3.K.L.G.L.H.L.(.C.4.f.f.B.f.<.<.h.L.P.G./.G.h.G.H.L.^.Z.,.].hX$XR.4.[ *.).OXP.E.^ Z h # & X :XFXlXvXD.>.<.<.>.<.B.B.w.) ` :.B.B.B.f.B..._ ) ) ) ) ..1.1.-.X.........| J J K ) | _ _ ..X.-.:.:.1.4.4.<.4.4.y.A.c c g % O , qXHXnXjX(.h.Z.Z.Z.Z.Z.Z.Z.Z.Z.Z.Z.f.a.f.f.f.p.f.g.h.Z.L.Z.f.:.' f.].OX$XP.OX%X&X@X@X@X@XP.d.a.P.@X@X@X&X&X*X@X$X#X{ C f X   v 0XmXxXNX'.'.F.j.j.j.j.j.j.j.j.g.j.Z.Z.j.g.g.g.5.5.5.5.B.B.B.B.B.B.B.B.V.V.S.F.<.4.f.B.Z.F.F.F.F.S.S.B.B.B.4.2. .V B b 3 O + 2 0.;X>X4X1... .1.2.1.` :.<.:.,.] ] :.f.Z.Z.g.f.g.Z.4.:.&.4.B...a :.-.1.2.| K | u.t.q.| >.<.j.+X`.D.` | r.q.| | +.w n B < , . ! qXlXtX{.1._ ..| 2.B.B.F.F.F.F.F.F.B.Z.Z.B.g.f.g.B.f.f.Z.Z.V.4.4.5.B.:.Y _ _ R -...a a a ' <.Z.Z.g.g.Z.>.4.r.A.^ M C b $ @ 2 m.0X7XeXK.Z.H.Z.H.L.C.Z.j.Z.Z.C.Z.C.<.<.( >.B.<.<.B.B.r.B.a.a.a.f.a.4.4.) ) 1.3.:.*.<.<./ -.r.r.B.<.f.Z.Z.L.a.+.^ 0 z k ",
"nXZXCXNXM.a.a.Z.[.[._._._._.[.[.}.}.`.Z.^._._.^.`.Z.F.Z.Z.F.~.B.<.g.Z.Z.Z.^.^.`.Z.Z.Z.h.f.p.f.Z.F.~.^.`.`.`.(.(.S.U V g # X v 0XtXiXpXM.L.L._.)./.l.j.l.H.H.G.G.Z.(.Z.*.<.Z.a.C.<.4.f.Z.F.C.B.B.4.Z.F.f.<.4.4.4.F.f.Z.<.[ <.k.h.j.j.s.l.C.D.R.e.z c * *   S DX8XiX{.B.B.V.g.!.g.g.V.V.V.B.r.2.1.T a | :.2.B.5.5.4.5.5.4.4.y.y.4..._ Y ) 1.-.| -.2.u.1.K J R T | X.-.-.;.=.r.o.6 * % & + 9.LXMXnX#XP.L.G.H.h.( :.:.| A.'.3.3.L.L.G.L.H.L.(.C.4.f.4.f.f.<.p.C.P.J.H./.l.h.H.^.H.H.K.,.'.sX$X'.3.' x.J.XXP.].^ m 9 $ & O :XFXlXyXD.,.<.<.>.<.B.A.r.) / ` 4.B.f.4.B.X._ ) ) ) ) | -.-.X.X...X.X...| K J K ) | | | | ......:.1.1.1.4.4.>.r.t.x c g $ $ , 0XHXmXjX].Z.Z.Z.H.H.H.Z.Z.Z.Z.L.Z.g.f.f.f.f.f.f.Z.Z.^.(.Z.4.*.( f.].OXOXP.OXOX%X@X@X@X@XP.p.p.L.@X@X@X&X&X*X@X$X#X{ C 9 X   n 0XmXxXNX}.'.(.j.j.j.j.j.j.j.j.j.j.Z.Z.V.V.g.V.<.4.5.B.B.B.B.B.B.B.B.B.V.V.V.Z.<.<.f.B.Z.F.F.F.F.S.S.B.B.4.<.1. .V B b 3 O + 2 0.;X>X4Xe.X...2.r.2.` 1.<.:.>.` ] :.f.F.Z.g.f.g.f.<.&.` <.5.:.s :.:.2.1.) p ) r.q.X.) ,.f.Z.[.^.D...| q.X.) | +.w j n < 1 . ! qXlXyX3X1.) | | 2.r.B.S.F.F.F.F.F.g.Z.F.Z.g.f.f.B.f.f.V.Z.F.B.5.5.4.:.Y _ _ | 2._ a a / 4.S.V.g.g.g.Z.>.4.r.M.I w C b $ @ , n.9X6XuXR.G.^.^.H.L.C.Z.h.Z.Z.h.Z.C.<.<.( ] 4.4.4.B.a.r.B.f.<.a.f.f.4.:.p K 2.4.:.*.<.:./ :.r.4.4.<.f.^.Z.Z.3.@.{ w B B ",
"nXZXVXNXM.a.f.Z.`._._.[.[.[.[._.[.}.`.^.^._._.^.`.Z.F.F.Z.F.~.B.f.Z.^.Z.Z.Z.^.`.Z.Z.h.h.f.p.f.B.F.F.^.(.`.(.^.L.S.U V g # X v 0XzXiXeXM.L.L._././.l.j.l.H.H.G.G.Z.).h.] <.C.<.f.,.<.f.B.B.f.f.f.f.Z.F.B.4.<.4.B.F.f.f.*.&.f.f.Z.j.j.s.H.G.D.R.e.z B 6 *   S DX8XyX}.4.a.B.f.Z.g.g.Z.V.B.y.y.4.2.;.K _ =.1.5.2.4.>.4.5.4.4.y.y.4.;.| R _ 1.-.| ;.-.u.w.Y P T ) T | X.-.=.;.w.o.6 * % & o 9.LXMXBX%XP.).G.H.L.*.( 1._ e.Y.3.:.L.K.J.L.H.H.(.C.4.f.<.f.a.<.p.C.P.H.H./.h.h.H.H.Z.H.K.,.L.aX{.'.3.( p.).XXP.{.^ Z h $ & + :XFXlXyXD.:.>.<.<.r.B.B.r...Y ) 4.B.5.4.B.2.X.) ) ) ) | X.X.....X.X.X...| | Y K ) ....| ) .._ ` -.:.-.1.4.>.>.r.t.x c g & & , 0XGXCXjX].Z.Z.H.H.H.H.Z.Z.Z.Z.H.Z.f.a.f.f.f.a.f.h.Z.^.(.Z.4.:.[ G.$XOX#XI.OX%X%X@X@X&X$XJ.p.h.L.OX@X@X&X&X@X@X$X#X{ C 9 o   n cXmXxXNX'.'.F.Z.j.j.j.j.j.j.j.j.Z.Z.g.V.Z.Z.V.:.4.B.B.5.5.B.B.B.B.B.B.V.V.V.V.4.f.B.V.S.F.F.F.S.V.B.B.B.4.<.1. .V B b 3 O + 2 0.U.>X4Xe.O.| 1.2.3...1.4.:.>.] :.>.f.F.Z.f.<.a.5.4.:.:.<.B.1.) ..-.2.2.) a ) w.1.X.| 4.f.Z.[.L.B.` | 1.X.) | +.w q j , , . ! 1XlXvX3X1./ | | r.4.5.B.S.F.F.F.F.Z.Z.F.Z.g.f.g.B.f.f.g.V.Z.B.5.>.` ` ) =.-.1.2.a a _ y.F.V.5.g.Z.g.V.:.<.r.M.K w Z b $ X , n.qX6XiXE.K.)./.^.L.C.Z.h.Z.Z.C.Z.C.<.<.*.:.<.4.a.f.4.B.B.B.a.f.g.f.a...p p | ..` ,.<.<./ -.2.2.4.<.g.).Z.C.,.+.} w B k ",
"BXZXVXjXM.a.D.`.`.`._.[.[.[.[.).[.[.`.^.^.).`.^.^.Z.F.F.Z.F.F.f.f.Z.^.Z.Z.Z.^.(.Z.Z.Z.Z.g.f.f.B.F.F.~.^.^.!.Z.F.A.M V g # X v 0XvXiXpXM.K.G.).H./.l.l.H.H.H.G.G.Z.].f.*.a.f.a.f.,.4.a.a.a.a.a.f.Z.C.Z.F.B.,.4.F.B.a.4.] *.g.f.H.j.j.h.H.G.Z.R.e.x B 6 *   S 0X8XtX}.4.r.B.f.Z.g.f.V.V.5.5.y.r.2.1.K _ =.1.4.>.4.>.4.4.4.4.y.r.2.-.;.) _ 1.-.| ..| u.r.Y I } T P T } -.1.2.r.} 6 * % + + 9.LXgXBX#XI.).G.H.).,./ 2.| 1.Y.3.] L.G.G.L.H.H.(.C.<.f.4.5.<.,.<.C.L.H.H.H.h.p.C.C.C.L.Z.*.F.$X}.'.3.( h.XX).L.].^ Z j $ : + :XFXlXiXT.:.>.<.<.r.y.y.y.r._ / 1.B.f.f.S.B.1._ ) ) ) | X.........X.X.| | ..Y K ) ...._ ) | _ | X...-.1.4.>.:.r.t.x z g = & , 0XGXCXjX].Z.Z.Z.H.H.H.Z.Z.Z.Z.Z.Z.f.4.a.f.a.p.f.f.h.Z.^.Z.f.:.] (.&XOX].I.&X&X@X@X@X&XOXG.x.L.).OXOXOX@X&X&X@X@X#X{ C < X   v cXMXxXsXR.D.Z.Z.j.j.j.j.j.j.j.g.Z.V.g.V.!.Z.V.&.4.B.B.5.5.B.B.y.B.B.V.V.V.V.B.B.B.V.S.F.F.S.S.Z.B.4.4.4.4.4.r. .V B b 3 O + 2 0.;X<X4Xe... .O.2.4...4.4.:.<.:.:.:.f.Z.C.<.*.<.Z.B.4.>.<.4.:./ | 1.r.r...K ) 1.X...| <.<.<.^.^.B.` ) 1.1.......w 9 j , ,   ! 1XlXvX3XX.K ) ..t.4.4.f.B.S.F.F.F.(.F.Z.B.B.B.g.C.g.g.g.g.V.B.5.>.=.:.=.1.1.1.-.e _ y.~.F.5.g.V.V.g.Z.:.4.t.A.I w Z b & o , n.0X6XxXE.L.).).^.H.C.Z.h.Z.Z.C.Z.Z.<.a.f.f.a.f.B.B.B.f.B.f.a.f.g.f.4./ p K K / ] <.,.B._ ..1.1.4.<.g.^.h.C.d.+.{ 0 c f ",
"VXZXVXjXa.a.Z.[.`.`._._.[._.[._.[.[.(.^.`.).`.`.^.Z.Z.F.Z.F.F.5.f.Z.^.Z.Z.Z.^.^.Z.Z.Z.Z.g.f.f.B.F.F.~.!.!.Z.Z.F.A.M V h # X v 0XvXxXpXM.K.G.).H./.l.l.^.).H.G.Z.Z.[.a.*.a.a.B.C.4.a.a.a.a.a.B.f.f.a.f.Z.4.` :.D.B.f.4.( ,.h.p.H.j.j.h.H.G.Z.R.e.x B 6 *   A 0X8XyX{.r.M.B.f.Z.g.f.g.V.5.4.y.r.2.-.J ) =.1.4.2.5.4.4.5.4.2.4.w.2.....) _ 1.-.| _ } u.w.T R } R P I T ;.2.y.r.} 6 * % % + 9.LXMXBX#XG.P.G.G.^.<./ 2.X.1.Y.4.( ).G.G.L.H.H.(.B.<.4.4.f.<.*.<.C.L.J.H.H.h.p.h.h.h.L.Z.] D.$X$X].a.[ z.XXOXP.{.^ m n $ : + :XFXlXiXT.<.<.>.>.1.4.y.A.A.../ =.y.B.B.S.S.2.) ) ) | ..-.X...........| | ) K J K | | _ ) ) | | ) ) ..2.4.>.:.r.t.x c g $ & , 0XGXCXjX].Z.Z.Z.H.H.H.Z.Z.Z.C.Z.Z.f.4.4.4.<.p.f.g.h.Z.L.F.Z.&.] L.&XOXE.P.&X&X@X@X@X&XOXC.,.P.].OXOXOX@X&X&X@X@X#X{ C < X   v cXmXuXiXL.D.B.Z.j.j.j.j.j.j.j.g.Z.Z.g.V.~.Z.g.:.5.V.B.5.B.B.y.y.B.B.V.V.B.B.B.B.Z.S.F.F.F.S.Z.B.B.4.<.<.4.4.r. .V B b 3 O + 2 v.;X<X4Xe.O. ...2.3.X.4.4.:.<.:.:.:.4.Z.B.,.&.,.B.5.<.:.<.5.:./ | :.r.r.| K K ) X...| 4.<.<.).[.f.' ) -.1.X... .w 9 h $ , @ ! 1X1XyX3X| K ) ..A.r.4.4.B.V.F.F.F.'.F.Z.g.B.B.g.B.g.5.5.4.5.5.5.>.2.2.=.:.-.1.2.K r.S.S.4.5.~.!.5.Z.Z.>.4.A.Y.) w B B & o 2 m.0XzXnXR.Z.).).^.H.C.Z.h.Z.Z.C.Z.Z.<.4.Z.Z.f.f.f.a.B.4.f.f.p.f.f.f.4.p p I ) ` ,.4.&.Z.` -.1.1.4.4.g.H.f.f.a.+.^ 0 c f ",
"MXCXVXjXa.a.C.`.`.`.`._._._.[.[.[.'.^.^.`.).).`.H.Z.Z.F.Z.F.F.4.f.Z.^.Z.Z.Z.L.L.Z.Z.Z.Z.B.f.f.B.F.F.~.!.Z.j.Z.F.A.M V h # X v 0XzXiXpXM.G.C.).).H.j.l.^.).H.Z.C.C.[.<.*.<.,.f.B.a.B.B.4.a.B.B.4.<.4.f.a.] / _ >.B.B.<.( <.Z.p.Z.j.j.h.H.G.Z.R.e.M B 6 *   A 0X8XyX{.t.M.B.f.Z.f.k.g.V.5.4.y.r.2.-.a ) -.=.2.>.5.4.5.5.4.2.4.2.1.) _ Y ) -.-.| _ | r.1.R R T R K W W | 2.y.u.} 6 * % & + 9.LXMXnX%XG.P.P.G.^.a.' :...X.R.3.' ).G.G.L.H.H.^.g.<.4.4.f.<.<.p.G.L.J.H.H.C.h.h.p.f.^.Z.] C.$X=X$XC.] s.XX@X].{.^ m j $ : + :XFXlXiXT.<.<.1.1.1.1.r.B.B.=./ ` r.A.B.B.B.:.) ) | X.X.X.-.X...| | | | | } K J I ) ) ) ) ) ..| K K X.r.4.>.>.t.u.c c g % & , 0XHXmXjX'.Z.Z.Z.Z.Z.H.Z.Z.Z.C.Z.Z.f.a.a.a.<.p.h.Z.Z.Z.L.F.F.,.] L.$XOX#XP.%X&X%XOX@X&XOXG.d.L.P.OX$X@X@X@X&X&X@X#X{ C 9 X   n cXmXuXiXD.D.B.Z.j.j.j.j.j.Z.Z.g.Z.Z.g.V.~.V.<.>.B.V.5.5.B.V.y.y.B.B.V.V.B.B.g.B.Z.Z.F.F.F.S.Z.B.B.B.y.r.4.4.2. .V B b 3 O + 2 v.;X<XyXe.+. ...1.2.X.4.4...>...:.:.<.C.B.:.&.<.<.>.&.&.<.B.:.Y ..1.2.2.| K J K -..._ 4.f.f.[.[.a.` ) X...) |  .z q 9 X & @ 7.qX<XyX3XX.J ) ..t.y.4.4.B.B.F.F.F.F.F.Z.B.f.f.f.f.g.5.4.:.=.:.:.=.=.` ) =.=.1.u.1.B.r.2.>.B.~.Z.5.Z.Z.:.4.A.Y. .e B b & o 2 m.cXzXnXK.C./.).H.G.C.Z.h.Z.Z.C.Z.Z.<.,.Z.Z.a.f.f.4.f.4.f.g.f.g.h.f.4.K K ) -.1.<.4.:.B._ 1.2.1.4.<.B.Z.f.g.a.+.U 0 B k ",
"nXVXVXkXM.a.f.^.`.`._._._._.[.[.[.`.^.^.`.)._._.Z.Z.Z.Z.Z.F.S.4.4.Z.F.F.Z.Z.Z.Z.Z.Z.Z.Z.B.f.f.B.F.~.(.^.!.Z.Z.(.A.M V f # X v 0XtXiXpXM.D.C.)._.l.j.l.^.).H.C.h.C.[.<.] *.` <.f.4.f.f.a.B.B.4.>.,.f.Z.4.( ' _ ` B.B.<.( a.Z.f.^.h.j.h.H.G.Z.R.e.M B 6 *   A 0X8XyX{.r.r.B.4.g.k.f.g.g.5.4.B.y.2.1.K _ =.=.>.:.5.4.5.5.4.2.2.2.1.Y ) K Y ;.-.| _ -.w.-.R P I K Y X.} | 1.y.u.} 6 * % % + 9.LXMXnXrXG.].OXH.).f.] ` )  .Y.1./ L.G.G.L.H.H.^.g.<.4.<.f.a.p.h.L.).J.G.H.G.C.h.p.p.^.Z.] C.$XaXaXF.,.p.).$X#X{.^ q h $ & + :XFXlXiXD.:.1.4.4.4.2.2.4.4.../ _ 4.S.A.r.4.../ ) X.:.X...-.-...| | | | | | T I Y ) ) ) ) K ..| a a ..r.1.>.>.t.A.x c g # $ , 9XHXnXjX'.Z.Z.Z.Z.Z.Z.Z.Z.Z.Z.Z.Z.g.a.f.f.<.f.H.`.^.^.L.L.F.f.,.L.$X@X#XI. X&XOXOX@X&XOXG.p.G.J.].@X&X&X@X*X&X@X#X{ C 9 X   n 0XmXuXiXR.S.D.Z.j.j.j.j.j.Z.Z.g.Z.Z.V.V.F.g.*.4.B.V.5.5.V.V.5.B.B.B.V.V.B.B.f.B.B.Z.S.F.F.S.Z.B.B.B.B.B.y.<.1. .V B b 3 O + 2 0.;X<XyXr.1...+.1.2.X.4.2.` O._ :.] ,.B.B.:.*.4.5.4.:.&.<.4...a 1.4.r.2...) Y ) -.| ) <.a.p.`.(.4.` ) | ) I ) ..z q < X + @ 7.qX<XyX4X+.K ) | q.A.B.4.B.A.F.~.(.V.S.F.Z.f.4.4.f.y.5.>._ / ' _ ' ` _ Y -.-.-.y.2.1.:.:.5.g.5.g.Z.g.V.&.<.A.Y.) w j k $ o , n.0XzXnXK.C.^./.H.G.Z.Z.g.Z.Z.C.Z.Z.<.,.L.Z.a.Z.Z.f.f.f.B.Z.Z.Z.Z.B.a.X.K | w.4.>.<.<.,./ 1.r.2.<.<.Z.Z.f.f.3.O.U 0 V j ",
"nXBXLXjXD.,.B.`._.`._._._._.[.[.[.[.`.^.^.`.`.`.Z.j.Z.Z.B.B.S.f.f.Z.^.L.F.Z.F.^.Z.B.B.Z.Z.f.f.g.S.F.~.^.!.!.Z.F.A.M V h # X v 9X6XeXeXN.N.G.h././.l.l.^.H.G.C.C.Z.Z.:.` ] ,.Z.B.a.a.a.B.B.B.:.d ,.B.B.<.` ` >.4.r.4.>.&.<.^.^.h.h.Z.h.H.C.Z.R.e.x B f * X A 9X8XyX{.r.r.B.4.V.6.f.f.g.g.B.y.r.r.1.Y ) :.-.:.4.>.>.>.>.>.4.2.1.1.K a K ) -.1...) ;.| -.Y Y | Y T X.X.;.-.r.A.o.7 * % : + 9.LXMXnX%XG.L.P.H.).Z.( ` ..X.Y.O.:.D.L.L.L.(.).^.g.f.f.4.f.f.f.h.H.H.G.H.).G.C.G.C.h.H.L.d f.Z.$XaX].,.] P.@XOXeXU q b & & , :XFXvXyXD.1.2.2.A.:.r.4.4.4.4.` / 1.B.A.B.r...` -.1.-.....:.X...| | _ ) ) } } Y J I ) ) ) ) | ) K K | 2.4.>.=.w.-.L z g & & , 9XHXnXjXL.h.H.Z.j.j.Z.Z.Z.Z.C.^.f.<.B.B.4.f.<.f.Z.Z.Z.L.F.Z.:.] L.&X$XOXI. X&X&X@X@X&X&XP.p.s.).OXOX@X&X@X*X-X@XeX{ C < o @ n 0XmXxXNXR.S.Z.f.g.Z.Z.g.g.g.V.Z.g.Z.Z.g.~.!.&.B.B.y.B.B.B.B.B.y.5.5.y.V.V.B.B.B.B.B.Z.Z.Z.S.S.B.B.B.B.4.r.<.1.o.V j D 3 O O 2 0.;X<XyXr.+.X. .2.X.1.4.2.O...>.:.` ( <.f.:.] 4.B.<.&.:.<.>._ a ....2.2...K Y X.q.Y ) >.<.p.Z.(.,...-...1.H K +.w g * X , > 7.9X,XyXyXq.| K X.1.2.y.y.4.y.S.F.B.F.F.F.F.Z.B.5.4.4.y.5.4.4.4.2.=._ _ ) _ =.:.=.=._ =.4.y.V.V.Z.Z.g.&.:.>.S.Y.^ y m h $ o , n.cX6XnXL.p.).^.).C.f.C.L.Z.C.Z.^.Z.*.<.h.Z.h.g.Z.Z.g.f.C.Z.g.h.Z.B.4.-.K Y q.2.:.,.f.>.:.4.y.:.` 5.^.Z.h.f.a.+.N 0 j k ",
"nXBXLXNXD.,.C.`.`.`._._._.[.[.[.[.[.^.^.^.^.^.^.Z.h.g.g.B.Z.F.5.4.B.Z.F.Z.Z.F.F.Z.B.B.Z.B.f.f.B.S.F.~.!.!.!.Z.F.A.M V h # X v qX6XeXeXN.a.D.h.J./.l.l.^.^.H.Z.Z.Z.Z.:.] *.<.B.4.B.B.a.4.4.>./ i ` <.f.<.` ` >.4.4.B.<.&.,.Z.H.h.h.H.j.H.C.C.L.e.z c 6 *   A 9X8XyX{.r.r.B.4.g.6.f.f.g.V.g.5.4.r.-.K ) :.=.>.5.>.4.4.4.4.4.2.1.=.a J K ) | ..| _ | | -.Y R | T T X.| ..;.2.y.} 7 % % O X 9.IXMXVXrXL.L.P.H.^.Z.( ......Y.:.3.K.L.H.J.L.(.L.g.f.f.4.4.a.a.h.H.L.J.H.^.Z.C.G.C.f.G.L.d a.G.$X$X].,.*.].$X#XeX^ j n & $ & :XFXxXyXK...-.-.r.` 2.2.4.4.4.` Y X.r.y.B.4...` -.1.-...X.1.X...| | | ) ) } ) I J J ) | ) } | ) J K | 2.2.:.$.r.q.L g l & & , 9XHXnXsXL.g.Z.Z.Z.Z.Z.Z.Z.Z.g.Z.<.&.f.f.<.f.p.f.Z.Z.Z.L.F.C.&.] (.&X$XOXE.OX@X&X@X@X&X&XP.p.s.).OXOX@X&X@X@X&X$X#X^ Z < X @ v 0XmXxXbXD.D.B.6.g.j.Z.j.g.V.Z.Z.V.Z.Z.V.V.5.` y.B.B.B.B.B.B.B.B.y.5.B.V.V.V.B.B.B.V.Z.S.S.Z.V.B.B.B.4.4.4.<.1. .M j D 3 O O 2 0.;XQ.4Xe.....) 1.X.1.2.2...) ` ) _ _ ,.f.:.` <.B.4.>.<.4.<.` K ..1.r.2.| K K | 1.I ) ,.4.p.Z.(.4.1.r.1.r.) )  .w j < o 2 > 7.9X<XtXyXq.| J X...t.y.y.r.y.B.B.B.F.F.F.F.B.f.4.4.y.y.y.y.B.B.4.:._ ) / ) =.:.=.=...:.4.B.B.g.g.V.5.:.4.4.S.S.^ q m h & o , n.cXzXnXL.p.).^._.Z.h.f.Z.Z.f.h.H.Z.*.*.f.Z.h.g.j.j.f.f.C.C.g.h.Z.B.4.) p T r.r.:.:.<.:.` 1.r.=.=.5.Z.h.h.f.a.+.U 0 z j ",
"nXVXLXNXK.<.C.`.`.`._._._.[.[.[.[.`.^.Z.Z.^.^.^.^.f.f.f.f.F.F.5.>.4.B.S.F.S.S.F.F.V.B.B.B.f.f.B.S.F.~.!.!.!.Z.F.S.M V g # X v qXtXtXpXN.N.G.C./.^.l.l.l.H.G.Z.Z.Z.Z.&.*.<.<.B.<.4.5.y.y.B.4.` s / &.4.>.` ` 1.r.4.B.4.] &.f.Z.h.h.H.j.H.C.C.L.+.w z 6 *   A 9X8XyX{.r.r.B.4.V.6.f.g.g.g.5.5.4.4.;.Y ) =.1.4.y.4.5.5.4.4.4.2.1.=.a K Y Y R ) _ | | -.w.Y P | T T X.o.=.=.1.y.} 7 % % O o 9.LXMXVXrXP.L.P.H.).Z.( ..|  .D.3.a.L.G.J.J.L.L.F.f.f.f.4.4.<.<.f.G.P.H.L.L.C.C.G.h.f.G.L.( a.L.+X$X].,.x.$X&X{.#X^ m h $ O + :XFXxXyXR...X...2.) :.>.<.>.<.` Y ` 2.t.A.4..._ ..:.-...:.:.X...| | | _ | | } I H J T | | | | Y J K ..2.1.$.$.r.q.L g f & & , 9XHXnXsXL.f.g.Z.Z.Z.Z.Z.Z.Z.C.Z.*.' <.f.<.f.f.h.Z.Z.L.L.Z.B.] ] (.&X$XOX X@X%X&X@X@X&X&X).p.s.).OX].$X&X@X&X@X$X{.^ Z < X   v cXmXxXsXD.B.B.6.f.j.Z.g.g.Z.Z.V.Z.V.Z.F.5.$.` y.y.B.B.B.B.B.B.B.B.B.V.V.V.V.V.B.B.Z.F.F.S.V.B.f.B.4.<.<.4.<.1. .m g k 3 O O 2 0.;XU.3Xe.O...) 1...X.2.r.:.) / / ( &.4.B.<.:.B.B.4.<.4.4.>.` K ..2.t.2.| Y K K -.) | a.f.f.Z.].a.4.u.1.r.X.X.) w B f $ 2 @ 7.DX2X4X4Xq.| J } ) r.2.4.4.r.4.4.y.Z.F.~.F.B.4.<.4.y.y.y.y.y.y.r.=..._ / _ =.2.1.:...1.4.g.g.g.g.V.<.>.B.B.Y.D.^ w B k & & , m.FXzXiXL.a.[.^._.G.C.f.C.f.a.g.Z.h.*.&.<.h.h.h.j.h.k.f.h.h.h.j.Z.C.<.) p T w.r.:.:.,.>.` :.2.=.:.f.Z.g.f.a.a.+.U w k h ",
"nXBXZXkXK.<.C.^.`.`.`._._.[.[.[.[.`.^.Z.Z.H.^.^.^.h.f.f.5.Z.F.B.:.>.f.S.F.S.S.F.F.V.B.B.f.5.B.B.S.F.~.!.!.!.Z.F.S.M V g # X v qXlXiXpXD.N.G.C./.l.h.h.j.G.h.C.Z.F.B.&.<.f.4.B.>.<.4.y.B.B.B.2._ d &.4.<.O.:.4.B.B.B.<.` &.f.Z.f.h.Z.j.H.Z.C.D.+.0 z * *   A 9X8XyX}.q.r.B.4.V.6.f.g.g.g.5.4.4.r.-._ ) =.1.4.y.5.5.5.4.4.5.4.2.1.Y K K Y R ) _ | } -.r.Y J } } } X.X.;.=.;.r.} 6 * % % + 9.LXMXBXdXP.P.P.H.^.Z.` ) ) ) S.:.a.L.G.J.J.L.(.L.g.f.f.f.4.<.<.f.H.).L.L.H.h.h.G.h.f.G.(.] a.].[.[.].p.a.&XaX].{.} m 9 $ O + :XmXxXiXW.1.1.X.1./ =.:.1.>.4.=./ _ 1.r.A.4.=.` ..:.:.:.1.X...| | | | | | | } I H J Y } | | | Y K ) -.1.1.` $.r.w.L 0 f & O , 9XHXnXiXK.p.p.h.Z.H.Z.h.Z.Z.Z.Z.] d <.f.4.f.h.Z.H.H.L.L.Z.B.] ] ].&XOXOX X@XOX%X@X@X@X@XP.p.s.).OX).OX@X@X&X@X$X{.^ Z < X   n 0XmXxXiXD.B.B.f.g.j.j.g.g.Z.Z.V.Z.V.Z.(.4.( >.B.B.B.B.B.B.B.B.B.B.V.V.V.V.V.V.B.B.S.F.F.S.B.B.f.B.4.<.<.4.4.1. .z g k 2 O + 2 v.;XU.>Xe.+.X.) 1.| | 2.r.2.` ) ` :.>.a.B.<.,.B.B.4.<.<.4.>.) a ) 2.t.1.| ) ) K -.) 1.D.Z.h.^.[.B.4.r.| 1.1.r. .z B f & 2 @ 7.DX<X4X4Xq.| J T Y 1...:.4.r.4.4.B.B.S.F.Z.4.>.>.4.4.y.y.2.1.1.-..._ ) ) _ =.2.1.=...:.4.5.5.g.g.Z.6.<.V.S.Y.Y.^ w B k & & , m.FXzXiXL.f.[.^._.G.Z.f.f.a.<.f.Z.g.*.( <.f.h.j.j.h.k.f.h.j.h.j.H.B.<.) K ) 1.1.1.<.4.>.` -.1.:.>.B.Z.g.f.a.a.+.U 0 k h ",
"nXBXCXjXD.,.B.Z.(.(.`._._.[.[.[.[.`.^.Z.Z.H.^.^.^.Z.Z.g.4.B.F.B.:.>.4.S.F.S.Z.F.F.V.B.f.f.f.f.V.S.F.~.!.!.!.Z.L.S.M V g # X v qX6XpXeXN.a.D.h./.l.h.k.j.h.h.h.C.Z.5.$.4.Z.B.B.>.4.f.B.y.r.4.../ ' >.B.4.1.1.4.B.B.B.>._ *.h.Z.f.p.h.h.H.G.D.D.+.q j * *   A 9X1XyXW.q.4.y.4.V.f.f.g.g.g.g.5.4.r.2.;._ _ 1.4.5.B.5.4.4.5.y.y.4.2.) Y K Y _ ..| _ ) -.r.T J } } | -.X.;.=.=.w.o.6 * & & o 9.IXMXBXhXP.P.).H.).Z.] ) )  .A.O.4.L.L.L.L.(.).^.C.f.f.f.5.<.,.f.H.).L.^.Z.f.C.G.C.f.L.L.] *.].).].).,.s.aXaXE.{.^ j < $ O O :XmXxXiXW.2.1.-.1./ =.:.2.>.4.:./ ) -.w.A.4.:.....:.:.1.2...` ` _ | | | | | } I H J T } } ) ) Y ) _ X.-...` ` r.q.x 6 f & $ , 0XMXnXrXD.<.<.f.Z.Z.Z.h.h.Z.Z.Z.] d ,.f.4.f.h.Z.H.H.L.L.Z.B.*.:.].&XOXOXP.%XOX%X@XOX$X$XP.a.s.).OX).OX@X@X&X@X$X#X^ Z < X @ v 0XmXiXiXB.B.D.g.j.Z.Z.V.g.V.V.V.Z.V.F.~.>.' <.B.B.B.B.B.B.B.B.B.B.V.B.B.B.B.V.B.B.S.F.F.Z.B.f.B.B.B.4.4.r.4.3. .c g k 3 O + 2 v.;XU.W.q.1.+.| 2.| ) 1.r.1...' ) ` :.>.<.:.:.f.V.f.<.4.B.4...Y Y :.r.-.| ..| Y X.) 1.F.Z.h.^.[.B.4.t.| ..1.A. .w B h & 2 > 7.9X,X,X4Xr.X.J T I X._ ` 1.4.4.4.S.B.B.S.B.4.>.>.4.2.y.y.-._ ) ) _ / / ) _ -.=.=.` -.1.4.4.5.5.f.g.g.<.B.B.Y.Y.) w m h & o , n.cX8XiXR.f.[.^._.G.Z.f.f.<.<.g.Z.g.*.[ <.f.j.j.j.j.h.f.h.j.h.j.H.g.:./ J } 1.1.1.4.4.:.` :.1.:.4.V.Z.g.f.a.a.+.N 0 z h ",
"nXBXVXfXD.,.f.Z.`.`.`._._.[.[.[.[.`.^.Z.Z.^.^.^.^.Z.Z.g.4.B.S.B.<.>.4.Z.F.Z.V.F.F.B.B.f.f.4.f.B.S.F.~.!.!.!.Z.L.A.M V g # X v 9X6XtXpXN.N.G.h.H.H.j.h.j.j.h.h.Z.f.>._ B.F.B.f.>.4.B.B.y.4.<.` / :.4.B.M.4.4.r.M.B.B.:._ :.C.Z.p.p.h.h.H.G.D.D.+.q j * * - A 9X1XyXW.q.3.4.4.V.f.g.g.g.g.B.g.f.4.w.2.| _ 1.4.4.B.4.4.4.5.y.y.4.2.) Y K Y | -..._ ) | w.} R | } -.X.X.| _ =.2.o.6 * O O X 9.IXVXAXhXP.).).^.).L.] ) | | A.` 4.(.(.).).).).^.C.f.f.B.f.<.<.f.L.).L.L.C.a.f.K.C.f.L.G.] ( ).L.(.L.,.h.aXaXE.W.^ q 9 $ o O ;XcXxXrXW.1.1...1./ :.>.4.2.y.:./ ) ..w.A.r.1.=.` ..:.1.2.....| ` | ..| | X.| T J J I ) ) I Y Y ) ) | | | ` ` r.1.x 0 f & $ , 0XMXxXpXC.<.p.f.Z.Z.Z.h.h.h.Z.Z.&.d ,.a.<.f.f.Z.H.H.L.^.F.B.*.*.).$XOXOXI.OXOX%X@XOX@XOXL.p.a.).OXOXOX%X%X&X&X@X#X^ Z < X @ v 0XmXiXyXB.B.Z.Z.Z.Z.Z.V.g.V.V.Z.Z.F.Z.f.$.' :.B.B.B.B.B.B.5.5.B.B.V.V.B.B.B.B.B.Z.Z.S.Z.B.B.4.B.B.B.r.4.y.4.1.o.M g k 3 O + 2 v.;XU.{.q.X.+...2.| ) ..1.X.`  ._ ..` O.>.:.:.a.Z.B.4.B.S.Z.r.:./ -.2.-.| ....) X.) -.D.Z.g.Z.(.B.4.A.1.-.2.u.^ w B h & & > 7.qX,X>X3Xr.-.J T I Y K Y ) ` ..>.4.4.y.B.5.<.>.<.4.4.y.y.-.) Y ) _ _ _ =.=.=.-.-.=.2.4.4.4.>.>.<.6.g.<.g.B.Y.Y.) e j h o o & n.0X6XiXR.h.[.^.).G.Z.f.a.<.p.Z.Z.f.*.&.,.k.j.j.j.j.j.h.j.j.h.j.H.f.:.p K | q.2.1.3.:.` ` 1.2.1.4.Z.Z.g.f.a.a.+.M 0 j h ",
"VXBXCXjXD.d.f.Z.`.`.`._._._.[.[.[.`.!.Z.Z.H.^.^.^.j.B.g.5.B.F.B.4.>.4.V.F.B.B.S.F.B.B.B.f.f.f.B.S.F.~.!.!.!.Z.L.A.M M h = o v 9XtXiXiXK.C.L.h./.^.l.h.j.h.h.h.Z.:.$.' B.~.5.5.>.5.y.B.B.y.y.:._ <.4.B.4.4.r.r.r.B.M.1.` :.f.g.<.p.h.j.^.G.C.D.@.0 j * *   A 9X1XyXW.2.3.r.4.V.f.g.g.f.g.V.V.B.y.2.w..._ 4.5.4.5.5.5.4.5.y.4.2.2.Y Y Y ) ..;..._ _ _ -.| } | } -.X.X.| _ =.2.o.0 * O O + 9.IXVXZXdXP.).XX).].L.] / ) ) 3.' 4.L.G.).).).).^.g.f.f.Z.f.<.<.h.L.P.G.L.C.<.f.K.C.h.(.G.[ d ).L.).).*.C.-XaX{.W.N q h & O O ;XcXxXrXW.2.1.-.2.) :.>.<.2.4.:.Y ) ..1.y.4.>.=._ ` =.1.1.:.=.......X...| X.X.} I I T T I T T Y ) ) | ..X.$.` 2.-.x 0 f & $ , 0XMXxXpXC.*.g.h.Z.Z.Z.Z.j.h.Z.Z.,.( <.a.<.g.a.h.Z.Z.L.^.F.Z.:.] L.$XOX#XP.OXOX@X&X@X$X@XL.a.p.).OXOXOX*X%X&X&X@X#X^ Z < X @ n cXmXxXiXB.B.Z.Z.Z.V.V.V.Z.Z.V.~.V.F.V.:.' $.:.B.B.B.B.B.y.y.5.B.V.V.V.B.B.B.V.B.Z.V.Z.B.B.5.4.5.B.B.B.y.4.<.:.+.M g k 3 O + , v.2XT.3X+.| .. .1.| ) X.1.X.` ` ` :.O.:.4.4.<.f.V.B.B.B.B.B.y.r.` :.2.1.....| | X.) ..B.Z.f.Z.Z.D.1.A.1.X.1.A. .w B k & : > 7.1X,X<X3Xq.-.J I I K K a a K ` :.:.2.<.4.4.<.<.<.4.2.r.w.-....._ _ =.:.1.:.=...-.1.4.4.4.>.>.&.&.>.5.<.V.B.S.S.) e j h $ o & n.0X6XiXE.C.[.H.).C.C.a.<.<.a.Z.Z.p.&.*.,.k.j.j.h.k.j.Z.Z.j.h.j.Z.a.` p K X.q.1.2.<.:._ _ 1.4.1.4.Z.Z.f.f.a.a.+.N 0 z h ",
"VXBXZXjXK.a.B.Z.`.`.`.`._._.[.[.`.(.Z.Z.Z.Z.H.H.H.f.f.f.f.S.F.5.4.>.<.B.Z.B.B.Z.S.B.B.B.B.5.f.B.S.F.~.!.!.!.Z.L.A.t m f = o b 0X6XtXpXK.C.L.h.H.H.j.k.h.h.h.f.C.` ' / B.~.4.4.>.5.B.B.f.5.<.=./ <.4.4.4.4.r.r.4.r.B.4.` ` <.a.<.p.h.j.^.Z.C.D...0 j * *   A 9X1XyXW.2.2.r.4.V.g.Z.g.f.g.Z.Z.B.y.-.w.-...y.B.>.5.5.5.5.5.4.4.2.1.a K R | ..| | | } R -.;.| | T -.-...| _ ;.w.X.z * % & + v.IXMXVXrXP.).XX).].L.:.) ) H X./ 3.K.h.).).).).L.B.4.4.Z.B.4.a.C.^.P.G.K.f.,.p.K.C.C.).L.] d ].(.].).,.G.rXaX#X{.M q n & O o :XcXxXyXR.t.r.1.r.) :.:.<.2.4...K Y | 1.r.4.>.=._ _ ..:.1.1.:.-.X.-.X.X...-.X.} I I T T I } } ) ) ) | X.2.=.` 1.X.x g f $ O , 0XHXxXpXB.*.Z.Z.Z.Z.Z.Z.Z.h.Z.^.4.&.4.f.4.C.p.f.Z.Z.L.^.F.Z.&.[ G.OXOXOX).OX#X&X&X@X@X@XP.p.d.P.@XOX@X@XOX@X&X@X#X^ Z < X   v cXmXxXpXM.B.D.Z.V.V.V.Z.Z.Z.Z.Z.B.F.V.` ( >.>.B.B.B.B.B.y.5.5.B.V.S.V.V.B.V.V.V.Z.B.B.B.f.4.4.4.B.B.B.y.r.1.X.+.M g k 3 O + , v.2XQ.3X+.) | ) X.) ) 1.4.1.:.:._ ..O.1.B.B.4.f.g.Z.Z.B.4.>.<.4.:.1.2.1...| ) | 1.) | B.Z.g.Z.Z.S.:.r.X.| ..S.X.w S k & : > 7.1X,X<XW.q.X.J Y K K / Y a / :.4.4.>.>.2.<.<.4.4.4.1.1.1.-.1.1.-._ ;.-.-.` / Y _ -.2.4.4.>.:.:.>.>.>.<.Z.A.A.N.^ M B h $ O , n.0X7XiXE.h._.H.L.C.C.a.<.<.f.Z.Z.<.( *.*.p.j.j.k.h.j.Z.Z.j.j.Z.Z.4.( / ) X.1.X.2.r.<./ _ 1.4.>.4.C.B.f.a.<.4.+.U w B f ",
"MXVXCXfXR.a.f.^._._._._._._._._._.).`.^.H.Z.Z.Z.Z.Z.f.<.f.Z.Z.f.:.>.5.B.V.V.V.V.Z.V.V.V.B.B.g.f.V.Z.Z.Z.!.!.^.L.A.M M f # X v qXzXiXpXN.L.G.J.h.h.h.h.h.g.f.f.f.` i >.B.Z.,.>.:.B.a.4.B.V.4./ i Y 4.B.:.>.4.4.<.4.B.>.' &.4.f.4.p.h.Z.Z.!.~.t.X.0 j * =   A cX1XvX}.2.4.4.4.V.5.Z.g.g.V.Z.V.4.>.;.r...) 1.2.5.B.g.5.5.5.y.y.2.1.Y K Y T } _ ) } Y ..2.2.-.-.-.-...| -.>.2.y.o.0 6 X & X 9.PXMXAX-X X XXXXX).G.a.) y H |  .4.a.h.).J.).).L.4.$.` <.B.f.a.C.G.G.).h.h.C.h.C.C.Z.G.).<.p.).G.L.$X*.C.hXrXE.eX^ q 9 $ o o :XcXzXyXR.A.r.1.-.;.=.1.4.r.1.=._ / 1.y.2.4.:.` ` =.:...` 4.1.....X.:.:.-.| | | } } Y K J T Y P R -...| 2.2.=.q.-.x g f $ O , 0XHXxXyXC.,.B.B.Z.Z.j.h.j.H.Z.B.4.B.B.f.f.g.H.G.H.H.h.Z.^.C.] [ G.+X].].P.OX@X&X&X@X&X$X).h.s.L.@X@X$X@X&X&X@X@X{.^ C f o . v cXmXuXiXD.D.Z.Z.j.j.j.Z.Z.V.V.V.F.F.>.=.$._ 5.B.B.B.B.B.B.B.V.V.V.V.V.B.5.B.B.B.B.V.g.g.f.f.f.4.B.5.>.4.r.1.-.q.w j v 2 + + , v.U.Q.3X1.O.+./ X.| | ..1.1.1.:.:.` ` >.<.<.4.f.g.f.f.Z.Z.4.<.4.2.2.2.1...| | ..2.1./ 4.S.(.4.F.(.4.<.1.) 1.r.X.0 B D & & . 7.9X<X4X}.-.-.) _ ) a / ` ` :.5.y.4.$.$.>.5.4.&.$.:.2._ _ 1.1.1._ a J Y R K a Y ` =.:.>.2.-.;.=.2.2.$.5.g.F.B.A.I z k l O + 2 v.0XzXuXR.h.[.Z.H.h.C.g.<.4.f.f.Z.f.` <.f.g.h.j.j.j.h.h.j.j.h.H.L.B.:./ ) ..1.2.1.1.1._ i -.B.:.4.C.Z.f.f.f.1.1.U 9 m h ",
"nXVXVXfXL.a.f.Z.`.`.`.`.`.`.`.`.).`.^.^.H.Z.Z.Z.Z.Z.f.<.f.Z.Z.f.:.<.5.B.V.V.V.V.V.V.V.V.B.B.g.g.V.V.Z.Z.!.!.^.L.A.M M g # X v qXzXiXpXN.L.K.).H.j.j.h.g.f.f.a.a.:.K <.<.f.:.:.<.B.a.a.f.f.,./ i / y.y.:.>.y.B.y.>.5.>._ :.f.5.<.a.C.Z.Z.Z.F.r.X.0 j * =   A cX1XyXY.2.1.4.<.B.5.Z.g.g.g.Z.Z.f.<.-.r..._ 1.4.4.5.g.5.5.5.y.5.2.1.Y K P R | | | | R | -.-.....| | ..X.>.2.6.y.X.w 6 X & X 9.PXMXAX-X X XXXXX).L.M./ r I |  .,.C.).).J.).).^.f.>.:.4.B.B.f.Z.H.J.H.f.p.p.f.C.H.L.L.).<.p._.H.).@X,.G.hXaX{.pX^ q n $ o o :XcXvXyXR.t.2..._ _ _ =.2.r.=.1.r.=._ =.2.4.1.=.=.=.:.=...1.:.......X.X.X.....| | } T R Y -.| R Y _ | ..2.2.;.q.i.x g f $ O , 0XHXzXyXA.,.B.B.h.Z.j.h.h.Z.S.B.4.4.r.f.f.f.Z.h.H.H.Z.H.G.f.*.[ G.+X].XX).OX$X@X$X@X$XOXL.h.p.G.].OXOXOXOXOXOXOXE.^ C h O @ v cXmXuXiXD.D.Z.V.j.j.j.Z.Z.V.V.F.F.~.4.>.>.=.V.B.B.B.B.5.5.B.V.V.V.V.V.B.B.B.B.B.g.g.g.f.5.f.g.5.B.4.2.4.2.;.X.q.w j k 2 + + , v.U.Q.3X3.O.+./ O.` _ -.1.1.:.:.>.:.=.:.>.<.4.B.g.f.f.g.g.4.<.<.1.1.1.1...| ..X.4.>./ ] B.F.B.F.S.<.1.1.) 1.w. .0 B A & & . 7.9X<X>X{.:.` _ 1.../ :.4.2.>.5.5.4.B.4.<.4.4.<.:.>.2._ _ .._ _ ) J p R R Y Y ) _ ` $.$..._ ;.2.2.1.>.V.B.F.y.t.I w k f O : 2 v.0XzXuXK.h./.j.Z.p.f.<.<.f.B.a.B.B.<.4.B.B.C.h.Z.j.h.h.h.Z.h.Z.F.a.` K K ) ..1.r.r.2._ i ..4.:.a.C.Z.g.g.5.1.1.^ 9 m h ",
"nXVXVXiXL.a.a.Z.(.(.^.^.^.^.^.^.`.`.^.^.H.Z.Z.Z.^.Z.f.<.4.B.B.g.:.<.5.B.V.V.V.V.V.V.V.V.B.B.B.g.B.B.V.Z.Z.!.!.(.A.t M g # X v qX7XuXpXN.K.G.).).H.H.j.h.f.f.a.a.>.&.a.:.a.>.&.<.f.a.f.f.f.<.( d :.B.r.` :.4.4.4.:.4.>.` >.B.5.4.a.C.Z.Z.Z.S.r.X.0 j * =   A cX1X5XY.1.1.4.4.V.5.Z.g.g.g.Z.Z.B.4.2.r.-.) =.4.4.4.5.5.5.5.y.4.2.2.) K J Y | ..| | T | | | | ..| | X.-.2.2.2.y...w 6 X & X 9.PXMXAX-X X XXXXXXX(.C. .e I | ^ :.D.+X)./.).).L.B.<.>.B.Z.B.f.^.).J.G.f.p.,.p.G.).).^.G.*.,.).P.P._.] G.aXaX].eX^ m n $ o o :XcXvXyXR.y.1._ ) ) _ =.2.2.1.y.y.=.Y _ 1.r.2.:.=.-.-.-.-.....-.-.....| | ;.;.;...| } ) R 2.2.| K T | | -.1.;.q.i.x g f % O , 0XFXzXyXD.,.4.4.f.j.j.h.h.Z.F.B.1.3.4.a.a.f.f.s.H.H.Z.H.D.<.*.] G.+X].OX).OX@X@X@XOX+XOXL.h.p.G.).].P.P.OX).XX).E.^ Z h O o v cXmXuXiXD.D.Z.g.g.Z.j.Z.Z.V.V.Z.Z.F.2.>.2.:.V.B.B.B.B.5.5.B.V.V.B.B.B.B.B.B.B.B.B.g.g.6.6.f.f.5.5.4.4.4.=.) ..q.w g k 2 + + , 0.U.Q.4X3.+.+./ 1.) ) -.2.1.:.:.2.:.=.:.:.>.<.f.g.g.g.f.f.f.4.<.:.:.1.1.-.| | X.4.<._ d B.F.S.F.D.<.r.r.X.2.r. .0 B A & + @ ! 0X<X<X3X1./ ` S.2./ >.B.B.5.B.B.B.~.B.4.5.V.B.<.:.=._ ....Y J P J I ) | ..| ....` :.` _ _ ;.w.w.:.5.F.V.F.t.r.U 0 g 3 O + 2 n.0X6XeXK.p./.j.G.p.f.<.<.a.B.f.D.B.>.4.B.Z.C.h.Z.j.h.j.l.Z.h.C.D.4._ a a a / :.r.r.2._ p ..3.:.a.C.Z.V.g.5.:.1.^ q n 9 ",
"nXVXVXfXR.a.a.Z.`.(.^.^.^.^.^.`.^.^.^.^.H.Z.!.Z.^.Z.5.<.4.f.B.B.:.<.f.B.V.V.V.V.V.V.V.B.B.B.B.B.B.B.V.Z.Z.!.!.F.A.M V g # X v qX7XeXeXM.D.C.P.).^.^.H.Z.C.C.B.B.,.<.B.` B.4.] :.4.f.f.f.f.4.<.<.4.S.4._ ` :.>.:.>.4.:.` >.B.f.f.a.C.H.Z.Z.B.4.X.0 j * =   A 9X1XyXY.2.2.r.4.Z.V.S.g.g.g.Z.Z.B.B.y.w.-.Y _ 4.4.4.4.4.4.4.4.4.2.2.| Y J Y | ..| } | | | | ;.1.-.-.X.1.2.4.>.4...z 6 X & X 9.PXMXAX-X X XXXXXXX).F.X.p ) | / O.C.].)./.).L.Z.f.4.>.4.B.B.f.^.).H.H.h.p.p.h.G.).^.H.Z.*.*.L.).L.).*.G.&XrX].{.^ m n $ o o :XcXvXyXR.A.2.| ) ) _ =.2.=.r.y.-.K ) 1.2.r.2.:.......-.-._ ..:.:.-...` | ..........| | | -.w.-.R _ | _ ) 1.-.w.i.x g f = O , 0XcXtXpXD.>.<.<.f.j.j.h.h.Z.F.r.>.1.4.f.f.f.k.s.H.H.Z.H.C.,.*.] L.].).OX).OX&X&X@X@X$X$X).G.p.G.].OX].).OXXX).).R.^ Z 4 O o v cXmXuXiXD.D.Z.V.j.Z.Z.Z.V.V.V.Z.V.B.:.>.4.:.B.B.B.y.5.5.5.B.B.V.B.5.5.B.V.B.B.B.B.g.g.5.6.6.f.f.4.4.y.r._ K | q.w g k 2 + + , 0.U.Q.4Xe.+.+./ 1.) / -.4.:.=.1.1.:.:.:.:.:.>.<.f.j.Z.f.a.B.B.4.:.=.-.1.1.....-.1.4...a M.S.F.B.B.4.B.t.1.2.r.o.w B S & + @ ! FX8X<X3X:.s ` '.B.` >.5.B.5.B.V.V.B.5.4.B.F.Z.4.$.=...1.1.Y J J J } | -.-.-.-.;.=.:.=.=.-.w.y.r.:.B.F.B.F.t.r.U 0 f f & + 2 n.0X7XeXK.p.).Z.H.h.h.f.,.:.a.S.L.4.d a.B.Z.Z.h.Z.Z.j.j.l.Z.h.C.D.4.` K a a / -.2.4.2._ Y 1.<.,.a.C.Z.Z.g.4...1.} q n h ",
"nXVXCXjXE.a.f.Z.`.`.`.(.^.`.`.`.^.^.^.H.^.^.^.Z.^.Z.4.<.4.f.B.Z.>.4.f.V.V.V.V.V.V.V.V.B.B.B.B.B.B.B.Z.Z.Z.!.Z.F.A.M M f # X v qX7XtXeXM.C.C.L.H.H.H.Z.Z.Z.Z.Z.D.4.<.<./ a.f.:.>.4.f.B.g.f.f.f.B.B.A.1.) ` :.=...>.<.&.' :.4.5.f.a.C.Z.Z.V.5.1.X.0 j * =   A 9X1XyXY.1.1.r.4.Z.V.S.V.B.V.V.Z.Z.B.A.2.-.a a 2.2.2.4.4.4.4.4.2.2.2.-._ Y Y | | | _ | | | | -.r.r.2.-.1.2.2.>.4.| w 9 X & X 9.PXMXAX-X X XXXXXXX].L.3.p ) +...,.f.^.).).).H.Z.a.>.:.>.f.B.f.H.H.H.).p.f.C.H.).).L.H.L.p.*.H.].)._.p.L.&XaX{.{.^ N n $ o o :XcXvXyXR.r.1._ ) Y Y ` 1.2.4.r._ a ) 1.1.2.1.-...| ` X.1.` ..1.1.:.......| ........;.;.;...2.-.) _ _ ) ) 1.;.w.i.x 8 f & O , 0X0X6XpXD.>.<.<.p.j.Z.j.j.Z.F.r.:.1.4.B.f.f.h.j.H.H.Z.H.D.,.*.] L.].).OXXXOX&X@X@X@X@X@X_.G.s.H.OX+XOXOXOXOXXX).E.^ Z 4 o X v cXmXuXiXD.Z.Z.V.Z.Z.Z.Z.V.V.V.~.V.B.:.2.5.2.B.y.y.B.5.5.5.B.V.V.B.5.5.B.B.B.B.5.f.g.g.f.5.5.5.f.4.4.y.r.R J ..q.q g k 2 + + , 0.U.T.3Xe.+.1./ 1.) ) -.2.:.-.1.=...:.:.:.` =.:.f.Z.Z.g.f.Z.S.B.:...-.2.2.....-.1.4.:.a 4.S.F.a.B.3.4.4.| 1.q. .z k S & & o ! GXvXW.{.:.a ) Y.B.5.5.5.5.5.B.5.4.4.5.5.B.V.V.4.:.1.-.2.1.R J T } | | X.;...| | ` ` :.2.r.r.y.2.=.5.V.5.B.r.t.I w f l & + 2 n.0X7XuXL.f.).Z.G.a.a.f.,.,.f.F.F.:.i 4.B.Z.Z.h.j.Z.j.h.l.Z.h.C.F.M.O.` ` ..-.1.2.r.y._ _ 4.3.:.p.f.H.Z.V.4...+.{ q n 9 ",
"nXVXCXjXE.a.f.Z.(.(.^.^.^.^.^.^.^.^.^.H.Z.Z.Z.Z.^.B.4.4.4.f.B.Z.>.4.g.V.V.V.V.V.V.V.V.B.B.B.B.B.B.B.Z.Z.j.!.Z.F.A.M M h # X v qX6XuXpXN.K.G.P.H.j.j.j.j.j.Z.Z.Z.B.>.>.s :.<.<.4.f.f.g.f.a.<.f.f.4.r...K ` :.:.:.1.<.` / $.>.<.4.a.h.Z.Z.g.<.:.+.0 j * =   A 9X1X4XY.+.:.2.<.V.g.V.V.V.V.V.Z.V.B.S.1.2.p i :.2.4.2.4.4.4.2.>.2.4.2.| R T } } } _ | | | | -.w.r.w.1.1.2.2.>.4.| w 9 X & X 9.IXMXAXdX X XXXXX).].R.B.K  .4.3.a.h.H.)./.).G.g.4.:.` :.5.f.f.Z.H.H.).<.p.G.).).).).L.).p.[ C._.^.^.p.].rXaX#XW.^ C n $ o o :XcXvXyXR.r.2.1.=.) / ` 1.y.1.1.2.) K _ =.-.-.-..._ _ ..1...:.1.1.1.:.:.=.........;.;.-.-.-.1...Y ) ) ) ..-.;.w.i.x 6 f & O , qX8X,XeXD.:.4.<.p.h.Z.j.Z.Z.D.4.1.1.r.B.g.h.j.j.H.Z.C.H.D.*.] ] L.].).@XXXXXOX@X@X$X$X$X_.G.p.J.OXOX].].OXXXXX).E.^ Z < o X v 0XmXuXiXD.Z.Z.Z.!.^.!.V.V.V.V.F.B.4.=.>.5.:.B.y.y.B.5.5.B.B.V.V.V.B.y.5.B.B.B.5.5.B.g.5.5.4.<.5.5.5.y.2.R K X.q.q g k 2 + O , 0.U.T.4Xe.1.1.) .._ _ ..:.:.:.1.....:.>.:.` ` :.4.g.Z.Z.B.B.B.V.1...-.r.r.-.| X.X.4...s 4.S.B.<.B.>.4.3._ X.2. .m k ! & + o ! KXvX<XY.:./ / B.4.V.y.5.5.B.V.B.y.V.V.B.5.5.5.5.4.2.-.-.| J p T | -.| | -...| | .._ >.y.y.r.2.1.=.4.g.4.B.r.r.I 0 f l & + , m.cX6XiXE.h.).Z.C.,.*.,.,.f.Z.B.4.( i <.B.Z.Z.h.j.j.j.h.h.j.h.Z.L.B.>.X.:.:.1.1.2.2.r.R | 2.] ] p.f.Z.Z.V.4.` +.{ q n q ",
"nXVXCXjXR.a.a.Z.^.(.^.^.^.^.^.^.^.^.^.^.Z.Z.Z.Z.F.B.4.f.f.f.B.F.>.4.B.V.V.V.V.V.V.V.V.V.B.B.B.B.B.B.V.Z.j.j.Z.F.A.M M h # X v qX6XuXiXD.E.L.).H.j.j.j.h.h.Z.Z.Z.B.&.4.] ,.<.a.f.f.f.f.a.<.<.p.f.y.2./ p ) :.:.:.4.<.=._ :.>.>.<.4.h.Z.Z.g.>.-.+.0 j & =   A 9X1X4XY.X.X.1.>.B.5.V.V.V.V.V.V.B.B.A.-.y.K i >.2.2.2.4.4.4.>.>.2.4.1.| T T _ } | | | | | | -.1.w.1.2.2.2.2.2.y...w 9 X & X 9.PXMXAXdXXX XXX).)._.L.D./ ..t.a.B.h.H./.).).G.g.4.:._ >.5.4.a.Z.H.H.).p.p.h.L._.].).L.L.p.( h.).H.Z.p.OXaXaX#XW.^ C j $ o o :XcXvXyXR.r.y.y.2.` ) ..2.y.1.2.2._ a R ....X.-..._ ) ..1.1.1.:.1.1.1.1.:.-.-.-...;.;.;.;.-.-..._ | ) ) -.-.;.w.i.x 6 f & O , qXqX>XeXD.:.4.4.<.f.j.j.j.Z.a.<.>.<.4.f.g.h.j.H.^.Z.C.H.C.[ [ ] L.].).@XXXXXP.OXOX@X@X$X).C.p.G.].].).).OXXXXX).E.^ Z < o o v 0XmXuXiXD.Z.Z.!.^.(.^.Z.g.V.Z.Z.5.>.` :.5.2.y.B.B.B.B.5.B.V.V.S.V.B.B.5.5.5.B.B.g.f.5.<.<.5.f.4.5.5.5.2.) Y -.8.0 g k 2 + + , 0.U.T.4Xe.1.1.) ) ......X.1.1.:.-.=.:.:.=.` ` >.4.f.B.Z.B.4.4.B.4.=.-.r.t.-.| -.-.r.` / 1.S.4.>.4.>.4.4.| X.2. .m j ! , + o ! KXcX>X{.B.r.` 4.r.B.5.5.B.V.V.V.S.F.F.V.5.5.y.y.4.2.;.| | J J R T | } } ..-.....-.` >.y.r.w.2.2.:.4.f.<.B.2.r.H 7 j l & + , m.FX6XnXE.h.[.Z.C.,.] *.*.f.C.B.4.` a :.f.Z.Z.Z.j.j.j.j.l.j.h.Z.L.B.>.` ` ` ..1.2.2.2.R _ -.) :.C.f.Z.Z.S.5.` X.{ q m q ",
"nXBXVXjXR.a.a.Z.^.(.`.`.`.`.^.^.(.^.^.^.Z.Z.Z.Z.F.B.f.f.f.f.V.~.>.4.B.V.V.V.V.V.V.V.V.V.V.B.B.B.B.B.V.j.j.Z.Z.F.S.M V h # X v qX6XuXpXD.{.P._.H.j.j.j.j.Z.Z.Z.Z.B.] F.D.B.<.f.f.a.a.a.a.a.f.f.B.B.1.K e a ..=.:.4.4.>.=.2.<.>.,.4.f.Z.!.f.>.=.X.0 j & =   A 9X1XyXY.+.1.2.2.V.5.B.V.V.V.V.V.B.B.y.-.A.Y i 1.>.2.2.2.4.2.>.>.2.4.-.| ) ) _ _ | -.| -.-.....-.1.-.r.2.2.2.5.y.X.w 9 O & @ 9.PXMXAXdXOX XXX).)._.L.B.K ..t.a.a.h.).H.).).G.g.a.>._ 4.f.4.<.G.).H.H.h.p.h.G.).OX).G.^.p.[ h.[.H.Z.p.OX&XaX#XK.U N 9 $ o o :XcXvXyXR.1.4.y.2._ Y ) 1.2.y.y.;.a Y ..| | ..-..._ _ ..1.2.1.-.:.1.1.1.:.1.1.1.-.;.........;.;.1.1._ Y | -...w.i.x 6 8 & X , qXqX>XeXD.:.a.4.<.k.j.j.j.Z.4.>.:.<.4.a.f.h.j.l.^.H.Z.H.f.( [ ] L.].].@X).P.P.).OX@X@X@X).C.p.G.].].).).OXXX).).E.^ Z 3 O o v 0XmXuXiXD.D.Z.~.(.`.^.Z.g.V.Z.Z.5.>.` 2.V.4.V.B.B.B.B.B.B.V.S.S.S.V.B.4.4.5.B.V.B.5.<.>.<.5.g.4.B.B.r.1._ ) q.8.0 g k 2 + + 2 0.U.T.yXe.1.1.) ) X.:.| | 1.1.:.:.:.:.:.=.` :.<.4.<.f.Z.B.>.>.4.4.=.:.r.y.:.| X.1.t.)  .1.D.3.3.>...1.1.) | -.^ V j 7., + o ! KXmXtX3XR.'.1.1.r.B.V.V.Z.V.g.y.B.V.V.V.B.B.V.y.2.w.-.2.w.X.T T P T P R | ..| | ..$.>.4.2.w.w.w.2.4.f.<.B.2.2.e = k l & O & m.FXzXnXE.C.[.H.G.a.,.<.&.:.a.B.Z.>.a &.a.Z.Z.Z.Z.j.j.j.l.j.h.Z.F.B.>.` / ) ..2.y.y.2._ _ ../ ,.L.Z.Z.Z.S.5.` X.} w m q ",
"VXVXZXjXE.a.a.g.Z.!.^.^.`.^.^.H.`.^.F.F.F.F.F.Z.L.g.4.B.B.B.Z.F.<.g.Z.V.V.V.V.V.V.V.B.B.B.V.B.f.V.V.Z.Z.Z.!.Z.F.A.M V g # X v 0XzXuXiXM.K.].).).j.h.j.Z.g.Z.L.D.B.&.B.'.f.,.f.f.f.f.4.p.f.f.g.B.r.X.K p ) 1.4.2.:.4.:.` >.<.>.,.4.Z.Z.f.f.4.` I w j * * X A 9X,X5XY.X.3.B.4.V.5.4.5.V.V.V.V.B.B.y.-.y.R e =.2.4.2.2.>.>.4.4.4.2.1.;.T Y _ -...T -.| | -.-...| -.1.-.>.2.5.B.X.w 9 $ O o v.LXMXAXdX XP.XXP.J.).).D.:.4.M.a.C.p.f.H._.].G.f.<.>.:.<.5.B.a.Z.).).h.C.h.P.+X].).).G.^.p.*.h.[.).j.k.OX&XaX$XeX .C j   X o ;XcXvXyXR.r.y.y.5.=.' _ =.r.y.2._ J J ) | ..| | ....| ..-.1.1.2.1.:.:.1.2.;...=.-.-.;...-.2.1.1.1.1.1.-...-...q.8.x g f & & , qX8X6XeXD.4.B.4.p.j.Z.h.g.Z.Z.>.:.4.B.a.f.Z.^.H.H.H.Z.G.a.( ' *.G.OX).XX@X).OXOX@X&XOXOX+XH.,.h.P.].OXOXOX).).OXE.^ B 4 $ X v 0XzXuXiXD.F.Z.(.(.(.(.!.Z.Z.V.V.:.:.4.4.4.y.4.B.B.B.5.5.5.V.F.F.V.B.4.>.>.5.V.B.5.4.<.<.4.5.g.4.B.4.2.2.Y K q.X.w g h 2 + @ 2 0.U.T.yXN.r.3.K ) 1.1..._ 1.2.1.1.-...:.:...=.>.>.4.B.B.5.4.4.<.1.:.2.r.r.:...| | 1.) p ) S.:.:.:.:.1.M.1.X.2.J m B ! , 1 @ ! HXmXCXeXD.B.S.M.<.F.Z.V.V.Z.Z.V.V.B.B.B.B.y.y.2.2.2.1.-.-.-.-.-.X.W W T } | ;.1.2.y.B.y.w.r.r.w.=.>.4.>.<.y.| w w S D & + 2 n.0XzXCXL.Z.).L.K.D.:.] *.:.<.f.f.,._ 4.f.Z.Z.Z.Z.j.j.j.s.h.G.h.B.f.>.1.` ) 1.r.r.2.y.%.J K / D.C.Z.g.Z.V.B./ X.U m C q ",
"nXVXCXjX].C.C.^.^.^.^.^.^.^.^.^.^.^.Z.Z.F.F.F.Z.Z.f.4.5.B.B.Z.F.<.g.Z.V.B.B.V.B.B.B.B.B.B.V.V.B.V.B.Z.Z.Z.!.Z.F.S.M V g # X v 9XzXuXiXM.K.].).L.j.h.j.Z.g.C.L.Z.B.&.B.'.B.f.F.Z.g.f.f.f.g.h.h.B.S.2.) Y ..4.r.2.1.4.1...>.<.2.<.a.Z.Z.f.f.4.` ^ w j * *   A 9X,X4XY.+.2.r.1.5.>.&.>.5.5.B.B.B.B.y.2.y._ p ) 1.2.2.2.2.>.4.4.4.2.2.2.| T T | _ Y -.| | ..;.| | ..-.X.:.2.5.y...w 9 $ O o v.LXMXAXdX X XXXP.J.).^.L.3.M.M.4.a.p.p.H.)._.H.g.4.4.<.4.f.f.a.h.^.).G.s.a.J.OX].).).G.L.*.[ p.)._.Z.h.OXaXaX$X{.^ Z j $ o o :XcXvXyXR.4.5.y.5.:._ _ ..2.r.2._ Y R | ;...} } ..X.| ..1.1.1.-.1.1.1.:....._ ) _ _ _ ..-.1.1.1.1.2.1.-...=._ -.o.x 6 f & & , qX8X6XeXD.4.B.4.<.h.j.h.f.Z.Z.>...<.r.4.f.H.H.l.H.H.Z.H.f.( ( ,.J.OX).XXOX).OXOX@X@XOXOX].G.h.H.OXOXOXOXOXXX).XXE.^ B 4 $ X v 0XvXtXsXL.Z.C.~.^.^.!.!.Z.Z.Z.Z.<.>.4.4.4.B.V.B.B.B.5.5.5.B.V.V.B.5.4.>.>.5.V.y.5.2.>.<.4.5.5.B.B.y.2.-.Y ) r.X.w g h 2 + @ 2 0.U.T.4XM.r.3.K ) ..X.) ) 1.2.1.1.-.X.:.:...=.>.:.<.f.B.B.4.4.<.>.:.1.4.r.:...| | X.I H ) S.....:.:.:.4.1.X.2.I M B ! , 1 . ! HXcXCXpXD.F.L.S.B.Z.Z.V.V.Z.Z.V.V.F.B.5.5.y.y.4.1.2.1.-.-.1.-.-.-.} T R Y Y _ -.1.4.5.y.w.w.w.2.=.:.>.>.<.r.| U V B D & o , n.cXzXVXE.Z.^.H.G.C.:.,.<.4.B.S.D.4.:.f.D.Z.Z.h.h.j.h.j.s.j.H.C.B.a.>.1.| ..2.r.4.2.y.%.Y ) ` D.C.Z.h.!.V.B.) 1.^ w Z 9 ",
"nXVXVXjX].C.Z.`.(.(.^.^.^.^.^.^.^.^.Z.Z.F.F.F.F.Z.f.4.4.B.B.Z.F.4.B.Z.V.B.B.B.B.B.f.f.g.B.V.B.B.B.B.Z.Z.Z.!.Z.F.S.H V f #   v qXzXuXiXd.K.P.P.H.j.h.j.Z.f.g.F.Z.B.&.4.(.Z.C.^.Z.g.f.g.h.j.Z.j.C.S.1.K Y X.r.4.:.4.r.1.=.1.4.>.<.f.G.j.p.f.4... .w j * =   b 1X<X4XT.X.1.1...>.:.$.>.4.5.B.B.B.B.B.y.4.:.K a -.1.2.2.2.>.4.4.<.2.w.r.-.| Y Y R T -.| | ..;...| ..| ..>.2.>.4.| w 9 # O o v.LXMXAXdXOX XXX).J./.L.(.a.D.B.4.a.p.h.H.).).H.C.f.4.<.5.f.a.<.g.H.).H.x.x.G.OX].).).J.).*.' <.^.`.Z.h.].aXaX$XW.^ Z n $ & & :XcXzXyXY.4.5.y.y.2.` _ ` 2.w.1._ T | -.-.| I T X.-.| | 1.....| -.1.2.:.` _ ) _ | ....;.-.1.1.1.1.2.1.-.=._ ) ..} z 6 f & $ , qX8X,XeXD.4.B.4.<.f.j.h.h.Z.B.1...1.4.4.f.H.Z.j.G.H.G.H.f.( ' ,.L.+X).).OX).).P.@X$XOXOX].C.C.).+XOX].].OXOXXXXXE.^ B 4 $ o A 0XzXtXsXR.D.g.Z.!.!.Z.Z.Z.Z.V.B.:.:.>.=.:.B.F.B.B.B.y.5.4.5.5.B.B.5.4.>.4.5.B.B.4.>.>.4.5.5.4.B.5.B.r._ R ;.w.X.w q h 3 + @ 2 0.U.T.4Xr.e.3.) ) | | Y ) 1.2.1.2.1.-.:.-...=.:.&.>.f.B.B.5.<.>.2.>.1.4.4.:.-.X.....J J ) S...' 1.1.O.1.1.X.2.^ M Z ! , 1 . ! HXmXCXyXF.S.F.B.4.B.V.Z.Z.Z.Z.F.F.~.V.5.4.y.y.2.=.1.1.1.1.1.-.-.-.X.} Y K Y _ 1.4.4.y.y.y.u.y.w.>.$.( $.:.| ) I U B b $ o , m.cXzXVXE.D.H.L.D.B.,.<.<.4.Z.F.f.,.>.B.Z.F.Z.g.h.j.j.j.h.Z.H.g.a.<._ ....1.r.r.1.2.y.| ) -.>.F.h.Z.h.Z.6.5._ r.{ w m q ",
"BXVXVXiXR.a.B.^.`.(.^.^.^.^.^.^.(.F.Z.Z.F.F.F.F.V.f.4.4.B.B.S.S.5.B.Z.V.B.V.B.g.B.5.5.B.B.f.f.B.B.B.V.j.j.!.Z.F.S.M V f # X v qXmXiXiXd.K.P.P.H.j.h.j.h.p.f.Z.Z.B.:.<.C.C.C.Z.C.g.g.h.Z.Z.Z.j.g.A...p J | 2.2.:.r.r.1.=.1.2.>.<.C.G.h.6.f.4...| w j * &   b 1X2X<XT.X.1.1.` 2.>.>.5.g.B.B.B.B.B.B.S.1.2._ i ..1.2.2.2.>.2.4.<.>.1.w.w...Y K ) | -...| ..-.-.;..._ ..1.2.>.2.| w 9 # O o v.LXMXAXdX X XOX)././.H.^.f.F.F.a.p.p.G.)./.).G.g.f.<.:.4.f.f.f.Z.).).J.,.x.G.OX].).).J.).,.( <.H.^.h.p.L.rXkXpXW.U m n $ & & ;XcXlXyXR.4.4.y.B.4.=._ _ 2.2.-._ | -.2.-.T H L X.-.} | 1.| | | -.1.4.1.:._ | ;.1.2.1.-.-.-.-.1.1.1.1.=.=.) Y | } z 6 f & $ , qX8X,X3XD.4.B.a.p.f.h.h.Z.Z.a.>.:.4.4.4.f.Z.Z.j.H.H.G.H.p.' d ,.P.+X).).OX).).).@X@XOX@X].C.h.L.OXOX).).OXOXXXXXE.^ B 3 $ o v 9XzXtXsXL.Z.C.Z.Z.Z.Z.Z.V.V.B.5.` ` =.$.:.y.V.B.B.B.5.5.4.4.4.B.B.5.4.>.5.B.B.B.5.>.>.5.g.5.4.4.2.B.y.) T -.-.X.w q h 3 + X 2 v.;XT.4Xr.3.e.| | ..) Y _ 1.2.-.2.1.-.=.......=.>.<.5.B.B.4.>.:.1.>.>.<.4.4.1.1.X. .H H ) S.:.) 1.3...:.:.X.1.^ m n ! , 1 . ! KXmXCXrXL.S.S.M.4.B.V.Z.Z.Z.Z.F.~.~.S.y.5.4.2.:...:.:.:.1.1.1.-.-.2.;._ ) _ =.4.y.4.y.y.r.r.u.y.5.>./ ( ` ) ) I c B k $ @ , m.FXmXNX{.C.Z.Z.C.a.,.a.<.4.Z.Z.,.` ` 4.B.Z.Z.h.Z.Z.j.j.h.Z.Z.f.4.] a ) ..2.r.r.2.2.y._ _ 2.<.F.h.Z.Z.g.>.>.) t.#.w m 9 ",
"BXVXVXiXR.a.f.Z.`.(.(.^.^.^.^.^.^.Z.Z.Z.Z.Z.F.F.B.B.4.4.B.S.F.S.5.V.Z.V.V.V.V.B.B.f.5.B.f.4.4.5.B.B.g.j.j.Z.Z.F.A.M V h # X v 0XmXiXiXM.K.P.).H.j.k.h.f.<.a.Z.Z.f.:.*.a.C.Z.Z.C.f.g.h.Z.Z.Z.h.g.S...p J ..2.r.2.4.4.:...1.1.:.4.D.G.g.6.f.4... .w j * &   b 1X2X>XT.X.1.1.` 2.>.5.5.B.V.B.B.y.y.B.V.:.4.-.p _ -.2.2.2.>.2.>.>.>.-.w.w.-.T P T ;.| | | | ;.-...| | X.2.2.>.2.| w 6 # O o v.LXVXAXpX X XOXXXXXoX).H.a.F.F.a.p.p.G._._.).Z.f.4.:._ <.4.f.C.H.).).J.d.d.G.OXOX).).G.).<.[ <.^.H.f.<.C.$XkXaX{.U m n $ o o ;XcXzXyXR.4.4.5.B.5.:._ _ 2.w.1.| | 2.1.} H u H | X.) ) X...X.-.1.1.1.4.4.=.-.=.1.1.=.-.=.=.=.:.1.1.1.=.=.Y Y | o.x 6 f % + , qX8X,X3XA.<.B.a.p.f.h.j.Z.H.,.:.1.r.B.4.f.Z.H.j.H.H.Z.Z.p.d d ,.).+X).).OXXX).OX$X$XOX$XOXh.p.G.].OXOXOXOXXX).XXE.~ m 3 $ o v qXzXuXsXL.F.L.!.Z.Z.Z.V.V.g.5.5.$.` 2.4.5.S.B.y.5.5.5.5.5.5.5.B.B.5.4.4.B.B.B.B.5.>.>.5.B.5.4.4.2.y.-.K ) w.1.X.q q h 3 + X 2 ;X;XT.4Xr.e.r.X.....) Y _ 1.1...1.1.-.X.........<.>.<.B.B.<.>.>.>.>.>.<.r.r.4.1.-.} H H K S.1.` :.4...:.:...-. .m n S , 1 . ! KXmXCXiXR.L.'.D.F.V.Z.~.~.F.F.~.(.F.S.S.y.2.-..._ :.>.>.1.1.-.-.=.1.=...` ` :.4.5.4.4.2.1.1.y.y.5.5.( ( $.| X. .z B k $ @ , m.cXmXNX#XC.h.Z.M.,.:.f.<.B.L.F.<.] :.<.D.F.Z.j.Z.j.h.h.h.Z.Z.f.a.:.a / ..4.r.4.4.r.y.Y _ r.4.F.h.Z.Z.f.$.$./ N.#.w n 9 ",
"nXVXVXjXE.a.B.^.^.(.^.^.^.^.^.(.^.Z.Z.Z.Z.Z.F.F.B.B.5.4.B.S.F.S.5.B.V.B.B.V.V.B.B.5.5.B.5.>.>.5.B.B.g.j.j.Z.Z.F.A.M V g # X v 0XzXiXiXM.K.).).H.j.k.k.p.<.f.Z.D.<.*.&.4.Z.F.Z.Z.g.g.h.h.Z.Z.h.f.S.X.J K X.2.2.1.4.4.-...1.1.:.4.D.Z.f.6.g.4.|  .0 j * *   b 1X2X4XY.X.1.2...1.:.>.4.5.B.B.B.B.B.B.y.:.2.1.Y Y -.2.2.1.>.2.>.>.:.1.w.w.1.} P R } T R Y Y _ | | R -.-.2.2.>.4.| 0 * # O o v.LXVXZX%XE.P.XX/.XXoX/.L.a.F.Z.a.p.p.l._./.L.C.f.<.&./ :.>.4.C.^._.).J.d.d.J.OXOX).).G.^.<.*.f.^.Z.f.p.C.$XkXaX{.^ Z n X o o m.8XlXyXR.4.4.5.B.y.:.` _ 1.r.2.| | -.-.I e e H } o.} } | -.1.1.1.:.:.2.4.4.1.=...` _ =.:.=.=.=.1.1.1.:.-.) Y ..o.x 6 8 % + , qXqX,X3XA.<.f.a.p.k.h.j.Z.Z.&.:.4.B.B.a.f.Z.H.l.H.H.C.C.p.d d *.).$X).).OXXXOXOX@X@XOX$XOXp.h.J.].OXOXOXOXP.).XXE.~ m < $ o 4 qXzXiXsXL.L.`.~.Z.Z.g.V.V.g.5.5.$.=.5.B.V.S.B.B.5.5.5.5.5.5.5.5.B.5.4.4.B.V.5.B.5.4.4.5.5.5.4.y.y.1.K u ) w.w.o.q q h 3 + + 2 ;X;XQ.yXN.r.r.X...| ) Y ) X.X.| X.-.X.| ` ....` >.:.:.4.B.<.1.<.:.>.>.2.r.y.4.-.X.I H J J A.1.) ` r.:.:.1.` |  .m B ! , o . ! JXmXCXsXL.D.L.D.F.Z.!.~.~.~.~.F.~.B.V.B.4.:...| ..2.4.4.2.2.-.-...;.....` $.:.>.4.4.4.2.-.-.w.y.2.>.` ( &.2.r. .z B k $ @ , m.cXmXNX#XC.f.Z.a.O.:.<.<.C.L.S.4.:.>.4.Z.L.C.f.j.h.p.s.s.C.Z.C.D.<./ / ..2.2.4.r.r.2.Y _ y.4.F.h.L.Z.5.%.` / N. .w q g ",
"nXVXVXjXR.a.f.Z.Z.!.^.^.`.`.^.^.^.F.Z.B.Z.Z.F.F.f.f.4.4.B.S.F.V.5.5.B.g.B.V.V.g.g.4.5.B.5.>.>.5.B.B.g.j.j.Z.Z.L.A.M V g # X v 9XzXuXiXM.L.).).H.H.k.p.p.<.f.Z.B.,.:.*.<.Z.H.Z.Z.h.h.h.h.Z.Z.h.g.y.| J ) X.1.1.1.4.2.....2.1.1.B.D.C.f.6.g.4.`  .0 j * * X A 1X<X4XT.X.1.2.-.2.=.:.>.5.5.y.y.B.B.B.5.2.:.2.| J ;.w.2.1.>.2.>.>.:.1.2.w.2.| Y K Y K K J J R | } Y 1.1.>.>.>.4.| 0 * # O o v.LXVXZXpX#X XXXJ.XX+X/.^.a.D.B.4.p.h./.).J.G.h.f.4.:.' ` &.<.C.^.).).J.s.d.I.OXOX).).G.^.p.*.f.^.j.f.p.G.$XkXaX{.^ N b $ o o n.8XtXtXT.a.4.4.B.y.>.` _ -.w.2.| } -.| J r F L W | | | ) ....X.:.1.2.2.2.4.2.=.=.=.=.=.:.-.=.=.1.2.1.:.-..._ ..} w 6 8 % & , qXqX>X3XB.,.4.4.p.k.h.j.Z.Z.&.>.4.B.B.a.B.Z.H.j.Z.Z.C.C.p.d d ] ).$X).).OXXXOXOX@X@XOX$X_.p.s.C.L.P.].OXOX).XXXXE.~ n < $ o v 0XzXuXNXR.(.(.!.Z.g.g.Z.Z.g.5.<.` :.B.B.B.B.B.B.5.5.4.5.B.B.5.5.B.5.4.4.B.B.4.5.4.4.4.4.4.4.4.4.B.-.u p | w.q.X.q g h 3 + + 3 ;X;XU.yXA.M.r...| | ) ) | ..X...| ...._ ) ` ..` :.` :.r.B.4.>.<.:.>.>.>.<.4.:._ | H H I K r.X./ / r.1.1.1.` )  .m B ! , o . ! JXJXLXsXL.D.F.D.D.Z.!.!.!.~.F.Z.V.B.y.4.:.=...;.-.5.5.y.5.2.:.=.=...=.=.=.:.>.>.4.f.y.r.2.1.2.1.=.` $.$.:.A.t.{ z B b $ @ , m.cXzXnXpXD.f.F.a.O.:.*.<.C.Z.B.4.>.:.4.Z.Z.f.<.f.h.p.k.s.h.C.f.D.<.s ) :.1.1.2.y.4.=.R ..B.4.F.h.Z.h.<.( $._ A. .q q g ",
"MXVXVXfXR.3.,.f.Z.Z.!.(.`.`.^.^.^.F.Z.B.Z.Z.F.F.f.f.4.4.B.S.F.B.4.5.5.5.f.V.B.f.5.<.4.g.5.>.>.g.B.B.g.j.j.Z.!.L.A.H V g #   v qX6XtXpXd.L.P.L.H.^.p.<.<.<.g.Z.B.,.<.*.<.Z.Z.f.g.Z.h.h.h.Z.Z.Z.B.2.) K _ 1.w.2.2.4.2...X.2.1.1.B.D.h.f.6.g.4._  .0 j * * X A 1X<X4XA.| X.2.1.2.=.:.>.5.y.B.B.B.B.V.4.4.=.2.1.p ..w.2.2.2.2.>.>.:.=.-.-.2.;.R K Y J P J J Y | } Y 2.1.:.=.>.2. .0 * O O o v.LXVXZXrXOXOX).J.XXoX).).a.B.f.p.C.H.+XH.H.C.f.f.f.<.` _ ` :.f.H.).).J.s.s.G.OX).P.).H.[.h.p.h.Z.f.<.p.P.&XjXrXW.U N B $ o o n.8X6X3XD.f.4.4.5.5.2.` _ ..2.2.} ) X.} F r H I W | X...) ) ) ) ..2.r.4.1.2.2.r.y.y.2.=.=.-.-.=.1.2.1.1.-.:._ ..W 0 6 f & & , qXqX>X3XB.,.<.<.<.p.f.j.j.g.&.>.4.M.a.a.C.^.H.j.Z.Z.C.Z.a.' s ] ).$X].).OXXXXXOX@XOX].$X).,.p.p.h.G.P.OXOXXXXX_.E.N n < $ o A 0XvXuXNX{.(.F.Z.Z.g.g.Z.Z.V.g.>.$.2.B.B.y.B.V.V.B.5.4.5.5.B.5.5.B.5.>.4.B.B.>.4.4.2.2.>.>.4.4.:.B.-.p Y -.-.X.X.q q h 3 + + 3 :XU.N.tXD.M.r.| ) | | | ..-.1.-._ ..| ) ) ....` :.` :.B.B.<.:.:.:.>.>.>.<.4...Y I e H T J w.| K K r.4.1.3.) )  .t m S 1 1 . 7.LXmXCXsXL.F.(.R.'.~.Z.Z.Z.!.Z.V.y.B.4.=.` ` =.:.:.B.V.V.B.4.:.-.=.=.=.:.2.2.4.5.f.4.4.4.1.-.;._ / ( <.<.4.Y.A.{ M B b $ X , m.cXzXNXrXG.C.L.f.O.,.:.f.F.F.B.4.,.&.4.Z.Z.<.<.f.Z.h.h.f.h.g.f.f.:.a ` :.1.-.2.y.2._ ) -.B.a.F.C.Z.g.&./ $...T.@.w n g ",
"MXVXCXCXM.M.B.B.~.~.(.`.`.`.^.^.Z.Z.Z.Z.Z.Z.Z.F.B.<.4.B.B.Z.F.V.4.5.5.>.<.B.V.B.4.B.4.<.g.>.$.4.V.B.V.g.!.!.~.F.S.H V g # X l 1XcXiXiXN.L.P.G.h.Z.B.4.>.4.B.g.f.:.&.<.g.f.h.Z.h.j.j.Z.Z.Z.Z.Z.Z.r._ ) | 1.2.X.2.r.4.a K 4.M.M.4.G.f.<.Z.f.&.2...w f 3 $ $ b 9X1X3XN.^  .2.1.4.:.:.>.<.5.g.g.g.f.V.4.:.1.1.-.) Y ..) | 2.2.:.:.:.:.:.:.2.2.=.| ) ) Y J J K R Y Y w.X.-.2.w.w.Q g * & $ X v.IXMXZXrX].).OXXXXXXXH.G.h.p.a.f.f.F.[.^.).).Z.a.a.5.&.` :.<.f.(.).G.z.d.s.J.OX$X_.L.H.[.<.] <.p.f.h.h.&XhXhX$XW.^ N Z $ o o ;X8XtX3XD.<.<.5.5.5.4.=.) ) 2.2._ Y | | I u F P W W | -.| | _ _ =.2.2.2.4.:.2.4.4.2.=.=.=.=.` ` ` =.:.:.1.=...-.} 6 6 f % O < qXqX6XeXA.f.<.4.4.a.f.Z.Z.C.] <.f.B.4.f.Z.^.H.j.g.C.L.L.r.` / ^ K.$XP.XXXXXX).OX$X@X$X].Z.<.f.h.L.).OXOXXXXXoX].R.N m f $ X b 0XcXxXNXW.D.B.Z.V.B.V.F.S.B.4.:.:.:.y.V.B.B.B.5.5.5.5.5.5.5.5.5.B.5.4.4.5.5.4.>.>.4.5.y.y.4.2.y.2.| e -.2.-.X. .0 q h 2 O @ 2 :XU.N.yXD.4.3.| | | | ..-.-...| | X.1.K K 1.X._ ..:.&.B.V.<.<.` :.&.>.>.1.r.1.J U U H | I X.X...` A.3.2.M.1... .z B S , o . ! IXJXVXjXL.L.F.].'.Z.!.!.!.!.Z.B.5.y.2.=.=.:.2.1.` 4.5.V.B.:.:.:..._ 1.2.:.:.5.B.B.4.>.:.1.1.| ) _ 5.5.5.a.B.A.o.M C b $ o , v.cXMXVX#XK.Z.f.,.>.:.:.4.B.F.F.4.&.<.B.Z.C.<.*.<.g.Z.f.4.Z.Z.Z.B._ Y :.:.1.:.1.y.4.Y Y >.f.B.D.K.Z.Z.:.` ` 1.A. .q q 9 ",
"nXVXVXCXM.r.B.B.~.~.(.`.`.(.^.H.B.g.g.Z.Z.Z.Z.Z.B.4.4.f.5.B.S.B.<.5.4.>.<.B.Z.V.F.F.4.<.5.>.&.5.V.B.V.Z.!.!.~.F.A.H V g # O l 1XcXuXpXa.G.P.G.Z.Z.B.4.4.4.B.g.f.<.:.a.Z.h.h.Z.j.j.j.Z.Z.Z.Z.Z.S.r.) K K _ 1.1.A.2.1.p a :.1.3.a.C.h.f.j.6.$.2.X.w 9 < $ $ b 9X1XtXU.}  .1.1.r.:.=.:.>.<.f.g.f.5.B.4.2.2.2.1.| J X.) | -.-.1.2.:.:.:.:.>.2.:.=._ -._ Y Y Y K K Y 1.X.-.-.w.t.8.g * & % X v.IXMXZXrX].P.OXXXXX).J.J.h.p.p.a.a.Z.`.).).).Z.<.a.5.:.` <.4.f.^.).J.J.d.s.H.XX+X_.^.^.(.<.,.a.p.p.h.G.&XdXrX$XW.^ M B # $ $ ;XlXtX3XD.:.>.<.5.5.5.>.$.) 1.2...) | ..} H F J W T } X.| .._ _ =.2.2.2.4.2.2.4.2.2.:.:.=.:.=.=.=.=.:.:.:.:.X.1.} 6 6 f % O , 1X8XtXeXB.4.4.4.a.a.B.F.F.C.:.4.f.f.a.f.Z.^.H.j.g.Z.L.Y.r.| ) / D.+XP.XXXXXXXXOX$X$X$X].Z.<.f.C.L.).].OXXXXX_.[.R.N z f $ X b 0XzXxXNXR.D.B.V.V.V.V.S.V.y.y.:.=.:.5.B.B.g.g.5.5.5.5.5.5.5.5.B.B.5.4.4.4.4.>.>.>.2.4.y.y.r.2.r.1._ i -.2.-.X.o.q g v 2 O @ 3 :XU.U.yXD.r.3. .| ........X.....| ) ..Y Y -.| ..=.:.&.B.V.<.<.&.:.$.:.>.1.r.1.K I H r J I t.1./ | A.r.r.A.4.1...N V ! < 1 . ! KXJXVXkXP.L.D.].L.Z.!.!.!.~.F.B.5.y.1.=.=.2.1.:.>.4.g.F.B.$._ =.` _ -.:.=.:.5.B.g.5.f.y.2.=._ =.y.5.5.5.f.A.A. .x C B = o , v.cXMXNXE.K.D.f.<.3.:.>.4.B.S.F.4.` :.f.Z.Z.<.&.*.f.Z.S.B.F.V.B.5.) K >.` =.4.r.r.1./ s :.4.4.C.D.C.B./ =.1.X.r. .q q j ",
"nXCXVXNXM.4.B.B.~.~.(.(.`.(.^.Z.Z.g.f.B.Z.Z.Z.F.S.4.4.5.4.B.B.5.>.4.4.>.4.V.S.V.F.B.>.>.5.:.$.4.B.B.V.Z.!.!.!.F.S.H V g # X v 1XcXuXpXd.G.H.G.G.Z.B.y.4.4.B.Z.Z.<.:.f.Z.Z.h.Z.Z.j.j.Z.Z.Z.Z.Z.S.2.Y J p Y X.-.y.r.:.a / 3.:.r.C.s.C.h.g.&.$.4.X.0 9 < $ $ b cX1XyXT. . .1.O.2.:.=.$.>.<.g.V.g.4.g.f.4.2.4.2.| p | ) | ....1.4.:.:.:.:.:.>.:.=.=.2.-....._ J J Y 1.1.1.-.-.t.o.6 * & % X v.IXMXZXrXP.P.OX).XXXXJ.).h.p.a.a.a.D.(.)./.).C.<.4.5.:.&.4.f.f.^._.).XXs.s.H.).].).L.^.Z.a.a.C.p.<.G.).&XdXrX$X{.^ M B $ $ & ;XlXtX4XD.&.>.4.4.5.5.2.:./ =.2.-.| _ | -.W J P | | ..-.-.-.;.| -.2.4.4.4.4.2.2.2.2.2.:.:.>.:.=.=.=.:.:.:.1.X.q. .6 6 f & $ , 1X8XtXpXB.<.4.a.f.f.B.Z.F.D.:.<.4.4.a.f.Z.L.Z.h.h.Z.L.Y.r.) ) / D.+XP.XXXXXXXXOX@X@X+X].Z.<.f.C.L.).].XXOXXX_._.R.N j < $ X b 0XzXuXbXL.D.B.V.V.V.V.V.B.y.4.:.=.:.5.B.g.f.g.B.B.B.B.B.B.B.B.B.B.5.4.>.4.>.>.4.4.4.4.5.5.y.r.2.-.Y u 1.2.-.X.X.w g h 2 + + 4 ;XU.N.4XA.r.3.) | ............X.| K ) ) | ..) X.:.>.&.B.V.<.4.:.:.&.:.:.1.r.2.Y L L H I I 2.1.` ..B.r.r.A.r.2. .N V ! < 1 . ! JXVXBXBXE.).C.L.Z.^.Z.Z.!.(.~.V.5.r.....r.y.:.$.2.4.B.~.y._ / ..-._ =.=.=.:.5.g.4.f.f.4.=.) _ 2.V.<.5.5.B.S.A...x C B = X , n.cXMXnXE.K.C.f.a.4.O.3.4.a.B.Z.,._ ] 4.Z.F.4.] *.a.C.Z.f.Z.B.4.<./ / _ s _ 4.4.2.../ / >.<.4.C.D.B.a.i :.2.X.e. .9 w j ",
"nXNXNXNXe.3.M.B.~.~.(.(.`.^.H.Z.Z.B.f.g.Z.Z.F.(.F.B.5.5.4.B.B.4.:.4.4.>.4.B.V.B.5.>.:.5.B.>.:.>.B.B.V.g.j.Z.Z.S.A.M V g # O v qXvXeXeXd.G.H.G.Z.Z.B.y.<.<.B.Z.L.' ( 4.Z.h.f.Z.j.j.j.Z.Z.Z.Z.Z.S.1.) ) Y _ 1...2.M.1./ O.4.:.M.F.N.G.Z.g.&.$.r.X.0 9 * # $ b cX8XyXT.)  .X.X.2.:.>.=.>.5.V.Z.g.f.f.B.4.1.2.r...H J I ..X.| 1.2.:.:.:.:.:.:.:.1.1.r.1.1.w.-.K J Y ) | -...;.i.o.6 * & % X v.IXMXZXrXE.P.OX).).XXP.OXG.h.f.f.f.D.^._./.L.C.<.4.f.>.` 5.B.C.^._.).XXs.z.J.XX_.H.Z.Z.Z.f.f.Z.a.p.L.@X&XdXrX$X{.^ N m = $ & ;XlXtXeXD.:.<.5.4.4.4.2.:.) _ 1.2...R _ -.X.P P | | X.w.w.2.-.=.=.1.2.4.2.5.4.2.2.4.4.2.:.:.:.=.=.=.:.:.:.2.1.q.o.6 6 8 & $ , :XqXtXyXB.:.4.f.f.B.C.Z.Z.Z.&.&.:.:.<.f.Z.L.j.h.h.Z.L.D.4.) ) / L.+XP.XXXXXXXXOXOXOX+X_.C.<.f.C.H.).].XXXXXX_.).R.N j < $ O b 0XcXuXbXL.D.B.V.V.Z.V.B.y.y.4.=.:.2.5.B.B.g.g.5.5.5.B.B.B.B.B.5.5.5.4.>.>.>.>.4.4.4.4.4.5.y.y.2.1.a a w.1.-.X.X.w q h 2 + + 4 ;XU.N.3XM.M.r.) ..X.....| | ..-.| I ) Y ) ..| X.1.>.` B.B.>.<.>.>.&.:.:.1.r.w.) I U J X.) 1.1.1.:.B.r.r.t.4.2. .z B S , o . ! IXmXBXkXP.L.C.L.Z.^.!.Z.!.(.~.V.5.:.) =.S.S.$._ :.5.B.F.5._ _ :.1.` -.=.$.>.5.g.4.f.4.=./ _ 2.y.5.<.5.f.B.S.S...x S B = X , m.FXMXnX#XK.C.f.f.4.` >.4.B.B.B.] / ] f.Z.F.a.*.*.a.f.f.4.B.4.<.<._ _ a s ` 4.2.:.-./ $.5.4.4.D.K.f.4.s =.:...N. .7 m 9 ",
"nXnXNXNX3.3.M.B.~.~.(.(.(.^.H.Z.Z.f.4.4.g.B.V.S.F.f.f.B.4.B.S.B.:.4.4.>.>.g.B.5.B.:.:.5.B.4.2.4.B.B.V.Z.!.Z.Z.F.A.M c g # O v qXlXeXpXa.L.L.Z.h.<.4.4.<.4.g.C.g.a d ,.Z.h.g.h.h.j.j.Z.Z.Z.Z.Z.S.r.-.1.X.1.r.:.2.r.:./ :.3.` 4.B.C.G.h.f.&.$.r.X.w 9 * # $ b FXlXtXT.^ ) ..| 2.1.>.:.:.>.f.V.B.f.f.B.4.:.1.t.1.) e p | 1.X.-.1.=.:.:.:.:.:.:.1.2.1.:.2.y.2.) K Y y a _ | ;.t.o.6 * & $ @ v.IXMXZXrXOXOXOX).XXOX).@XJ.f.f.f.a.B.Z.).J.^.Z.a.4.5.>._ 4.B.C.^._.).J.s.z.).OX].Z.f.f.F.f.f.C.p.h._.@XdXhXrXpXeX^ N m = $ & ;XlXtXeXD.<.5.5.4.4.4.2.:._ _ ;.2.-.Y Y ..X.P P T T ) ..-.2.1.-.=.=.1.2.2.4.2.2.2.4.4.2.2.:.=.` ` =.:.:.:.1.X.q.o.0 = 8 & & & :X1XtXyXB.>.a.f.f.C.Z.Z.Z.Z.] &.&.*.,.4.C.H.h.h.g.Z.F.S.2.) ) / L.$XP.XXXXXXXXOXOX].].).f.*.f.C.G.).).).).XX/.).R.N j < $ O A cXcXxXbXL.S.Z.V.Z.Z.Z.B.y.4.4.=.2.4.5.B.B.g.f.5.5.5.5.5.5.5.y.5.5.5.4.4.>.>.4.4.4.4.4.4.4.y.y.r.2.u Y w.1.;...X.w q h 2 O + 4 :X;XN.Y.e.t.r./ ......| | | ..-...| | K I 1.....1.:.` f.B.:.<.>.<.&.:.=.:.r.w.|  .e e q.w.t.X.O.:.B.4.r.r.B.B. .z B S , o . ! IXmXNXjXL.L.C.(.Z.^.!.Z.Z.~.F.B.5.2.=.:.S.B.` _ 4.B.B.V.4.$.` 1.-.=.:.:.:.2.B.B.4.5.4.>.=.2.V.S.5.5.f.f.B.S.S.X.M V A & X , m.FXMXnX#XK.C.4.<.:./ O.4.B.B.<.' / ,.B.F.Z.4.:.<.a.p.f.4.V.f.<.>./ _ i _ 4.4.:.4.4._ >.5.5.a.D.F.a.:.` _ Y | A. .7 m q ",
"nXnXNXNX3.3.r.B.F.~.~.^.(.^.H.Z.Z.f.4.f.B.B.B.Z.Z.f.B.B.B.B.S.B.:.>.>.:.>.5.y.5.F.$.` >.2.>.4.4.B.S.Z.Z.!.!.!.F.A.M c g # O v 9XvXtXiXN.P.).Z.h.` :.<.4.f.f.a.,.s d :.Z.Z.Z.Z.h.j.j.Z.Z.Z.Z.Z.S.y.-.-._ ..2.1.r.r.X./ O...` M.M.D.G.C.g.>.$.r.X.z g < # $ b FXlXtXT.^ ^  . .2.1.:.=.=.>.<.5.f.f.B.B.4.>.1.4.2.-.i p ) 1.1.-.1.:.:.:.:.:.:.:.1.2.=.1.w.y.w.;.) R a Y ..-.1.t.o.6 * & $ @ v.IXMXZXrXOXOXOX).XXOXXX+XG.p.a.a.4.f.C.).H.).L.g.a.5.<._ 4.B.f.^._.H.z.s.z.XX@X].C.a.4.F.f.f.f.a.C.].&XhXhXrXrXpX .U n $ $ & ;XlXtX4XD.:.4.5.4.4.4.4.2..._ ..1.-._ Y T -.| } W P R _ ) -.1.-.;.=.-.1.2.2.2.2.4.4.4.2.2.=.=.` ` =.:.:.:.1.X.q.o.0 = * & $ & :X1XtXiXD.<.a.a.B.Z.Z.B.B.Z.,.<.<.:.:.<.B.Z.f.f.f.B.Z.B.1.) / / L.$XP.XXXXXXXXOXOX].].).f.] a.h.Z.L.P.).).)./.).R.N g * & O b cXmXxXNXL.S.Z.Z.Z.V.V.B.y.4.2.=.2.4.5.5.B.g.f.5.5.5.5.5.5.5.y.5.5.5.5.4.>.>.5.>.4.4.4.4.4.y.y.r.w.e ) w.-.;...X.w q h 2 O @ 4 :X2XN.T.1.r.e.J ......| | | | ..X.| ..K Y 1.X.| 1.:._ B.B.:.>.>.<.:.:.:.-.r.w.) I e p r.2.2...1.:.4.4.B.M.S.'.1.N V ! < + . ! JXmXNXjXL.L.C.(.F.Z.!.Z.Z.Z.V.y.4.B.5.4.y.2.=.>.V.Z.B.B.4.=.=.=.) ` :.>.:.2.B.B.5.<.5.B.y.5.y.V.S.g.g.g.C.F.A...M V A & X , m.HXMXfXE.K.C.<.` ' / ` 4.D.B.>./ / f.D.S.B.<.<.a.f.4.B.5.Z.4.:.` a s a =.B.2...4.4./ =.5.4.4.D.D.4.:.:.a p | t.{ q m q ",
"MXVXCXNX3.3.r.B.V.S.!.~.^.^.Z.Z.F.B.a.f.V.Z.B.B.Z.5.B.B.B.B.B.4.` :.>.:.>.5.B.5.S.' Y :.:.:.4.4.B.V.S.Z.!.j.Z.F.A.M c g # O v 9XcXiXiXN.P.).G.C.:.>.>.>.4.f.f.<.' ' <.Z.Z.Z.H.Z.Z.Z.Z.Z.Z.Z.Z.S.2.=...) ) 1.1.r.B.:./ ` ' O.D.D.D.Z.Z.Z.>.( 2.q.z g 3 # # b cXlXtXT. .) |  .2.1.:.:.:.:.:.>.4.B.B.f.4.<.1.1.2.2._ p K -.2.1.1.1.=.:.:.:.=.=.:.2.1.2.2.2.2.2.-._ ) ) ;.2.1.i.E 6 * & $   v.LXMXZXrXOXOXOX).).OXXX@XG.p.p.a.4.a.C.).H.).).Z.f.4.>.` f.B.a.H._.H.h.s.G.XX@X_.C.f.f.Z.f.a.a.,.f.].&XhXhXrXpXpX .U j # $ $ ;XlXtX3XD...2.5.5.4.5.r.2.-._ _ -.2.-.) K X.-.-.} J R } R | -.1.;._ ..:.1.1.2.4.4.4.2.2.2.:.=.$.` =.=.:.:.1.X.q.8.z = 6 * $ & :X1XtXyXD.f.4.4.f.Z.Z.f.f.C.<.4.4.<.:.<.B.^.f.f.f.f.B.B.:.) / / L.$XP.XX X XXXXX].OX+X].g.*.a.f.C.G.L.P.P.)./.).R.N q * $ & v 0XmXxXbXK.D.D.V.V.B.B.B.5.2.:.=.2.5.5.5.g.g.5.5.5.5.5.5.B.B.B.5.5.5.5.4.>.>.5.>.2.5.5.5.4.r.r.r.w.y ) w.-.-.X.X.w g v 2 + + 4 :X2XU.T.+.e.+.e ..| | | | | | | ..) | ) ..1.....1.:.` B.Z.:.>.>.<.:.:.:.-.4.2.) p I } r.| X.:.B.1.a.a.f.4.S.}.1.N V { < + . ! JXGXBXkXR.L.Z.(.Z.Z.!.!.Z.B.5.4.4.4.B.B.2.=.:.y.S.V.g.B.5.:.:.=./ Y ` :.:.>.B.V.g.<.<.5.y.y.2.5.Z.V.j.j.C.S.A...t V S * @ , :XHXMXfXI.D.G.4./ / / :.4.B.B.:./ ( B.B.Z.B.<.:.<.f.f.f.4.B.>.` ' s / _ :.4.>...1.-.a _ >.<.4.D.D.4.:.$.p K X.+.} w q q ",
"VXVXVXNX3.3.r.B.V.V.Z.!.^.!.Z.Z.Z.f.<.4.B.B.f.f.B.4.B.B.B.B.B.<._ =.:.=.>.5.B.5.B.Y Y 4.4.4.B.5.y.B.V.g.g.g.V.S.A.M c g # O b 9XmXiXiXN.P.).G.Z.Z.4.:.` :.f.Z.C.,.&.4.Z.Z.Z.H.Z.Z.Z.Z.Z.Z.Z.Z.S.2.-.1.| ..2.1.4.B.O.K / / O.W.F.C.D.Z.~.>.Y 1.q.c g < # # b FX8XyXW. . .| ) 1.1.1.2.1.=.=.:.4.B.B.f.B.y.4.:.:.r.r.a p | 2.2.1.1.=.:.>.:.=.=.:.2.2.r.4.1.1.5.2...a p Y | ;.X.E g * & $   v.LXMXZXrX].OXOXP.).OXXX$XH.p.p.a.a.f.C.^.H._.[.L.B.4.>.:.B.f.<.Z._.H.h.s.G.).OX).C.B.C.C.a.a.<.*.a.).&XhXdXrX$XpX .N j # $ $ ;X8XtX3XD.:.2.y.y.y.4.4.2.=._ ) -.w.2._ J R | -.R u R } K ) -.1.;._ _ -.1.=.2.4.4.4.2.2.4.2.:.=.=.=.=.=.=.:.X.q.8.x 6 6 * $ , :X1X6XyXD.B.4.4.f.Z.C.f.f.B.:.<.4.<.:.<.Z.`.f.k.f.a.f.r.:.) / / L.$XP.XX X XXXXX].+X$X+XZ.*.a.a.C.G.L.P.P.)./.).R.N q * $ & v 0XmXxXbXD.B.B.V.g.5.5.y.5.2.=.=.2.5.4.4.5.g.5.5.5.5.B.B.B.B.B.B.B.B.B.4.:.>.5.:.>.5.5.5.4.r.r.2.2.7 ) 2.-.-.X.X.w j b 3 : + 4 ;X;XU.T.+.q...y ..| ) ) | | | ) ..J Y ..1.1.| -.2.:.` B.S.:.>.<.<.:.:.:.-.2.1.Y J ) ) -._ B.B.<.4.B.f.a.3.B.'.O.e B S , + . ! IXJXVXkX].`.Z.L.B.Z.!.~.Z.f.4.2.2.` y.S.2.=.>.B.5.B.g.Z.V.>.>.:._ a _ =.$.>.f.V.V.Z.4.>.4.B.V.V.V.Z.Z.j.h.Z.B...t V S * @ , :XHXMXnXK.K.L.a./ / ' :.4.B.4.>.' ` Z.a.Z.D.<.&.<.f.B.5.4.B.<.&.:...4.B.2.1.2.1.1.` p s :.<.4.D.D.4.3._ p ..1. .{ N j g ",
"VXVXNXxXM.3.4.F.F.V.Z.^.^.Z.Z.Z.B.B.f.f.B.B.B.B.B.B.B.B.2.4.y.2.' ` $.$.>.B.B.5.5.Y s 4.B.:.:.F.y.V.Z.Z.g.g.Z.F.A.M c f # O v 9XvXNXpXK.G.G.C.Z.<.:.<.f.B.F.Z.*.4.4.f.Z.Z.f.h.H.h.Z.Z.C.B.B.B.M.=...=.2.r.4.4.4.4.r./ / :.4.F.M.M.L.S.B.$.$.y.q.z k 3 X $ b 9X8X4XW.1.+.+.) -.1.1.=.=.=.:.:.4.B.B.B.B.<.>.<.<.4.1.:.y Y r.-.1.1.:.:.:.:.:.:.:.:.2.2.4.4.2.>.2.2._ a p _ ;.i.E g 8 - 3 . v.LXMXZX%X].OXOX).).XX).OX).G.f.a.a.B.C.H.).).].`.f.>.<.>.4.4.f.^._.J.H.s.J.OX).[.).4.Z.F.<.4.a.] ,.].hXdXjXrX#XpX .N m * o & v.cX>X3XN.1.:.:.2.2.1.:.1.2.p J -.=.2.2.P P T } | _ K R w.;.;.-.-..._ ..1.y.4.2.:.2.4.4.:.:.:.:.:.:.:.=.=.:...q.8.x 6 f & @ , :X8X6XNXY.B.f.f.f.B.B.B.f.f.] <.<.&.:.C.(.Z.H.Z.Z.C.f.:. .) / / D.#XOXOX XXXXXOXOXOX+X).C.*.<.C.L.L.P.).P.H./.).R.M j 9 O . v 0XmXxXbXD.B.B.Z.g.5.5.y.4.2.:.=.2.5.5.5.g.g.f.4.5.5.5.5.5.B.V.5.5.5.5.>.:.>.5.5.5.5.2.2.4.y.y.2._ y R w._ ..-. .q q k 3 + @ 2 1X;XU.N. .q.^ J 1.) K ) ..| ) ) ..| | I | -.| 2.4.:.$.4.B.5.>.:.:.4.2._ _ 4.r.-.T T ..2.:.>.4.B.<.F.<.f.4.,.S.^ w S S 4 @ . ! JXmXNXaXC.Z.C.(.Z.`.5.V.5.<.F.5._ a ~.S.2.=.$.V.F.V.V.B.g.B.B.4.:.) Y $.:.$.4.Z.f.j.f.5.5.V.S.S.g.g.g.g.Z.F.D...t C S = $ o :XHXMXnXK.L.G.' d `  .A.>.R._ 4...>.<.B.F.B.>.:.<.4.f.f.4.f.>.f.:.Y S.B.<.2.:.4.2./ / 2.4.4.4.4.3.3.1.` / ;.1.q.{ q n h ",
"VXVXNXxXe.3.4.S.F.S.Z.~.^.Z.Z.H.B.B.f.f.B.B.B.B.B.4.B.B.4.r.B.4.` $.$.=.2.y.B.4.4.:.=.4.y.2.4.V.y.B.Z.Z.!.g.Z.S.A.M c f # O v 9XvXNXpXK.G.J.C.f.4.<.4.B.B.Z.g.&.:.>.f.F.Z.f.g.Z.h.Z.Z.Z.S.S.D.r./ Y / -.4.4.4.4.4.4./ ` 4.a.L.F.C.F.B.<.` $.u.q.z k 3 X $ b 9X1XtXW.+.+.X.) | ) ` =.1.2.2.:.2.B.B.B.B.<.>.1.<.<.<.1.p K 2.:.1.1.1.:.:.:.:.:.:.:.:.2.2.2.2.2.4.4._ K J _ ;.X.L 6 8 X 3 . v.LXMXZXrXOXOXOXP.P.).J._.H.C.p.a.a.B.g.H.).).).(.f.>.4.<.f.a.f.^._.H.H.s.P.@X).+X].4.Z.L.>.4.f.] <.$XhXrXjXrX$XyX .N m = O & v.lX>X3XN.X.=.=.1.2.1.1.1.2.J p _ -.2.1._ K R } .._ Y T ;._ _ ..-..._ _ ..2.4.2.2.2.4.4.:.2.:.:.:.:.:.:.:.:...q.X.x 6 f = X , :X8X6XCXD.4.B.B.B.B.B.B.f.f.` :.:.*.<.B.F.Z.Z.h.f.B.f.1.` ) / ' D.#XOXXXJ.XXXXXX].OX].).f.*.<.C.L.L.L.).).J./.).R.t j 9 O . v 0XmXxXbXD.D.Z.F.g.4.4.4.2.>.2.=.2.y.5.5.g.g.f.5.5.5.5.5.5.B.V.5.4.4.4.>.:.>.5.4.5.5.2.2.4.y.y.1.R e _ r...-.1.o.w j k 3 + + 3 1X;XU.t.o.e. .I ..) Y ) | | | ) ..| ..| X.1.| -.:.$.:.4.f.>.&.:.:.4.<.` ..r.r...) ) X.2.:.>.a.B.,.Z.<.f.4.4.F.) w C S f o . ! JXmXnXsXZ.Z.Z.(.Z.(.6.5.<.4.B.=.Y _ F.S.5.:.&.Z.Z.g.B.B.B.V.V.5.:.=.=.:.>.>.g.Z.g.g.f.5.5.V.S.Z.g.g.j.j.Z.F.Z...t C S = $ o :XHXMXnXI.K.C.' / :.` B.4.D.K <.:.4.Z.B.F.B.:.:.,.4.f.f.4.B.4.B.>.s <.B.<.4.2.r.4.) ` 4.5.f.a.4.,.:.:.1.=.1.1.q.{ q m j ",
"nXVXnXiX3.:.3.B.F.S.Z.!.!.Z.Z.H.B.B.5.f.B.B.B.B.4.4.y.r.4.y.A.r.` $.=.=.2.y.5.4.2.y.y.4.4.4.y.y.5.y.V.Z.Z.j.Z.V.A.M c f # O v 9XvXCXpXD.G.L.h.<.4.<.B.B.B.Z.f.*.` :.a.F.Z.f.f.Z.f.C.Z.Z.F.F.B.4.Y Y / -.4.r.4.4.1.:./ O.4.4.D.F.D.D.>.$._ =.A.t.0 k < X $ b 9X,XtXT.+.+.1.) ) / ) _ 1.2.1.:.1.y.B.B.B.<.>.>.>.>.<.4.s a -.1.1.1.1.1.1.1.:.:.:.:.:.:.>.>.>.>.4.4.1.) Y R R T c 6 8 X 3   v.LXVXZXdXOXOXOXJ.G.H.G.).G.h.a.a.f.B.f.G./.^.^.(.B.<.4.<.f.f.f.^._.L.J.h.P.@X).+X(.a.F.'.>.a.B.[ a.aXhXrXjXrX$XiX .N n = $ < v.lX<X3XA.X.....=.2.1.1.2.2.Y u Y 2.2.=.2.T J _ -.T K T R ) _ ..-.-._ ) _ :.2.4.2.2.4.4.2.2.2.1.:.:.:.:.:.:...q.X.x 6 8 % O , :X8XtXCXD.<.B.B.B.B.B.B.f.f.&.&.&.:.4.B.C.C.h.k.p.f.f.1.` ) ) ' D.{.].XXJ.XXXXXX].].].L.f.] ,.C.L.L.L.P.).J./.).L.t q < $ X v 0XmXxXbXK.S.S.F.g.4.<.4.>.:.2.=.2.y.g.5.B.g.5.B.5.4.4.5.5.B.B.5.>.:.>.:.:.>.4.4.5.4.2.>.4.r.2...Y p -.r.-.-.1.X.w j v 3 + + 4 1X;XU.t. .q.{ I I ) } } | ..| | ....X.| -.1.| 1...:.<.B.5.:.&.:.&.4.4.:.:.r.w.| | ) X.1.:.>.f.B.,.B.<.a.4.f.F.| 0 C S h o . ! JXmXNXjXK.L.Z.(.B.Z.5.5.4.V.y./ s 2.S.S.B.:.>.F.V.g.g.V.V.V.V.y.>.5.y.4.>.f.V.V.j.f.p.6.f.V.V.S.g.j.j.j.j.L.S...t C S $ $ o :XHXMXfXW.K.a.' ` 3.` r.M.B.a 4.:.<.F.B.F.B.:.&.,.<.f.B.4.B.f.4.>._ :.4.>.4.4.r.:.K =.2.5.B.B.a.3.:...2.-.2.1.+.^ q Z h ",
"nXNXnXiX3.O.3.B.F.S.S.Z.Z.Z.Z.^.B.f.5.f.B.B.B.B.4.<.r.r.4.y.A.r._ _ _ ` :.2.4.2.1.4.y.2.2.4.4.2.4.y.V.Z.!.Z.Z.V.u.x c f # O v qXvXVXpXC.G.L.h.*.:.>.4.B.B.Z.Z.<.` :.f.F.Z.a.a.C.a.f.B.B.Z.Z.B.4./ ) ..1.4.4.4.4.1./ d :.a.a.B.D.R.B.` ( ' =.Y.t.0 j * X $ b 8X,X4XT.@.1.r.X...) _ _ ` =...=.2.B.B.B.B.<.>.>.<.>.>.B./ p _ 1.1.1.1.1.1.1.:.:.:.:.:.:.>.>.>.>.4.4.r...R Y J J x 6 8 X 3   v.LXVXZXhXOXP.P.G.G.G.z.J.h.p.p.f.f.f.a.C.H.^.^.'.Z.4.4.>.4.4.f.L.).P.J.z.P.@X).[.L.4.F.'.,.f.B.( a.aXrXrXjXrXpXiX .M j # $ < n.lX<X3XA.X..._ -.1.1.1.2.2...u K 2.1...y...J ) -.Y P ) J _ | -.1.-.| ) _ ..:.4.4.2.2.4.4.2.2.2.2.2.:.:.:.:.| 1.o.x 6 8 % $ , ;X8XzXCXA.:.B.f.f.B.C.C.B.f.<.&.] ,.f.g.B.C.h.k.p.f.a.>. .) )  .L.#X].XXJ.XX).XXOX].].L.a.] ,.h.L.G.J.P.).J./.).D.t q < $ X b cXmXxXbXK.S.F.Z.5.<.<.2.:.:.:.=.4.B.B.B.B.g.5.B.5.4.4.5.B.B.5.4.>.$.:.:.:.>.>.4.4.4.>.>.4.2.1...a K -.2.| | ..X.w j v 3 + + 4 1X2XU.t.{ X.I U I ) | ) Y | | | -.| | I ..q.-.u...:.4.Z.B.<.:.>.:.4.<.:.:.4.2...| ) X.1.:.>.a.f.<.B.4.4.4.B.F...q V S h o . ! JXmXNXjXZ.Z.g.Z.f.<.5.B.5.B.:.a _ B.B.V.V.>.<.F.V.f.g.V.V.Z.V.y.>.B.F.4.:.V.Z.g.Z.f.p.6.f.V.Z.Z.Z.j.j.j.Z.L.Z...t C S # $ o :XHXzXuXE.K.,.( >.<.` 1.A.r.a 4...` B.B.S.a.] &.,.4.B.f.4.B.4.:.:.<.<.<.:.4.4.2.) p _ :.2.4.M.M.3.:.:.=.;.2.-.X.U q Z f ",
"nXCXnXiX+.O.3.B.F.S.S.Z.!.Z.Z.H.B.f.4.5.B.B.B.B.y.<.r.r.4.y.A.4./ / _ ` :.2.2.2.2.:.:.2.4.4.2.2.5.y.V.Z.!.j.Z.S.u.x c g # O v qXcXVXpXK.G.H.p.*.&.&.4.B.B.Z.Z.<.:.,.B.F.B.<.<.g.f.f.f.f.B.D.B.4.Y _ =.:.:.>.<.4.<.a d <.B.D.D.D.D.M._ ` $.1.Y.t.0 g < X $ b 8X,XtXT.O.1.r.X...) ;._ _ | ;.-.2.r.B.A.B.4.>.<.<.<.:.5.` i / 1.1.2.1.1.1.1.:.:.:.:.:.>.>.>.>.>.>.>.2.-.=._ J P x 6 ; X 3 . v.IXVXZXdXOXP.P.J.G.H.z.G.h.p.p.f.f.f.a.h.H.).).}.F.4.>.&.<.<.a.H.).).).z.P.OX).].K.:.D.F.4.B.a.( a.=X&XrXjXrX&XiX .M j # O < n.lX<X3XA.1.;.| -.1.1.1.1.2.1.a J 2.1._ r.-.J R ..Y Y ..Y ..| ;.-.;.| ) _ _ :.4.4.2.2.4.4.2.2.2.2.2.:.:.:.1.| q.o.x 6 f % $ , ;XzXzXNXB.:.B.f.f.B.Z.Z.B.f.4.:.&.,.a.B.C.Z.j.h.f.f.4.:.) ) ` ..L.+XOXXX XXXXXXXOX].).G.a.] ,.h.H.G.G.P.).P./.).K.t q < $ X b cXmXxXbXK.D.S.B.4.<.4.4.:.=.` =.4.B.B.B.B.f.5.5.4.4.4.5.5.B.5.5.>.$.$.>.>.>.>.4.4.2.>.>.2.2.:.| a R -.-.| -.1.X.w j k 3 + O 3 1X;XU.t.E o.U H I | ..Y K Y | | ..| | Y | 1.X.t.:.:.4.S.S.4.:.:.:.<.>.` ..1.2.X.X.) X.>.:.:.4.4.a.g.f.p.a.Z.F.O.r B B h o . ! HXVXNXaXC.f.<.B.<.4.5.5.$.` s i 2.F.y.V.B.>.f.Z.g.g.V.Z.Z.Z.V.y.2.B.F.4.:.g.Z.f.j.p.k.k.f.V.Z.Z.Z.j.j.j.j.^.F...t C A # & o :XHXzXuX#XK.,.] <.<.` :.S.1.a :._ ` 4.B.S.4.( :.<.4.B.4.5.B.f.:.` 4.4.>.:.r.4.1._ a _ =.1.4.B.M.3.1.:._ _ 1.X. .U q n j ",
"nXCXnXiX3.O.1.B.F.Z.Z.!.Z.Z.Z.H.B.f.4.4.B.B.B.B.B.<.4.4.2.y.B.2._ / _ =.2.4.4.4.y.=.$.4.y.4.2.y.B.V.V.Z.j.j.Z.F.t.x c g # O v qXcXCXpXK.G.G.p.*.:.:.4.B.B.Z.g.*.>.<.B.F.B.:.,.a.C.g.f.f.B.Z.B.4.Y ` :.:.:.4.4.r.1.i / ,.a.D.C.B.D.3._ $.=.2.A.q.0 j < X $ b 8X<XtXT.O.+.2.| | Y -.| _ ;.2.2.2.2.y.B.B.<.>.<.<.<.:.4.$.i s 1.-.4.1.1.1.1.:.:.:.:.>.>.4.<.>.>.>.>...-.2.-.R P x 6 *   3 . v.LXMXZXrXE.I.P.J.J.J.z.G.h.p.p.a.f.f.a.h.J.).).[.F.<.&.` <.<.<.Z.^.P.).h.I.OX].].D.] B.B.B.D.4.' 4.+XaXrXjXrX$XiX .N n # O < v.cX<X3XN.1.;._ ..-.1.-.1.1.2.Y a -.1._ 2.1.Y Y _ R _ -.;.| } | | | ) T ) _ =.2.2.2.2.4.4.2.2.2.2.2.:.:.:.1.X.1.X.x 6 f % $ , ;XcXzXNXM.:.a.4.a.B.Z.Z.B.4.a.<.:.:.<.B.Z.Z.Z.h.h.f.<.` ) ) ..O.R.$XOXOX XXXXXOXOX].).G.<.] *.f.H.G.G.P.).).^.(.D.t q < $ X b FXmXnXbXD.B.B.f.<.>.4.4.:.` _ =.4.B.B.B.B.f.4.4.4.4.4.5.5.5.5.5.>.$.$.:.:.>.>.4.4.2.>.>.4.2.=._ u | 2.| -.1.r.X.w j v 2 + O 3 :X;XU.t.E o.U H } | | ) J K ) | | | ..| -.1.| -.1.:.<.V.F.f.:.&.>.<.:._ ..1.w.1.-.| O.1.:.>.4.4.f.f.f.<.a.L.F.:.w c j 9 $ . ! HXmXNXpXa.a.<.f.,.V.g.5./ a s _ S.F.B.S.<.>.V.V.g.g.Z.Z.Z.V.V.B.4.B.V.5.<.f.V.g.g.k.p.f.g.V.Z.!.!.c.c.c.j.^.Z...t C A # $ o :XFXzXuX#XD.,.&.<.3.O.1.S.` i / ) <.B.D.D.>.' :.4.f.B.>.B.5.B.4._ =.:.:.2.B.r.4.:.) 1.1.4.B.B.a.3.:...) _ -.X.X.^ q j h ",
"nXNXxXiX+.O.1.B.V.V.S.!.!.Z.Z.Z.B.5.4.4.B.B.B.B.y.4.4.4.2.y.B.2._ ) ) =.2.2.2.r.r.1.=.4.y.r.y.A.S.S.Z.Z.j.j.Z.F.t.M c g # O v qXmXNXpXE.G.h.p.<.<.:.<.B.B.Z.f.( :.<.B.F.B.:.*.<.g.g.f.f.B.Z.B.1.' ` ` ..>.4.B.4.] i ( <.:.B.B.B.N.1.) =.=.1.u.8.0 g < X $ b 8X,XyXR.O.+.1.| X._ 2.;.| ;.-.=.1.2.r.r.r.>.:.<.<.<.:.4.:.i a -._ 2.1.1.1.1.:.:.:.:.:.>.<.<.>.>.<.2...1.y.2.R P x 6 *   2   v.LXMXVXrXP.I.P.J.J.J.h.G.h.h.p.a.a.B.f.C.)._.).[.L.<.` :.4.4.<.Z.H.H.P.h.J.OX].}.D.( a.>.D.D.>.] a.].kXrXjXrX$XyX .N m = X , v.vX>X3XN.1.| T | -.-.1.1.1.w.) p _ -.-.1.1._ Y R R Y ) ..T Y Y _ | ) ) _ _ =.2.1.2.2.4.4.2.2.2.2.:.:.:.:.1.X.1.o.x 8 f & $ , :XcXtXbXM.<.a.4.f.B.Z.Z.f.,.<.4.<.:.<.f.Z.C.h.h.h.f.:./ / ) ..O.R.+XOXXX XXXXXOXOX).L.C.<.] *.f.H.G.G.J.).).^.^.D.t g < $ . v FXmXnXbXD.B.f.f.<.>.>.>.=.` _ =.4.B.V.B.B.5.5.>.>.4.5.5.5.5.B.5.>.:.$.$.$.:.>.4.4.2.>.2.4.2.-.) i -.w.| -.2.r.X.w j h 2 O O 3 :X;XU.t.} o.U H } ) | ) Y K Y | | | X.| -.1.) ..2.>.4.S.F.B.>.:.>.>.:.` ..1.w.2.1...:.4.3.<.4.4.f.f.f.<.f.`.L.3.e c 9 < $   ! HXzXiX$Xa.a.<.f.:.V.:.:./ Y >.y.F.S.S.S.$.>.Z.f.g.f.V.Z.Z.V.Z.V.B.V.B.V.B.5.V.Z.g.k.k.f.V.Z.!.!.!.c.c.c.l.^.Z...t C A # $ o :XFXwXuX#XC.*.&.:.>.3.1.A.) p K ` A.D.S.B.../ :.B.f.4.4.B.:.4.B./ / ` :.<.A.4.2.4...2.4.y.B.B.4.O.` _ ) _ -...X.{ q j 9 ",
"nXnXiXtX+.O.:.B.V.V.Z.!.!.Z.Z.Z.B.5.4.4.B.B.B.B.r.2.2.4.2.y.A.2._ / ) =.1.1.1.2.2.2.2.2.2.4.y.S.F.F.Z.Z.j.j.Z.F.t.M c g = O v qXmXNXpXE.L.p.<.f.<.&.<.f.B.Z.f.( ( :.B.F.B.*.] ,.f.f.f.f.B.D.4.:._ ) / / =.4.4.:...a <.a.:.B.F.F.M.1.) =.=.1.t.8.0 g < X $ b 8X,XyXW.+.+.1.X.2.1.2.=.| ) ) _ -.r.r.r.4.>.:.>.<.<.>.<.>.p K ..Y 2.1.1.1.1.:.:.:.:.:.:.>.<.<.<.4.4.:.r.y.-.K J G 6 % - 2 . v.LXnXVXrXP.I.P.J.J.H.h.G.G.h.f.a.a.B.C.G._._.^.].F.<.` >.5.a.a.Z.H.H.P.h.J.OXOX+XD.( 4.` F.S.O.O.a.].CXdXjXrX$XpX .N m = X & v.cX>X3Xr.X.} Y _ -.1.1.1.1.2._ u Y -.2.-.1...Y K R p p Y K P R _ | | } | ..-.1.:.:.2.4.2.2.2.>.:.:.:.:.:.2...1.o.x 8 g % % & :XcXtXiXM.4.f.a.f.C.Z.C.4.&.&.4.a.,.<.f.C.f.h.h.C.4.` / ) | ..O.L.OXXXOXJ.XXXXXXXXP.G.h.<.] *.f.L.G.G.J.)./.H.^.D.t j 3 $ . v cXGXnXNXD.M.4.B.4.:.:.:.$.` _ =.4.B.V.B.B.5.4.:.>.4.5.5.5.5.B.5.>.:.$.$.$.:.>.4.4.>.>.4.4.2.-.Y e 1.r._ ..-.q.X.w g h 2 O O 3 1X2X2XU.} o.M e ) Y ) | ) K K | ..| ..) ..1.| 2.4.<.f.F.F.B.<.<.>.>.:.` =.2.r.2.1...1.4.4.4.f.4.f.<.f.<.f.].(.4.t z 9 * $   ! HXtXpXpXa.f.4.B.>.>.s / / ` ~.~.y.B.F.S.' :.~.5.g.f.V.Z.V.V.F.F.Z.F.V.F.F.5.V.^.g.p.k.g.Z.Z.!.~.!.c.c.j.H.^.F.O.t C A X & o :XMX8XnX#XC.&.] &.>.M.1.A.../ / ..S.A.S.B.` / :.B.f.4.B.B./ $.B./ / ` ` 4.B.:.:.4...:.5.y.B.B.4.:...` _ _ ;.| X.} q g g ",
"VXnXnXpX3.` 4.B.V.g.V.Z.!.Z.h.f.4.4.5.5.5.5.y.y.4.=.:.r.4.2.4.2.| _ ) ..1.r.4.2.4.:.=.=.2.B.B.y.B.B.V.Z.j.Z.Z.S.t.M c f = X 5 9XmXBXeXD.C.D.f.<.' ` :.B.~.4._ _ ' <.Z.Z.g.f.<.<.4.B.B.B.5.4.>.` -.) a X.t.1.1.` 1./ >.B.<.B.'.B.1.X.Y Y Y 2.Y.X.0 g f $ $ b 9X<X4XT...1.2.:.4.2.2.1.=._ Y / X.2.2.2.2.2.:.$.:.4.y.2.=.Y p R -...2.1.:.:.1.1.:.:.>.1.<.:.:.>.<.<.2.4.1.| _ T x 6 % % $ X 9.KXMXVX#XI.P.G.)._.h.H.l.H.h.f.C.C.f.f.H./.H.L.[.F.<.&._ >.4.<.a.Z.P.P.C.I.@XOX+X(.( d ] }.L.:.:.K.jXhXhXhXrX#X#X .^ n $ & & ;X1X,X3Xt. .o.} ) ..r.4.:.1.1.X.K u } q.-.| | | R P J R } T K } X.T } -.| ) ..1.1.1.2.2.1.2.>.:.:.<.<.<.>.:.X.q.o.z 6 g % & & ;XcX,XeXD.>.f.f.f.B.Z.B.>.' :.5.4.:.f.j.f.p.p.p.f.y.2.| ) ) ..:.L.].].OXOXOXXXXXXX_.L.h.,.` ,.f.Z.h.h.J.XX/.^.^.M.t j = = X b cXmXnXNXD.4.1.5.2.4.y.2.$.$.>.g.5.5.y.B.B.y.5.$.>.4.5.5.5.y.B.y.4.>.$._ ` 2.:.<.<.<.>.1.4.1...K K _ 1...` =.1. .w j l 2 O @ 2 :X2XU.T.} I M e ) T T ) Y K Y | X.| | ..X.-.X.X.:.:.4.Z.Z.g.4.4.>.<.<.>.:.1.1.1._ 1.B.B.:.&.>.f.g.f.f.f.L.C.].M.M q $ $ o . ! cXzXyX{.D.B.:.S.:.$./ s / :.V.S.B.F.B.2.:.4.V.V.g.V.V.g.V.V.Z.Z.Z.V.V.V.V.V.V.V.j.p.p.g.Z.(.(.(.(.^.j.^.j.F.R...M C b & o , ;XHXzXiXrX,.&.>.` 4.B.y.<.` / _ 4.B.4.B.<._ _ 4.B.<.<.B.4.r.B.2._ / ` 1.r.2.1.y.:.` 4.5.V.y.r.2.1.X._ 2.=._ 1.t.} q n j ",
"mXuXnXpX3.] a.C.V.V.Z.Z.!.Z.C.g.4.4.5.5.5.5.y.y.4.=.:.4.2.2.4.1._ ) ) ..1.4.4.>.4.:.$.:.4.B.B.B.B.B.V.Z.j.j.Z.S.t.M z f = O l 0XmXNXeXD.D.D.4.:.s ` >.B.S.r.` / :.<.Z.Z.f.<.<.4.4.f.f.4.4.<.&./ K Y K X.r.2.r.2.../ >.B.<.B.F.B.4.1.) Y Y ;.u.o.0 f 3 $ $ b 9X<X4XT.X.1.2.-.2.1.>.>.=./ a K _ 1.w.2.2.2.=...=.2.4.1.-.Y u J | X.1.1.1.1.1.1.:.:.:.2.2.:.:.>.<.<.1.2.1.| _ W x 6 # # $ X 9.IXHXVX%XI.P.J.).XXj.^.j.Z.f.<.f.g.a.p.H.).J.L.[.'.4.` ` <.a.a.f.H.).).h.I.@X].+X).( s *.+XL.] ' a.rXjXhXhXrX#X#X .^ n $ & & n.1X,X>Xt.W Q W I | 1.1.=.:.1.1.I u W i.i.X.X.| } R R T | } I R Y R } | } T _ X.1.2.1.1.2.1.>.:.>.>.<.>.>.:...q.o.z 6 g % % & ;XcX,XeXS.>.p.p.f.g.Z.Z.4.` :.f.<.:.f.j.f.p.f.g.B.4.-.| } ) :.:.`.+X].OX#XOXXXXXXX/.^.h.<.] <.C.H.Z.G./.).H.^.(.M.t w = = X b 0XmXxXbXD.M.4.4.2.2.4.2.$.$.>.g.g.g.g.B.B.y.5.:.<.4.5.5.5.4.4.4.>.2.=._ =.2.2.>.<.>.>.1.4.1...K K ..1...` ` X.o.w j l 2 O X 2 :X2XU.A.^ I H H } ) T T I K Y | ..| | ..-.-.X...:.*.<.B.Z.f.4.<.>.<.4.2.1.2.2.>.) :.4.4.:.&.>.4.g.g.<.<.(.G.).M.t q = $ o . ! cXtXxX3XB.4.` A.:.` ( ( $.4.V.S.y.S.y.2.2.g.Z.Z.V.V.V.g.V.V.Z.Z.Z.V.V.V.V.V.V.V.j.f.f.Z.Z.(.(.(.(.^.Z.^.Z.F.R...M C b & @ , ;XHXzXxXpX,.] <.:.4.B.B.<._ _ :.4.y.4.B.<._ ` 4.B.<.>.r.r.B.B.4.=.=.4.4.y.r.B.B.:.) >.5.g.B.B.t.q...Y =.$.) :.t.} q m j ",
"mXuXnXpX3.O.B.Z.g.Z.!.!.Z.Z.Z.C.4.4.5.5.5.5.y.y.4.=.:.4.2.2.2.1._ ) ) ..1.2.2.>.4.:.=.:.4.B.B.B.B.B.V.Z.j.j.Z.S.r.x z 9 = o v DXVXNX.XD.K.C.:.' s ` 4.B.B.4.../ 4.f.Z.Z.a.&.:.B.f.f.4.4.4.<.` / Y -.X.2.1.1.r.1.a a ..4.>.f.F.B.2.1.Y Y Y ;.u.o.g j 3 $ o b cX,X4XT.X.1.2.-.2.=.>.>.=._ K a ) -.w.w.2.2.=._ =.2.2.1.1.R r e T ..-.-.1.1.:.:.:.:.:.1.>.:.:.2.<.<.2.1.=.;.;.| x = - X % X 0.IXJXVX#XI.I.G.J._.G.^.j.H.f.<.a.f.f.f.G././.L.[.}.f.` ` <.a.a.f.H._.XXs.I.@X).+X].] a 4.aX].O./ ,.#XjXhXhXrX#X#X .~ n $ & & n.1X,XW.r.I W I J Y X.1.=.:.1.2.) F I 8.X.X.-.-.| } } | | | ) J J T } ) | Y Y _ 1.2.:.1.4.>.>.:.>.>.<.>.>.:...1.o.x 6 f # % & ;XcX>XyXS.<.<.f.f.4.g.Z.5.` <.f.<.*.<.g.f.f.h.g.5.:...} | | 1.,.].+X].OX{.OX).oXXX/.^.h.<.&.4.Z.L.H.H././.H.^.(.M.t w = = X b 0XcXxXbXD.M.4.2.1.1.2.2.$.$.<.B.B.B.B.B.y.5.4.4.4.4.5.5.5.4.>.4.:.:.=._ =.r.2.:.<.>.>.2.4.1.X.a K X.2.=.` ....o.z j l 2 + X 2 1X2XU.A.I I H H  .) T Y K J Y | | | | ..-.-...| :.*.4.B.B.f.4.4.>.4.4.4.4.4.4.2._ ] :.<.>.>.>.4.g.Z.<.*.].L.L.a.t j < $ o @ S 0X8XbXeXr.4.:.u.` s ' :.4.B.V.B.y.S.2.:.4.V.Z.V.V.V.V.V.V.V.Z.Z.Z.V.V.V.V.V.V.V.j.j.j.Z.~.(.(.(.^.^.Z.^.Z.F.R...M S b & @ & ;XHXzXNX{.:.` 4.<.r.r.A.>.` :.4.4.4.B.B.>._ ` B.B.>.>.2.4.4.r.:.` :.r.r.r.4.B.y.` ) 2.5.g.B.B.t.e.| J ) _ _ 1.t.} q Z j ",
"mXxXnXeX3.O.B.B.V.Z.!.^.Z.Z.Z.Z.5.5.5.5.5.5.y.y.4.:.>.4.2.4.2.-.R ) ) =.1.2.2.:.4.:.:.>.5.B.B.B.B.B.V.g.j.j.Z.S.t.x z 9 = O v DXJXnXW.K.K.M.` d s $.5.5.4.<.:./ B.f.Z.Z.f.&.:.g.B.B.f.4.B.5.:./ ..A.y.r.1.:.4...a Y >.4.<.4.B.M.1.1.) ) %.-.t.o.z j 3 O X b cX,X4XT.X.1.2.-.1.=.>.2.4.:._ ) _ X.w.w.2.2.=.` =.2.2.1.1.) e e R | _ ..:.1.:.-.:.:.=.:.>.:.:.2.<.<.4.2.=.-.2.-.G = - X $ X 0.IXHXVX#XG.G.G.G.J.j.l.j.H.f.<.a.f.B.C.h./._.L.[.].f.` _ :.4.<.a.G.).).s.P.$XP.+X+X*.s Z.sX{.,.' 3.pXkXhXhXrX$XeX .~ n $ & $ n.1X,XW.e.I W I J K ..1.:.:.1.1.) H T X.o.X.-.-.-.| | | -.| -.R J } } R | ) K ) 1.2.-.:.r.1.>.>.>.>.>.>.>.:.X.1.o.x 6 g % % * ;XcX>XyXD.4.<.g.g.4.f.B.<./ <.4.>.&.<.g.f.f.f.f.<...) T } ) :.>.].+X].OX].OX).XX/./.^.h.<.&.4.Z.L.L././.J.l.^.~.M.t w = = X v cXmXxXbXD.4.<.-.-.=.2.>.=.:.4.V.B.B.B.B.5.4.2.4.4.4.5.5.5.2.:.2.:.:.=._ =.4.2.>.<.>.>.2.4.1...p K -.4.-.` =...o.w j l 2 + X 2 1X2XU.A.I I H H | ) T Y K J Y | ) | | | X.1.-.| :.<.4.B.B.f.4.4.>.4.y.B.y.r.4.4._ &.>.<.<.<.4.5.5.F.<.( [.).K.3.w j < , + @ S 9XlXxX3X4.A.y.r.a i / 4.B.B.V.S.B.S.:.$.4.V.V.g.V.V.V.g.V.V.Z.Z.Z.Z.Z.V.V.Z.Z.Z.j.Z.H.^.(.(.~.~.!.^.Z.`.Z.L.R. .t S b & X & ;XHXzXNXW.` ' >.B.B.r.S.>.` 4.B.4.4.B.B.>./ ` r.y.>.>.1.1.1.1.` / ` 4.y.2.:.2.:.) ..V.g.g.5.r.r.q.| K Y _ _ 2.t.{ w B f ",
"mXnXCXeX+.O.a.f.V.Z.~.!.Z.Z.Z.Z.5.5.5.5.5.5.y.y.4.:.>.4.2.4.2...Y R ) =.1.2.2.:.2.:.=.2.4.5.y.B.B.B.B.g.g.j.Z.S.t.M z 9 = O v DXJXnXW.K.D.a._ / ` :.B.5.=.:.2.` B.f.B.F.g.*.:.4.f.f.5.5.B.B.2._ ..y.r.4.4.r.y..._ :.B.B.4.4.4.>.1.2._ =.2.2.w.X.c k 3 O o b cX8X4XT.X.2.r.-.1.=.>.4.y.y.2.=.....w.2.w.2.:.=.=.2.r.1.1._ u u T } ) | -.1.:.:.1.1...:.>.:.>.<.<.<.4.2.>.1.w.q.L = # O & o 9.IXMXnX#Xs.G.G.h.J.j.h.j.H.f.*.<.f.f.C.p.)._.^.`.F.<.` ' :.4.<.f.G.).).h.P.$X).+X+X<.' '.kX].4.O.M.pXjXrXhXrX$XeX .~ j $ $ o n.1X4X>Xe.I W I H J _ :.1.1.:.X.) J W X.} X.X.-.-.X.X.X.-.| -.} R } T P } ) K ) -.2.-.-.4.1.>.>.>.>.>.>.>.1.X.1.o.x g g % % < :XcX>XyXR.4.<.g.Z.g.B.B.<./ <.4.:.&.<.g.p.f.f.f.<...Y T } ) ..:.(.OX).OX].OX).XXXX_.^.h.<.&.<.g.H.L.)./.J.H.^.^.M.t j = = X v cXGXmXbXD.3.:.-...=.2.:.=.>.5.B.B.B.B.B.y.4.2.4.<.4.5.B.5.4.:.2.:.:.=.' =.2.2.<.<.<.>.2.2.-.) e K :.r.-...:.X.o.w j l 2 + + 2 2X2XU.T.{ I H H | } Y Y K J Y | | | | | ..1.1.X.&.>.4.f.5.4.4.4.>.<.r.B.B.r.4.4.` >.4.4.4.4.5.B.>.S.<.' ].].K.3.w n f , & o S 9X,XxXyX3.B.r...p s &.g.V.B.B.S.S.S.2.=.4.B.g.g.V.g.g.g.V.V.V.V.V.V.V.V.V.V.V.Z.Z.Z.^.`.`.(.~.~.!.^.H.`.Z.L.R. .t S b & X & ;XHXzXCXD.( / :.B.B.r.S.:.` 4.B.y.4.B.B.:./ _ r.y.2.4.2.2.2.:._ ) =.4.r.1.1.:._ / :.S.g.6.>.:.+.+.| Y ) =.=.w.t.^ w Z j ",
"mXnXCXeX+.O.a.f.Z.Z.!.Z.Z.Z.C.C.5.5.5.5.5.5.5.5.4.:.2.2.2.4.2._ Y Y _ -.1.2.2.:.2.=.=.2.4.2.4.y.B.B.B.g.g.j.Z.S.t.M z 9 = X v DXVXnXW.K.D.,.( &.:.&.B.f._ ` 1.O.f.f.B.Z.f.*.:.<.4.4.5.5.B.B.2.` =.r.1.2.r.4.r._ / =.4.4.4.4.<.:.1.r.| :.y.=.-.o.z k 3 O o b cX8X4XT.1.3.r.1.2.=.:.2.y.y.y.2.X._ w.w.w.w.1.=.:.2.r.1.-...J J T } ) _ -.1.1.1.1.:.` -.:.:.>.<.<.<.2.2.2.2.y.w.P 7 # % & o 9.LXMXnXpXs.G.G.h.H.H.h.h.Z.f.*.<.<.4.f.p.P.].).(.B.:.&._ >.f.f.h.H./.).H.P.@X).+X+Xp.,.].aXR.4.3.C.pXsXaXhXrX$XeX .C j $ $ o n.8XlX3Xr.I } T H H ) -.:.1.-...} J T X.| X.| | | | X.X.X.| -.| T T R K T ) Y ) ..1.1.1.2.1.2.<.1.>.:.:.>.4.-.-.o.x g g % % 3 :XlX>XyXY.4.<.f.Z.Z.F.V.4.` 4.4.&.&.4.g.p.f.f.f.4...) } | | ..:.(.OX).OX].OXXXXX_._.^.C.<.&.4.f.Z.L./.J.J.H.^.^.t.t j = = X v cXGXmXbXN.>.=.-...-.1.:.=.>.5.B.B.B.B.B.y.4.>.:.>.4.5.B.5.4.2.2.:.=.` / ` 2.2.<.4.<.2.2.1.X.) e K 1.4.=.=.1.1.o.w j h 2 + + 2 :X2XU.T.{ { H H | ) Y Y K J Y | | | | ) ..1.q.-.` :.<.<.<.<.<.<.>.>.4.B.B.4.4.r.:.>.4.4.>.>.4.g.$.B.4.` L.L.K.O.w B h , + @ S qX<XyXsX1.:._ J K :.g.F.Z.B.B.V.S.F.5.4.5.B.g.B.Z.g.g.g.V.V.V.V.V.Z.Z.Z.Z.Z.Z.Z.Z.Z.^.`.`.~.~.~.!.(.^.`.H.L.R. .t C b & o , ;XHXzXCXC.&.' ` B.B.B.B.:._ <.B.y.4.B.B.:.Y _ y.B.4.B.1.:.:.` _ ` 2.B.r.4.y.2.) ) 2.5.5.6.>...|  .| ) | =.=.1.r.U 0 B k ",
"mXnXCXeX+.O.B.B.Z.Z.Z.Z.Z.Z.B.B.5.5.5.5.5.5.5.5.4.:.>.2.2.4.2.) Y Y _ =.2.2.2.:.2.=.$.>.2.:.:.4.B.B.g.g.g.g.Z.S.t.M z 9 = X v FXmXnX.XR.C.:.] 4.>.$.5.B./ K X.` >.f.Z.B.<.$.:.4.4.4.B.f.y.4.>.` 4.y.1.4.r.2.1./ a _ :.:.4.B.4.1.1.r.) =.4.%.} o.z j 3 O X b cX,X4XT.1.r.y.2.4.>.=.>.2.y.y.r.1.| 2.w.r.w.:.=.=.2.2.=.1.-.Y P W } | | -.1.2.1.-...| -.1.:.1.4.<.<.1.1.2.2.y.w.I 6 # % $ X 9.LXmXnX#Xd.G.L.h.).^.j.f.Z.f.*.<.<.<.a.C.H.).).'.f.$.:._ <.B.C.Z.)./.).P.).@XOX$XOXs.C.$XjXL.d.3.N.pXjX&XhXrX$XeX .C h $ o o n.cXlX3Xr.T | } J J ) -.1.1.1.1.| J L | X.-.| | | | X.....| T T } R T } R K K Y | -.1.2.1.1.1.<.1.>.:.>.1.4.-.-.o.c g g % X 3 :X8X<XeXD.<.f.p.g.Z.F.f.>.:.4.4.:.:.g.g.p.f.f.f.<._ Y } X...:.:.`.+X).OX).XXXXXXXX_.^.C.<.] f.B.Z.L.^.H.H.l.^.^.t.t j = = X b cXmXxXiXM.1.1.2.-.1.2.:.$.:.4.5.5.B.B.B.y.4.2.:.>.4.5.B.5.4.4.>.=.` _ Y ` 2.2.<.<.<.>.2.1.X.) e K 1.2.....1.1.o.w j h 2 + + 2 1X<XU.U.{ { U I } ) Y T K J Y | ) ....| X.w.w.-.` >.4.<.>.<.4.<.>.>.<.B.B.4.<.4.<.<.<.4.4.4.4.4.' f.B.:.C.C.K.' w B l , O @ S qX<X3XY.K _ ) J ..V.Z.~.F.V.B.V.B.B.B.B.B.B.B.V.Z.g.g.g.V.V.Z.V.V.Z.Z.Z.Z.Z.Z.Z.Z.j.H.`.`.(.~.~.(.(.^._.H.R.R. .t C b & o , ;XHXzXCXN.4.&.$.B.B.B.r.` _ :.4.y.y.B.4.` Y ` B.B.4.B.:.=.` _ _ =.4.B.r.y.A.:.a / 4.4.5.6.4.:.|  .) Y | %.) ..q.U 6 j k ",
"nXnXCXeX+.O.B.B.~.Z.V.Z.Z.Z.B.f.5.5.5.5.5.5.5.5.4.:.1.2.2.y.2.) K Y _ :.2.2.2.>.2.=.$.>.>.=.:.4.B.B.g.g.f.g.Z.S.r.w 0 < = o v FXMXfXeXR.N.] &.B.:.( 5.B./ a ` ' ` g.^.B.$._ >.B.4.B.B.B.y.4.>.` <.4.:.4.B.<.<._ / >.<.>.B.B.4.1.O.2.) _ 2._ } 8.g f ; O X v 9X<X3XT.1.r.A.2.5.>.>.>.1.5.y.y.2...w.w.r.2.=._ ` =.:.=.1.1.R P W | X.X.1.1.2.1..._ ` -.1.:.1.4.4.<.:.1.2.2.r.w.I 6 # $ $ @ 9.LXMXVXE.@.C.L.h.)./.h.h.H.g.<.<.<.<.a.L.H.H.).'.a.` :._ <.B.C.Z./././.).).@X+X$X].C.P.rXkXE.a.3.M.pXkX&XdX&X$XeX .C 9 $ o o ;XcXvX4Xr.| X.X.Y K ) 1.1.1.2.r...p u } X.-.-.| | | X.| | -.R R ) I } X.Y J K I ) ..1.2.1.1.2.4.<.>.:.:.1.2.X.-.} x g g % X 3 :X8XW.3XS.<.g.<.f.Z.B.<.$.&.f.4.:.>.B.Z.f.g.a.f.1.) K } X...>.,.].@X).OXP.XXXXXXXX_.^.C.<.] B.D.F.L.H.H.z.l.^.(.t.t j = = O b cXmXzXyXM.4.4.r.2.2.2.:.` $.>.5.5.B.B.B.y.4.2.$.>.5.B.5.5.4.4.:.` ` / Y ` 4.4.>.<.<.2.2.2.X.) i Y 1.w.....1.-.o.0 j h 2 : + 3 1X<XU.U.^ { I I ) T T ) I K Y | ) | ....-.r.w.....<.5.4.<.4.r.4.>.:.<.4.4.<.<.r.B.4.<.<.5.5.5.4.' 4.S.<.a.a.K.^ w B l , + @ S qXlXW.1.y ` 1.| r.Z.Z.F.V.V.V.V.B.2.5.V.B.g.B.V.V.V.g.g.V.V.Z.Z.V.Z.Z.Z.Z.Z.Z.Z.Z.j.H.`.`.(.~.~.(.(.^._.H.L.R. .t C b & + , ;XFXlXNXN.B.<.=.B.B.B.4.../ ` <.B.B.B.<._ Y :.S.B.4.B.1.:.` _ ` 1.r.B.y.B.B._ i / y.5.<.6.B.4.X.) Y K | _ Y ) X.M 7 j f ",
"mXJXnXQ.3.3.B.B.B.V.Z.Z.V.f.B.B.5.f.5.5.5.5.y.B.4.>.:.:.:.4.2.Y K ) ) 2.y.2.y.2.2.` $.:.$.=.4.y.B.B.5.f.f.f.g.B.q.w z f = O v FXzXnXuXR.a.,.,.:.4.>.B.>.Y a K r.S.B.(.V.d / B.B.4.B.B.:.:.4.:./ ` &.:.<.B.<.:.4.` >.<.<.<.4.4.4.) K ) =.) ) i.t.z k * & X S 8X<X4XY.X.r.S.1.:.2.:.=.=.4.y.y.1.-.1.r.w.2.1.-.` =.` ....;.} H J -.1.1.1.1.1.1..._ ..:.1.1.:.:.1.2.:.:.2.4.w.r.} 6 * # &   9.IXzXVX.Xs.x.G.L.L.H.Z.p.Z.f.*.:.4.4.M.).h.C.Z.(.Z.>.B.$.4.B.f.f.l././.P.).OXOX&X].s.OXrXkX#Xd / d.rXkX&X&X$X].#X .C h $ o $ ;X8XtX3XA.) 1.X.I Y ..-.1.2.X.w.2.J u ) ..X.X...X.X.X.| | -.} R T } Y T | | J e K 2.w.-.1.1.2.2.2.>.>.<.4.:.| X.} x g g % O < ;X8X,XeXD.4.Z.f.f.f.5.<.>.2.:.&.:.<.f.B.B.g.f.B.` p I | | 1.:.f.).OXOXP.P.XXXX).).+X).<.&.B.B.Z.F.G.L.H.z.s.Z.Z.r.t z * = X A FXGXmXbXN.1.:._ ..2.2...$.2.4.5.5.B.B.V.y.2.:.4.<.4.5.5.B.y.5.5.:._ / ` :.2.2.>.<.<.>.:.:.| Y p Y w.-...1...1.o.0 g l 2 + @ 2 :X,XU.T.X. . .X.} | | | K p J } ..) | } ..r.1.1.:.4.4.>.4.4.<.<.>.:.2.B.B.<.2.B.B.B.4.B.4.:.B.>.` f.B.a.a.D.L.@.w k k o + @ 7.FX,X<XD.K K / r.r.~.!.Z.V.V.V.V.B.:.<.5.B.V.V.V.j.Z.Z.Z.Z.Z.Z.Z.Z.Z.V.V.Z.Z.V.g.p.f.H.`.^.F.~.(.^.`.`.`.).L.{. .t B k $ o , ;XFX6XxXM.4.f.5.B.4.A.:.:.>.4.B.4.y.B.:./ _ <.B.B.y.B.2.:.2.=.=.4.1.r.B.A.r.K i ` B.4.6.g.y.r.1.J H | -.R J | X.L 6 * f ",
"mXJXxXT.e.M.B.B.B.V.S.V.V.g.f.f.5.5.5.5.5.5.5.y.4.>.2.:.2.4.2./ a R ) 2.y.2.4.2.2.=.=.>.=.:.y.B.B.B.5.p.f.f.g.B.q.w z 9 = O v FXzXiXpXR.3.:.>.` g.5.V.:.Y K / M.B.4.B.4.d ' B.4.<.B.y.>.:.4.:./ / ` $.>.f.4.:.>.` >.4.4.4.4.1.:.X. .X.-.%.;.w.q.g j & $ X S 9X,X4XT...2.A.-.=.1.>.=.=.4.y.2.-.| 1.y.r.w.2.1.=.:.:.1.1.1.| H u } | | ..-.1.X.| ) ..:.1.1.1.2.2.4.:.:.2.4.2.w.} 0 * # &   9.IXzXVX#Xs.x.G.J.L.H.Z.j.^.C.<.<.4.,.,.C.h.K.C.D.B.:.4._ >.f.f.j.^././.).].OXOX@XI.,.L.jXkXE.a / M.sXjXrXdX&X#X#X .C 9 $ o $ ;X8XtX3XA.) q.-.) ) -.1.1.1.X.w.1.p e Y X.| X.....X.X.| | | T T | | ) T ) | J e J 1.2.-.1.2.2.2.2.>.>.<.4.1.X.X.} x g g % & < ;X8XtXyXD.<.<.<.f.S.Z.4.:.:.>.>.>.4.B.B.B.g.g.Z.=.p I } } ..:.a.(.+XXX).P.XXXXXXOX+XL.*.] B.D.F.F.Z.G.J.z.s.Z.Z.r.e z * = X A FXGXxXyXe...| R } 1.1._ ` 2.4.4.5.B.B.y.4.2.:.4.4.4.4.5.5.y.y.4.:.` ` =.:.2.4.>.<.<.:.1.1.| Y u I w.-...1...1.o.0 g l 2 + @ 2 1X,XU.T.q.X.X. .X.| ) Y Y | -.q.X.} ..) ..w.-.1.1.y.4.1.4.r.4.4.>.:.<.B.B.2.:.<.A.B.2.4.:.$.y.4.` 4.4.4.a.K.'.+.w k k $ + @ 7.FXlX4X}.O.=.=.B.B.~.!.Z.Z.Z.V.B.5.5.g.V.Z.Z.V.g.g.Z.Z.Z.Z.Z.Z.Z.Z.Z.V.V.Z.Z.V.g.p.f.H.^.^.~.~.(.(.(.`.`.).F.{. .t S b & o , v.0X6XCXC.B.g.4.y.4.4...` >.4.B.4.4.B.` / _ 4.B.B.4.B.1.:.2.` ` 2.1.4.4.r.1.a i ` y.4.6.g.y.r.2.^ J ) P J Y X.8.V 6 * f ",
"mXmXuXQ.M.N.D.B.V.V.V.V.V.B.f.4.4.5.5.5.5.4.4.5.4.>.2.2.1.y.2.) a Y / 1.r.1.4.2.2.=.:.>.:.>.B.B.B.B.5.6.p.f.f.B.q.w z 9 = X v FXzXuXpXR.O.O.4.` V.B.V.` / ` ..M.B.4.4.>.' :.B.4.>.4.y.4.r.B.2._ ' :.>.<.B.f.>.:.` >.B.B.B.4.1.......-.=.=.2.t.8.g j = $   A 9X,X3XT. .1.y.-.=.:.>.=.>.5.y.2...) 1.y.r.w.r.1.=.2.2.4.2.w.-.J u I ) | ..1.1.1..._ _ _ ` -.1.1.1.1.=.:.2.2.2.w.} w * # &   9.IXzXVXeXs.x.C.G.G.H.Z.Z.^.C.<.4.<.:.] a.C.].C.B.B.>.4.` >.f.h.l./././.).).OX].$XP.x.I.kXkXL.t / D.bXsXaXhX&X+XeX .C 9 $ o & ;X8XtX3XA.| w.1._ | 1.1.1.1.-.w.1.p r K X.| | | | X.| | | ..T R } | } T ) | I e p ..2.1.2.2.1.<.2.>.>.<.<.4.-.1.o.x g g % & 3 v.8XyXsXD.<.:.<.B.F.Z.<.` =.1.2.4.f.B.Z.B.g.B.S.-.J T } T | ..a.).+XXX).P.XX).OX+X].C.` ` Z.S.F.Z.C.C.G.h.s.h.V.3.w z * & X b cXGXxXtX+.` | T ) -.-.) _ 2.4.2.4.y.y.4.2.1.:.4.4.>.4.4.5.y.y.2.>.:.=.:.:.2.2.<.<.2.1.2.1.| Y e K w.-...1.| X.o.0 g l 2 + @ 2 1X,XU.T.q.q.X. .X.| Y K ..A.}.3X..| ..) | 1.-.-.r.B.r.1.r.r.2.4.:.:.<.B.B.1.:.>.B.M.` ) / / :.>.' >.>.4.B.R.].3.q j k $ & . ! FXvXvXyXB.f.4.F.Z.!.!.~.~.F.B.4.>.5.B.V.Z.Z.V.j.Z.V.Z.Z.Z.Z.Z.V.V.Z.V.V.Z.Z.V.g.f.f.Z.^.^.~.(.'.`.!.^.`.^.F.'.) t Z h O + , v.cXzXNXM.a.f.>.B.B.1.` :.<.B.B.4.r.B./ / ` <.B.4.4.r.:.:.1.Y / 2.2.2.:.2.` a a :.y.4.6.g.5.4.2. .I I p Y _ i.X.c 6 f ; ",
"mXmXzXQ.e.r.B.B.V.V.g.B.V.B.a.<.<.4.5.5.5.4.4.4.4.:.:.:.:.y.2.Y a ) ) 2.r.1.4.2.=.` =.:.=.2.B.B.B.B.5.6.p.k.f.B.q.w z 9 = X v FXzXeXeXK.[ O.f.<.5.g.B.` / 1.3.M.B.4.<.:._ <.B.4.:.<.r.r.y.y.2.` :.4.4.<.f.4.&._ &.<.B.B.B.y.4.1.) ) .._ _ r.t.o.z k * =   A 9X8X>XA.| 1.y.:.=.:.>.=.>.4.y.1._ ) -.w.w.2.2.:.$.:.2.2.2.2.-.R F P } | X.1.2.1.X.| ) ) ) ..:.1.1.:.` :.2.2.2.w.| w * # &   b.PXzXVXpXN.d.C.G.G.H.Z.g.Z.f.:.>.:.O.O.p.C.).C.B.f.:.4.<.f.f.h.H././.z.P.P.).OX&X#Xs.#XjXkXR.t ' K.jXrXrX&X$X#XpX .C 9 $ o & ;X8XtX3XA...w.1.| ..1.:.1.1.1.w.1.K e a _ | | ..X.X.| | | 1.| R R T T ) } } T u e ) 1.1.1.1.2.4.<.1.1.<.<.4.-.1. .z g g % % < ;XlXyXiXD.<.5.4.B.Z.B.:._ ..:.2.4.B.B.B.B.g.B.D.-.K } } } X.` a.).+XXXXXXXXX).OX+X).C.` ( B.B.Z.F.C.C.h.h.p.f.B.2.w j * & @ v 0XGXvXeX+...1.| | -.-._ ` 2.4.>.4.y.5.2.:.:.>.4.<.>.4.4.5.5.4.:.>.2.:.:.:.1.2.4.<.1.1.2.1.| K r K 2.-...-.| ..o.0 f l 2 + @ 2 1X1XU.A.X.8.X.}  .| ) J | A.3X}...| ..T ) 1.-.-.2.y.r.2.r.4.1.1.:.:.<.B.B.<.>.<.r.M.) a a a ` $.' $.` ,.B.].{.+.q j k $ & . ! GXvXbXsXD.Z.B.L.Z.Z.!.~.Z.V.g.4.>.4.5.B.V.g.V.Z.Z.V.Z.Z.Z.Z.Z.V.V.Z.V.V.Z.Z.Z.g.f.f.j.Z.^.(.(.'.`.!.^.`.^.F.'.) t B < X & 2 v.FXmXNX3.<.<.:.B.B.:._ >.B.B.B.B.B.B.Y / :.<.4.<.<.4.:.1.1.a a 4.4.1.2.4._ a / 2.y.5.6.g.f.1.r.+.I J Y R } -.o.z = g ; ",
"zXmXxXT.3.1.r.B.V.V.B.B.V.B.a.<.<.4.5.5.5.4.4.4.>.=.:.:.:.4.1.Y K _ _ 2.y.1.5.4.$.` =.:.=.2.B.B.B.B.5.6.p.f.g.B.q.w z f = X v FXmXuXeXN.' ] a.4.5.5.B.` ` B.t.M.4.4.<.` / &.4.4.:.>.2.2.1.:.` / :.4.<.*.<.:.' / <.4.4.4.2.2.2.1.K ) _ _ %.y.u.o.z k ; &   A 9X8X3XT.| O.y.1.:.:.>.=.>.5.r.1.| ) ;.2.2.2.2.-.` =.1.1.-.-.-.R F P ) | ..1.1.1...) ) ) _ X.1.2.2.1.$.:.>.2.2.w.| w * # &   v.PXzXVXrXK.a.C.G.C.H.Z.f.Z.f.:.&.` O.3.C.p.C.f.B.<._ 4.B.Z.Z.h.H././.z.).P.OXOXrXOXC.#XrXkXE.a ' K.bXrX&X%XOX#XpX .C j $ $ O ;X8XtX4XA...2.1._ ..-.....X.-.1.1.| K K ) | | | X.| | | } q...} T R R T T } } H r K 1.1.1.1.1.2.2.2.1.<.<.1...-.} w 6 g * X 3 :XcXyXyXS.B.B.4.B.F.B.:._ ..:.1.4.B.B.B.g.f.B.B.-.K } } } -...f.).+XXXXXXXXX).).).L.Z.:._ 3.4.B.Z.D.Z.z.h.p.f.B.2.w z * & @ v 9XmXzX3X@.| X.| | -.-._ ` 2.4.2.4.y.y.2.:.1.1.:.>.>.5.5.5.4.>.:.:.2.2.:.:.1.2.4.<.1.1.2.X.Y J r J 1.-.| -._ ..X.w f l 2 O O 2 :X8XU.t.}  .X. .} ..| J K | -.X.) ) ..Y ) 1.-.-.X.r.r.2.t.4.X.......:.2.<.<.<.4.r.S.| K Y K ` $._ ` _ >.B.].].+.q g h & & . ! GXxXbXhXD.Z.g.(.Z.Z.Z.Z.Z.g.5.4.4.5.5.B.V.g.g.g.Z.V.V.Z.Z.Z.Z.V.V.Z.Z.V.Z.Z.V.g.f.j.j.Z.(.'.(.(.`.^.^.`.^.Z.'.) t B f o , , v.0XmXCXM.4.<.$.2...K ) 2.B.B.B.B.B.r.s _ :.>.2.>.1.>.:.2.:.a a r.y.2.4.4./ a ` r.r.5.6.g.f.1.w.X.I J Y Y R | o.w = * ; ",
"zXmXxXW.+.O.4.B.V.V.V.V.V.B.f.4.<.4.5.5.5.4.4.4.>.=.=.=.:.4.2.Y Y | ..4.r.=.4.2.=.=.:.:.=.4.B.y.B.B.5.6.k.f.B.D.q.w z f = X v FXmXnX.Xd.' ' :.4.5.5.B.:.:.B.B.B.4.B.4._ / :.4.B.4.<.2.1.-.` ) / >.<.<.<.<.&./ _ f.B.4.>.........K ) ..| ;.y.u.8.z k 3 & X A 9X8X4XT.| X.y.2.2.:.:.=.>.2.2.:.| _ -.w.w.2.2.=.` =.2.1.=.....R u u } | ..1.1.1.X.| ) ) _ ..:.1.2.2.:.:.>.2.2.r.o.w * $ &   v.PXzXVXrXK.s.G.G.C.Z.Z.Z.Z.f.:.:.` ` ,.K.a.a.B.D.<._ 4.B.S.Z.h.l./.XX/./.].@XOX@XI.d..X%XkX#Xd ' K.sXrX#XOX#X#XpX .C j $ $ O n.8XtX4XD...2.-.| X.X._ | ) ..-.1.2.) K | | | X.X.-.| } } ..X.-.| T R P P T | J r J -.1.-.1.1.2.2.4.2.<.4.1.X.-.} r 6 g * O 3 :XcXtXyXD.B.4.:.4.F.F.<...=.:.2.4.B.B.f.f.f.D.B.X.K } } } 1.:.C.[.oXXXXXXXXX).).J.G.Z.,.( :.<.B.F.Z.Z.G.h.k.f.B.2.w j * & @ v 9XmXlX3X .) ) | } ....) _ 1.4.4.4.y.4.1.1.1.1.:.:.>.5.5.5.2.:.:.:.:.:.:.2.1.2.4.2.1.2.1.) J p r J 1.X.| -.` X.X.w f l 2 O + 3 :XcXQ.t.I } o. .} ..| I J K R I Y ) ..Y ) 1.-.-.| 2.2.2.t.2.` _ _ ` ` ` &.>.4.B.4.S...K / Y ' ` _ ` ' ,.B.'.].+.q g h $ , . ! GXmXNXhXC.j.g.(.F.Z.Z.Z.g.5.<.4.5.V.V.V.Z.V.g.g.g.V.V.Z.Z.Z.Z.V.V.Z.Z.V.Z.Z.V.g.p.j.j.Z.(.'.(.(.`.(.^.^.^.Z.W.^ w g < o & , v.0XzXCXD.:.&.:.` a a ) <.B.B.4.B.r.>./ ` >.>.:.>.>.:.:.:.:.a a r.B.4.r.2.a i ..r.2.4.6.g.f.<.2. .I I J J R -.8.c = # % ",
"zXxXzXW.e.O.4.B.B.V.S.V.V.B.B.B.4.5.5.5.4.4.4.5.>.=.:.:.:.4.2.Y Y _ _ 2.2.=.2.:.2.:.2.:.$.>.5.2.B.B.5.6.f.g.Z.S.q.w z f = X v FXuXBX.X@.O.( ` B.B.5.5.$...4.r.B.B.Z.4.' _ 2.y.B.A.r.1.:.-.` ` :.4.4.<.g.f.( d ` f.B.B.<.:...` ) ) ) ..=.%.2.r.o.0 j * & X A 9XlX4XT.| X.t.2.2.:.:.=.:.2.1.=._ ) -.r.r.2.4.=.` =.:.=...| ;.T u e ) | ..-.q.q.1.-._ | | | ..=.1.2.>.:.:.>.2.y...0 * # &   v.PXzXBXrXK.C.L.G.C.Z.h.Z.Z.4.*.>.:.` ] C.a.D.B.D.M._ >.B.Z.Z.h.l././.J.).).$XOX$XI.d..X&XkX#Xa ' L.jXrX&XOXOX$XrX .N j $ $ O n.8X4X4XD.X.1.1...-.X._ | ) -.-.1.2.) K X.| | -.-.-.| } } } X.-.-.T P P P T X.I y p X.1.| -.1.2.2.4.2.4.4.2.-.q.} r 6 g * # 3 ;XlX,X3XB.4.>.( &.B.S.<.=.:.4.4.y.B.4.4.4.4.B.B.| J } } } q.1.Z.[.oX).XXXXXX).J.G.h.C.,.` :.4.B.F.D.C.h.h.h.g.V.2.w j * & @ b 9XcXlX4X@.) ) R T | .._ ..2.2.4.4.4.2.2.1.1.1.:.:.>.4.5.4.>.=.2.>.:.:.2.2.2.2.2.>.2.2...K u u e J 1..._ -.| -.X.w g h 2 O X 3 ;XvX2XA.{  .X. .} | | Y K K T } I ) X.Y ) 1.X...) 1.2.1.r.2.` _ _ ` _ ` $.>.4.B.1.Y...a / Y / ` ` ` _ <.D.'.].3.w q h $ , . ! GXCXNXjXZ.Z.g.`.Z.!.!.!.g.4.<.<.4.V.Z.Z.Z.V.g.g.g.V.V.V.Z.Z.V.V.V.Z.Z.Z.Z.Z.V.g.p.Z.j.Z.(.|.(.~.(.`.^.j.Z.D.R.K q = < o o & v.FXcXxXM.( ( <.` i ) _ <.B.4.4.B.4.=./ :.>.:.:.>.>.` :.=.` a K r.B.y.r.1.i i :.y.1.4.6.g.f.4.2.^ J } P K R -.i.V = # O ",
"vXzXtXT.M.3.r.B.B.V.Z.Z.V.B.B.B.5.5.5.5.4.4.5.y.>.:.:.:.>.y.2.) Y _ _ 1.:._ =.=.2.2.2.:.` =.2.=.B.B.5.6.f.j.Z.D.q.e z f = X v FX7XVX.X+.3.:.&.~.V.4.<._ ' :.:.r.4.B.>./ _ <.r.y.y.1.=.=...` -.4.5.4.f.Z.f./ a ' 4.B.B.y.<.1...) ) ) | _ R %.X.E 6 f & & X A 9XlX3XT.| ..r.2.2.=.>.:.=.>.=.` ) ) -.w.r.2.w.=._ ....;._ ..-.} u e I Y ) ..-.1.-.-...-.-.-...-.2.4.<.:.:.>.4.y. .0 * # &   v.PXzXBXrXG.C.L.G.C.Z.h.Z.f.&.] <.>.` ' ,.a.F.a.f.4./ ' f.Z.Z.Z.Z././.z.G.P.@XOX@XI.C.rXrXkXE.a ' R.NXrX&X%XOX&XpX .N j $ $ O n.8X4X4XT.:.2.1.X.1.-.| | | 1.1.1.1.Y a X.| | -.-.-.| } T } -.-.| I J R W T X.I y u X.1.| -.1.2.4.4.<.<.<.4.1.q.o.0 6 g * O , v.1X<XW.4.&.<./ / >.4.:...1.r.B.B.B.4.<.<.4.4.4.) p W } | r.<.F.+XOX).XXOXXX/.J.z.h.a.:.` 3.B.D.Z.C.h.h.h.h.V.V.w.e z * & X v 9XcXzXyXe. .) R Y } .._ =.4.5.4.4.2.2.2.1.1.=.:.>.>.>.4.4.>.:.5.2.:.:.2.4.4.2.>.>.2.2.` p e e e J 1..._ -...1.X.w g h 2 O X 3 ;XvX<XT.o.8.q. .X.| ) Y K K Y | K ) -.Y ) 1...| _ 1.1.1.r.1...` ` ` ` $.:.<.f.B.<.~.=.a _ / _ =.` ` ` 4.S.].{.e.w q h $ , > ! GXmXNXkXZ.Z.g.^.Z.!.^.!.V.5.>.>.>.B.V.V.V.g.g.j.Z.j.V.Z.V.Z.Z.Z.V.Z.Z.Z.Z.Z.V.g.k.^.Z.Z.(.|.(.~.(.`.H.j.Z.B.R.U 7 * 3 & + o v.0X6XiXM.( ' 5._ e ....4.B.4.4.B.r.` _ :.1.....1.>.` :...` a Y r.y.B.y.:.y y :.B.2.5.5.g.5.r.1.J H | R Y I | o.z - - ; ",
"zXtX>XW.e.M.B.B.V.S.B.y.B.B.B.4.<.5.f.5.4.5.5.5.:.:.:.=.:.y.w.Y Y _ =.=.1.1.1.-.=.2.2.=...=.2.y.B.B.g.6.f.Z.Z.S.w.w c * < X b 0XuXuXeX3.B.4.y.2.B.4._ / 3.B.B.B.r.r.` / 1.r.4.A.4.y.1.4.:.` 1.1.4.y.B.y.` i a >.4.S.r.2.A.y.) K ) | K Y ) | i.W 6 f % O . S FX1XyXT.X.X.r.>.$.>.&.&.:.>.1.=.| ) ..2.2.1.2.1.| _ ..;...| ....I e I ) | ) } X.-.-...| -.1.X.1.r.1.<.&.$.=.2.r. .0 * X X X v.PXVXNXrXL.G.I.G.C.Z.h.Z.f.f.&.:.4.' s :.a.B.B.4.4.>.( Z.F.D.f.H./.Z.h.h.@X].OX$XL.{.rX#XCXL.a O.pXhXjX&X@X@X{.pX@.m j $ , O ;X1X<X4XA.O.4.2._ ) -.X.I J X.w.1.-.) K Y Y | ....;.} R T | X.X.X.W P T | } } W e r } q.X.1.w.r.1.>.<.<.>.4.1.-.W w g g & O , n.qX<XeXM.) 1.` ) ) ` ..:.4.<.f.B.B.B.g.4.>.S.1.Y I T | ..1.<.F.].].OX).P.XXXXz.H.h.] ' ,.a.L.D.h.h.G.G.h.a.B.y.1.M z * & . b cXcXtXtXA.1.| p R _ ) ) =.4.5.5.>.>.2.2.=.=.1.:.=.>.2.2.5.y.>.4.4.4.2.>.>.2.2.>.>.2.2...K u e y T ..) _ ....| o.0 9 f 2 : + 3 ;X1XlXT. . .X. .| X...} K J K R P } | Y T X.X.R 1...1.2.-.` .._ ` _ >.:.>.f.4.B.<.4.<./ _ s ) ` ` 4._ ' B.}.].e.w q < , o   ! JXnXNXhXZ.^.Z.L.Z.V.(.(.V.4.4.g.V.Z.Z.Z.Z.j.j.j.j.g.g.Z.Z.Z.g.g.g.!.g.g.Z.Z.g.g.g.Z.^.`.`.(.^.(.(.`.`.'.B.Y.N.t = * v , O & v.0XvXiXM.>.B.>.a K | :.<.<.:.4.A.4._ ` :.1.:.=.........-.) ) | 1.A.r.B./ a _ >.<.4.4.B.5.r.r.^ H .._ Y Y p T o.z - % l ",
"xXtXW.W.r.D.A.V.V.S.V.y.B.B.y.<.<.5.f.5.4.5.5.5.:.:.:.:.:.y.2.Y Y _ =.:.1.2.1.=.1.2.2.:.=.1.y.y.y.B.5.6.f.g.S.A.w.w c * <   b 9XuXiXeX3.y.y.S.y.V.<...O.<.B.B.4.B.r.` ) 2.y.r.A.y.y.:.1.../ :.r.2.1.r.r._ p s >.4.B.4.r.A.r...| I  .K R | ;.-.E 6 f % & X S FX1XvXT.X.X.r.2.$.>.&.&.:.>.1.=.| ) _ 2.r.2.2.-.| | ..;...| -.-.R e H I ) Y ) | ...._ ) | X.| X.2.1.4.:.$.=.1.r. .0 < # o X v.PXVXBX&XL.G.L.G.C.Z.h.j.<.4.:.>.<.) / :.4.B.B.B.B.,._ B.F.Z.Z.^.`.Z.h.h.@XOX+X$XL.].aX#XCXD.p  .{.aXaX&X&X@X].pX@.t j # & O ;X1X<X4XN.) :.1.` | -.| H K ..X.X.-.| K J Y | | | ;.} T } -.X.| | Q W W Q } o.Q F r I X.T o.1.w.1.>.>.<.>.4.1.1.} z g g & O 2 :XqX2X>XM.) X.| _ ` ..` ` ` <.f.B.f.4.f.a.4.A.X.I J K ) ` =.4.L.}.].].].P.XXJ.z.h.p.( ' 3.B.K.C.h.h.G.G.C.B.B.4.1.M c * ; X v 0XcXtXtXt.X.T p Y ) Y ) =.2.>.5.>.>.>.2.:.1.2.>.:.4.4.2.5.B.2.2.>.>.:.:.:.>.>.>.>.2.2...R J F r } -._ | =.-.-.o.0 9 3 2 : + 3 ;X1X5XN.o. .X. .| ....| T T } | I } | T T X.-._ ..` 1.4.:.` ` _ ` ` <.<.4.B.4.f.f.5.4./ ` s / ) ` r.` ` D.{.{.M.w q < , o   ! JXnXNXhXZ.(.Z.~.Z.F.~.F.f.>.4.g.Z.Z.Z.Z.Z.j.j.j.j.g.g.g.Z.Z.g.g.g.!.g.g.!.Z.g.g.g.^.(.`.`.(.(.(.`.(.(.F.A.Y.t.w 7 f k , o , n.0XzXxXM.O.4.:.a p K 1.<.>.:.2.B.r...) ..1.1.-.-.-.X...-.) } X.2.S.t.r.) Y :.<.4.4.<.y.2.t.-.J ) X.=.Y R R -.i.c - * ; ",
"xXtXW.W.M.D.S.V.V.S.V.B.B.B.4.>.<.5.f.5.5.5.5.4.:.:.:.:.:.r.2.Y K ) =.:.1.2.2.1.2.2.2.=.:.2.y.y.y.5.5.6.6.g.V.B.q.r z = <   v qXzXnXpX3.r.r.S.y.y.` :.M.4.r.B.4.B.4.) ) 1.r.r.r.r.r.-.2...a ..y.w.X.2.2.Y a ` <.y.<.r.B.t.2.1.X.p K J R | | o.G 6 ; % ; O A FXlX5XT.X...r.<.$.>.>.&.:.>.>.:...) Y 1.r.2.2..._ | ..-.;.| X.-.T u e J T ) ) | ....| ) ..-.| -.r.2.4.>.>.=.:.w. .0 * $ o @ v.IXCXBX%XI.G.L.G.C.Z.h.f.*.<.:.>.>.) ) :.,.4.a.B.B.<./ 4.Z.Z.F.^.Z.g.f.C.@XOX@X$XK.E.rXrXCXL.p ' {.hXhX-X&X@XE.pX@.t j # & o ;X9X<X4XN.) =.1.` | X.} H T | } | -...K p R ..| | ;.| T } -.X.| | | W W W } } Q H r L W H T ..2.2.:.:.>.>.4.1.w.o.z 6 f & O 2 :XqXQ.W.r.) ) ) ) | ` ) _ ..2.4.B.4.4.4.5.B.u...J J K Y ) =.B.L.}.].].].OXOX/.l.h.p.' ' M.D.F.C.h.h.C.C.C.f.B.4.1.M c * ; X v 0XcX6X4Xe.| J J R _ ) _ =.2.>.4.>.>.>.2.2.2.4.2.>.5.5.>.4.y.2.:.:.:.:.:.:.>.>.2.<.2.:.;.| T T e } -.} | -.=.2.o.0 9 3 2 : + 3 ;X1X,Xt.X. . .| } } } ) T T T } R } } R Y | -.} ) _ 1.r.:...=.` ' _ 4.4.B.Z.4.B.V.g.4.' :./ / ) ` 4.` ..S.{.{.M.w q < , o   ! JXnXNXhXD.^.Z.F.Z.~.~.V.4.>.4.B.V.V.V.Z.Z.Z.Z.Z.Z.g.g.!.!.Z.Z.g.g.!.g.g.!.g.g.g.Z.(.(.`.`.`.(.(.`.~.(.F.B.Y.e.y 0 j b & o , n.cXzXNXN.:.4.2.K a K 2.4.1...:.r.4...) ..1.1.-.-.-.X.....Y | -.2.S.t.2./ ) 2.4.4.4.<.4.=.2.K p | ..-.R ;.%.-.8.c # ; f ",
"xXtXW.W.r.D.A.S.V.S.V.B.B.5.<.:.>.5.f.5.5.5.5.4.>.:.1.1.1.4.1.K K ) -.1.2.4.4.2.2.1.=.=.=.2.r.2.y.5.5.6.6.g.V.B.q.r z = *   h 1XnXBXiX3.2.1.y.1.=.a ` D.4.4.B.4.y.-./ / :.4.2.2.1.1.-.r.-.a _ r.u.1.r.1.p a <.B.y.<.B.A.r.r.r.| p K p Y | | } x 6 % X ; O A 9XcXvXT.X...r.4.:.>.>.:.:.>.1.1...) K ;.2.2.2...) _ | -.-...-.-.T u r H T | | | ..X._ ) ..X.| -.r.4.4.>.>.$.-.q.o.0 * $ o @ 9.LXmXBX%XG.G.L.G.Z.Z.j.<.( :.>.<.>.) ....>.<.4.4.B.,.' ,.B.Z.Z.Z.<.,.p.h.@X].+X+XC.R.rXsXCXD.t ^ W.jXhXdX&X%XE.pX .t j # & o ;XlX<X4Xr.` :.-.) ) ..| K T | } | -.-.Y p Y | | | -.| T T -.X.o.| Q W W Q W W W H r H T J L | 2.4.1.:.:.>.4.2.t.X.z 6 f & O 2 :XqX2XW.1.a K K K K K K _ :.:.4.y.4.4.<.5.B.A.X.J K Y ) _ :.4.D.].+X].OXOXOX/.H.G.a.'  .M.F.D.C.h.h.C.C.B.a.5.4.1.x c * ; X b 9XlX,X3X8.} J K _ .._ ` :.4.>.4.>.>.>.4.4.r.y.:.:.4.4.:.>.4.>.>.>.>.>.2.2.4.4.4.4.>.=.=...| } F | -.} | ..-.2.o.0 9 3 2 : + 3 ;X1X<Xt.X. .{  .| } T T R P P R R } ) I R | ..| ) ) 1.r.:.=.:.:._ / <.4.B.B.<.5.V.5.<._ <._ | ..) 4.` ..D.].].M.w 9 * , +   ! JXnXCXhXZ.^.Z.F.Z.~.Z.5.<.<.5.B.V.V.V.V.V.Z.Z.Z.Z.g.g.!.!.!.Z.g.g.Z.g.g.!.g.g.g.Z.(.(.`.`.(.(.(.(.~.~.S.A.Y.8.7 z B b & o 2 m.cXvXNXN.:.4.>./ Y ) 1.2.:...:.2.:.) ` :.2.1.-.X.......| K | 1.1.y.r.1./ _ <.4.<.4.<.2._ 1.p p 2.| =.;.>.%.| o.z # ; l ",
"uXyX>XW.e.M.B.V.V.S.V.B.5.4.<.:.:.<.5.5.5.5.4.2.2.:.1.1.1.w.-.K Y _ =.1.2.4.2.1.2.1.=.` -.2.2.2.y.5.5.5.f.V.V.B.q.0 z = * . h :XzXNXtX+.:.=.2.=./ i ` D.4.4.A.y.r...) _ -.2.2.1.1.1.X.r.X.p ) t.A.r.y.-.y a 4.B.4.4.A.B.2.y.r.K K ) K Y %.;.X.L - # - ; O A 9XcXvXT.X.| r.r.:.>.>.:.:.:.1.1...| Y ..-.2.r.-.) ) | ;.-...X.-.} J r p I | | | | ..) Y ) | ) ..2.1.:.>.>.$...2. .0 * $ o   9.JXmXBXpXL.G.P.J.G.Z.Z.<.( &.:.>.>.) ..:.4.a.4.<.4.<.&.4.B.Z.C.f.&.] p.h.OX].+X+XC.K.rXpXhXC.t a D.hXaXrX@X%XE.pX .t j # & o ;XcX,X4Xe.` :.-._ _ ....Y T | | | -...Y K P ) | | -.| R R } | X.X.T P I | } W W J r F I I L | w.r.1.` &.>.4.2.u.8.r 6 f & O , m.qX<X>XO.y p H J K p p K | | :.r.r.4.<.4.B.A...K I ) ) ` >.1.a.(.+X).OX@X)./.H.G.p.' ' 3.a.C.C.h.C.C.h.a.4.5.2.X.x c * ; X b 9X8X>X>X8. .) R | .._ ..>.4.>.>.>.>.>.2.4.r.4.:.>.4.4.:.>.4.:.>.>.2.4.4.4.4.4.4.4.>.$.....| } J | -.} _ _ ..1.o.0 9 f 2 : + 3 ;X1X,Xt.o. . . .X.| | } T P P Y T } ) R Y | X.| | _ 1.r.1.:.4.<.` ' >.<.4.B.<.B.g.<.>._ <._ | O. .1.' ` B.'.R.M.w 9 < , o   ! JXmXCXhXZ.^.Z.L.S.F.B.4.4.5.B.g.g.V.V.Z.Z.j.j.Z.Z.Z.Z.Z.Z.Z.Z.Z.Z.Z.Z.Z.Z.g.f.g.Z.(.L.^.^.(.(.^.^.^.F.F.A.Y.X.y M S A & o 2 m.cXcXiXM.:.>.` a K ) :.1.1.:.:.:._ a | 1.2.1.-.X.......| K ..1.-.r.1.1./ _ 2.<.2.<.4.5.=.1.p I A.X.1.4.4.%._ o.z - * ; ",
"tXtX>X3Xe.r.r.B.V.S.V.y.4.4.<.>.:.<.5.5.5.5.4.>.2.=.:.1.2.2.-.K ) =.1.2.2.2.2.1.2.1.=.=.=.2.r.2.y.5.5.5.g.V.V.y.w.0 z = *   h :X7XxXeX..:.=.2.R Y K 1.D.4.<.B.B.r._ ) -.1.1.2.1.1.1.| 1.) p X.A.A.u.y.) y a 2.4.4.B.B.y.r.t.-.p ) ) a Y _ | X.L - - - & O A DXcXvXY.X.| r.y.>.:.>.:.:.:.2.1.X.| ) ..-.2.y.1._ _ | ..;.| | -.} J r e J ) | | ) | ) Y ) | ) ..2.1.=.>.>.=.` 1. .0 * $ $   9.JXmXCXpXL.G.P.J.Z.Z.Z.<.&.*.&.>.>.` ..1.a.B.4.<.4.4.<.B.Z.Z.Z.a.( ( f.h.OX].$X$XC.L.sXpXsXD.t t D.jXaX&X%X#XP.#X .t j # & O ;XcX,X4Xe.) ..1.-.-.-.| J L } } } | | I K J Y T } -.| K P R } -.X.T J P | o.W W L e x L L I | 1.w.:.` :.<.4.2.t.X.0 6 f & O , n.qX<X3X..y J ) X.X.T p p K ) ..1.4.r.2.4.B.A.| J Y ) ) ` <.>.,.L.].L.OX@XP.XXJ.G.a.` O.4.4.C.h.h.C.h.f.a.4.5.2.X.x j * ; X b 8X8X<X>X8.X.X.) ...._ _ :.4.>.>.4.>.:.:.2.4.2.2.>.5.5.>.4.5.>.:.>.2.2.4.4.4.2.4.4.>.` | ..| T J | -.} _ _ _ 1.o.0 9 f 2 : + 3 :X<X,XT. .I o. .o.} | | T P R | } | } T } | -.-..._ -.4.1.1.4.4.:._ <.4.4.f.<.B.B.<.>._ :.Y ) ` ` 2.) _ M.S.D.3.w 9 * , o   ! JXmXCXhXZ.(.Z.L.S.Z.g.4.5.B.B.g.g.V.V.Z.Z.j.j.Z.Z.Z.Z.Z.Z.Z.Z.Z.Z.Z.Z.Z.Z.g.f.g.!.F.L.F.^.(.(.^.!.(.Z.F.D.t. .e V S A $ o , m.cXmXyXM.:.>._ a K ) ..:.1.1.1.-./ p ) X.1.1.-.-.-.X.-.| K -.r.-.2.1.1./ ) >.<.2.4.4.4.-.` p | A.-.:.4.5.;.-.q.L = # % ",
"tXtX>X3Xr.B.B.B.V.V.V.5.4.<.<.<.&.<.5.5.5.5.4.>.2.=.=.2.2.2.-.K / =.1.2.2.r.2.2.2.2.:.=.=.2.r.r.4.y.5.5.6.g.B.r.w.r z # *   v 1X7XiX3XO.2.2.;.K Y ` 4.M.4.1.<.y.4.) | 2.1.1.2.-.-.1.| ..) a 1.A.r.A.r.Y p / 2.<.y.y.r.y.y.-.Y Y ) ) a K R | | x - # # & @ S FXlXyXY.X.| r.B.2.=.>.>.:.1.2.1.-...R ..-.2.r.-._ .._ ....| | -.} P r r u T | } ) ) | ) | | ) ..2.2.=.>.4.=.` 1.o.0 * $ O   9.HXzXVXrXL.G.P.H.G.H.Z.f.*.:.` :.4..._ >.4.f.4.4.B.a.,.Z.F.F.F.f.( ( f.h.OX].$X$XC.L.hXyXsXL.a a K.kXrX&X*XOXP.#X .M n = & O ;XcX,X4XM.) ` X.X.X.X.} J L } T T | | K K J R R Y | ) P P P T X.X.} P I } } W W T u e H H I T X.1.-...=.4.y.1.w.o.0 6 f & O , m.8X2XW.O.y X.w.u.t.| H H I ) ) | 1.2.2.4.B.A.| J ) | ) ` <.4.<.L.].G.).@XI./.H.h.4.:.4.B.f.f.h.Z.Z.C.f.4.4.5.2.X.x j * ; X b qX,X>X4Xe.X.X.| ;...) _ >.4.>.>.4.>.:.:.2.2.:.2.>.4.4.2.5.y.>.:.>.2.2.4.2.2.>.>.<.:.` ..-.| R F } X.| | _ _ 1.X.0 9 f 2 : + 3 :X;X4XT.U H X.} } } | | Y J K | } } } ) } | -.;.../ ..4.2.4.4.1.:.` 1.4.4.4.>.B.B.4.<.` :.K K ` X.4.' ' 4.B.C.3.w 9 * & o   ! JXmXCXhXZ.(.Z.L.S.Z.f.4.5.B.B.B.V.V.Z.Z.Z.j.j.j.Z.Z.Z.Z.Z.Z.Z.Z.Z.g.Z.Z.Z.g.f.V.~.F.F.F.^.(.`.(.^.(.f.'.D.X. .H V S A $ o , n.cXmXtXM.:.2.=.Y Y | _ ..1.1.1.-.) a ) X.1.1.-.-.-.X.-.) J -.r.1.2.1.2./ ) <.4.4.4.4.2.=.p u X.t.1.:.>.5.2.2.w.E 6 * & ",
"tXtX>X4XA.S.B.B.V.S.V.4.>.<.4.4.$.<.5.5.5.5.4.:.:...-.2.2.2.-.K ) ` 1.2.2.r.r.2.1.1.:.=.=.1.4.r.4.5.5.5.6.f.5.4.r.r g # *   v 7XuXxXeXO.r.2.;.p a ..4.3.1.>.>.y.1.) ..r.-...1..._ 1...-._ Y 1.r.2.A.2.K / :.<.<.B.4.2.B.A.) p X.) | K Y _ | | x - * % & X S FX1XyXY.X.| r.B.2.=.1.:.=.1.2.1.-...K _ -.2.2.| ) ;.) | ..| | -.} K e r u I | | ) ) | Y ) ) Y | -.1.=.<.5.:...1. .0 * $ &   9.GXzXVXrXL.G.P.H.G.H.Z.f.<.:.' $.4.../ :.,.<.<.f.B.a.&.Z.Z.F.L.C.] ( f.p.).).@XOXa.K.hXyXsXL.a t D.jX$X&X*XOXP.#X .M m = & O ;XcX,X4XN.) _ _ ) | | } I I } T I | | Y K J R J P T T P I P T | X.| T T W W I W W F e F H L I } ....| :.r.4.1.w.o.0 6 f & & 2 :XqXW.W.+.p w.u.A.t.W u H T | ) ) X.1.1.r.A.S...K ) ..` =.4.B.4.L.).h.P.@XJ./.h.p.,.] 4.S.B.f.h.j.C.B.a.4.4.B.4.X.x j * * X v 1X,X,X4Xe.X...-.-.;._ ..2.5.4.>.4.>.:.=.:.1.=.2.:.>.2.>.4.5.:.>.>.2.4.4.4.2.>.>.>.:.....-.| I u W | | ;...=.2.X.0 9 f 2 : + 3 :XU.5XW.H H X.T | } X.-.T p K X.T T T T T } | | _ / ` 4.4.4.2.=.:._ >.4.4.<.=.4.B.4.r.=.1.K / ..1.r. .' 4.B.B.3.w 9 * & +   ! HXmXCXhXS.(.Z.L.S.Z.5.4.5.B.B.V.Z.V.Z.Z.Z.j.j.j.j.Z.Z.Z.Z.Z.Z.Z.Z.g.Z.Z.Z.g.f.V.~.F.F.F.^.`.`.`.(.(.4.'.D.) { I V C b $ @ , v.cXJX>X3.` 2.1.| | | ) ..:.1.2.:._ Y | 1.2.1.-.X.......Y p X.r.-.1.1.2./ _ 4.B.r.4.<.2.-.e p 1.r.r.2.>.5.6.1.q.E 0 k * ",
">XtXeXyXN.D.A.B.V.y.5.5.5.4.2.:.:.>.4.5.y.5.4.2..._ ;.w.y.1._ Y _ ` ....=.2.2.2.1.1.:.=.=.2.r.r.y.B.y.5.6.V.V.A.q.w 0 6 * X h qXzXuXeX+.t.y._ p Y X.4.1.O.:.2.5.2.) | 1.1.-.-.-.-...X.Y Y 1.2.u.y.r.2.K ..2.B.>.>.B.1...t.i K | | X.` =.=._ | G # # X ; $ A 9XlX4XT...X.2.1.4.-.=.2.2.2.2.2.-.| K Y ;.2.1.-.;.) R ) ..-.-.-.| | H e e I } W T } } Y | | ) | -.-.r.4.2.2.1.| E c < o & o 7.mXzXNX#XL.G.L.J.L.^.h.f.<.*.:.2.:...` <.>.a.4.a.B.,.>.Z.B.F.(.f.( ] h.h.).@XaXG.a.{.aXpXjXD.t a D.hXaX@X%XOXI.{. .M j # = & n.cX<XyXN...4.X.| | | i.| J L } | } | } H H I T P J P P P P T | -.| T T | T H T o.H e G e W I T | ..X.-.1.=.-.w.o.0 6 f ; O , :X1X<XW.M.) X.q.t.q.T H H I | ) ) ) ..1.y.Y.t.) J ) 1.4.r.<.B.:.^.).G.OX).XXH.^.*.( :.3.B.C.Z.Z.h.f.f.B.B.4.>.2.X.w j * & X v 1X<X,X4Xe.X.X...-.-.....:.4.>.4.>.>.>.2.:.1.:.4.2.>.2.4.5.2.:.:.:.>.2.4.2.4.4.>.>.2.=._ ;...P F -.q.| _ ` =.1.o.0 * < 2 : + 2 :X2X<X3XM e o.} } X.-.X.T J R | } } T T T ) | ../ ` =.1.4.4.:.` _ ....1.r.4.-.1.y.y.4.B.1.p K X.1.:...` <.S.C.3.w 9 = , + @ 7.GXJXbXsX'.V.Z.B.Z.5.f.g.B.B.V.V.V.Z.Z.V.V.Z.Z.Z.Z.Z.~.Z.g.5.B.Z.V.V.V.Z.V.g.g.Z.(.~.L.^.^.(.(.(.(.[.F.'.r.| I H V ! b $ @ 1 m.FXvXW.N.) :.2.) ) | | ) :.4.X.X.X.K | ....| ..1...K e e K -.1.2.2.X.` / ..4.<.4.4._ :.2.J K 1.1.2.2.>.>.2.r.t.{ j j * ",
">X6X3XeXN.D.B.B.V.V.5.5.5.4.>.:.:.>.4.5.5.4.2.2.-...;.2.w.;.Y a _ ` ....=.2.2.1.1.1.:.=.-.2.r.r.r.y.5.5.6.g.V.y.w.w 0 * * O h qXmXiXtX1.r.2._ K Y ..1.1.O.:.1.2._ K ) 1.1...-.......1.Y K -.1.w.w.2.1.K -.4.B.>.>.4.:.` 1.p ) 1.1.1...:.=._ | G = * # ; o A 1X,XtXY.| ..2.1.w.=._ ;.2.2.w.w.-._ K Y ..2.1.1.1.| T _ | ..-.X.| | I F u J T T ) | T I ) | ) ..1.1.2.:.=.=.1.X.U 0 * O $ o 7.cXzXNX#XG.G.L.G.G.H.g.g.<.&.&.>.<.:.` :.:.B.4.<.a.:.,.4.f.F.'.C.*.*.h.s.J.OX=XL.C.#XpXpXbXC.t ^ W.jXaX&X&X%XP.#X@.N m # $ $ n.cX<XyXN.| 2.| ) } } X.} J J W } W } ) H H P R P J P P P R } -.-.| T T } T H W | H e G G P J L } ......-.-.=.r.X.0 6 f & O , :X1X<XW.3.a T.T.T.i.J e H ) | ) _ _ ) | 2.S.t.) J _ -.:.4.B.f.*.H.L.z.).P.).H.H.&.( >.,.B.Z.C.Z.h.h.C.D.A.r.>.<.X.w z * & X v 1X1X,X4X8...X...-.1...=.>.4.4.>.>.>.>.2.2.2.2.4.4.2.2.4.2.>.:.:.:.>.>.2.2.4.4.4.>.2.:._ ;...P F | -.} _ _ _ -.o.0 * < 2 : + 2 :X2X<X3XU H o.} } | -.| R J R } } T R R T | -.-.) ` =.1.4.4.:.` _ ....1.y.4.-.1.r.y.:.w.2.K K | 1.:...` 3.D.D.3.w 9 = , O @ 7.HXJXbXsX'.V.F.B.S.5.f.B.V.V.V.V.V.Z.Z.Z.V.Z.Z.Z.Z.Z.!.Z.5.5.g.B.B.V.V.Z.V.g.g.Z.(.F.^.^.^.(.(.(.(.|.Z.'.r.| { H V { b $ o , m.FXvXW.N.' :.2.) ) } _ / ..1.| X.-.) | ....| ..-.| J e u ) 1.-.1.1._ ) / :.4.2.4.4.=.=.1.K ) q.2.2.4.>.>.>.4.r.} j j 6 ",
"W.7X>X4Xr.A.B.B.V.y.5.5.5.<.>.:.:.>.4.5.4.>.:.:.=.....-.-.| R a _ ` ..=.=.2.2.1.1.1.:.=.=.1.4.2.2.y.5.5.6.g.y.y.q.w 0 * = X h 9XmXuXeX..1.-.) Y Y | :.O.:.:.1.1.K p ) 2.1.X.-.....-.1.Y K -.-.-.1.-.-.K 1.4.B.>.4.2.:.` ) p -.r.2.3.:.2.=.| X.H - # - & O A 1X1XyXY.| | 1.1.2.=.J R _ | | -...} Y Y ..2.2.2.2..._ _ } } | | | X.} J u H I I W | I K ) | ) ..1.1.4.:.$.=.r.q.E 6 * O $ o 9.cXcXNX#XG.G.J.G.G.H.h.g.4.&.` :.4.4.` ..>.B.4.<.4.>.<.*.a.L.(.Z.<.a.h.p.G.).&X].D.#X$XaXhXN.a ' {.jXaX%X*XOXP.#X@.N n # $ $ n.cX<XtXN...1._ ) } ) X.T L L I W I W ) H F P T P J P P P R ) -.-.| R R ) T L } | J e G L L H J T ......| =.=.u.i.z 6 8 % O , :XqX,XW.1.e X.t.u.t.} J I ) ..X.1.1...` 1.A.r.K a _ ..=.4.V.<.,.G.J.z.J.J.J.G.Z.` ` ,.<.B.Z.g.h.j.h.D.S.A.t.>.4.X.w j * & X v 1X1X>X3X+.| | | -.1.=.=.2.4.>.>.>.>.4.4.4.2.4.4.4.4.4.2.>.:.:.:.:.:.>.>.2.2.>.<.>.2.:.| ;...I F T } _ | _ ) ..o.0 * 3 2 : + 3 :X<X<X4XI H  .} T | -.| R J I T | T P P T | ....) ` :.1.4.4.1.` ` ..-.2.A.r.X.X.2.y._ X.r.) K | X.:.O.` 3.D.C.3.w 9 = & O o 7.HXJXbXsXF.B.F.B.Z.4.5.B.V.F.F.Z.V.Z.Z.Z.Z.Z.Z.Z.V.V.Z.V.5.4.4.f.f.B.Z.S.B.f.B.S.(.(.^.^.(.(.(.(.(.^.Z.~.r.|  .U V { B $ X , m.FXzX>XN.` 1.2.) } } ) Y _ X.` ..-.........| | X.T H r p ..1...-.-.) K ) 4.y.>.<.4.>.=.-.K | q.1.2.2.>.>.>.4.r.{ j g 9 ",
"W.7XeXeXr.B.B.B.y.y.5.5.4.<.>.:.:.>.5.5.2.:.:.1...| | ;.-.| R K _ ` ..=.=.2.2.1.1.1.=.=.=.1.2.2.2.y.5.5.5.5.y.t.q.w g * % X l 9XmXtXW. .-.-._ Y ) ) ..O.1.1.:.-.a J | w.1.-.1.-.-.-.-.K Y 2.1.-.2.X.X./ 1.2.B.2.B.:.4.=.a p 1.2.1.2.:.2.1.;.q.W = # - $ X A 9X1XyXW.| | -.-.2.| J P P J P T | ..R Y ..2.1.1.1.| } } } } | | | ..| I F H J I T } Y I ) | ) | 1.-.4.1.=.1.y.t.E 6 < O & o 9.FXcXVX#XL.G.L.J.H.H.j.f.g.,._ ..4.r.:.:.<.Z.4.4.B.<.<.` f.^.(.Z.g.g.h.p.H.).&X].K.pXpXaXhXC.a ' ].jXhX%X*XOXP.#X .m j # $ $ n.cX2X4XN.-.2.| | | } X.T L H I I L T ) J u J P P P P P P P Y | .._ K K R Y I } } L r F P I L L T X.-..._ _ =.u.q.x 6 8 & & 2 :XqX6X3Xr.p r J | X.o.) T Y | X.2.2.1.:.2.B.r.K a ..:.=.<.B.,.a.H.J.G.H.J.J.H.Z.' ` <.<.B.B.f.g.h.g.B.B.B.r.>.4.1.w j * & X v 1X,X,X4X+.| | | -.1.=.=.2.4.>.>.>.>.>.2.4.r.y.2.4.4.2.>.:.:.:.:.:.:.:.:.>.2.>.<.>.2.:.......T J R T | -._ / ..o.0 * 3 2 : + 2 :X,X<X4X{ U } } T | X.| T I R R q.| R K T | | _ ) ` :.1.4.4.1.` ..-.-.2.A.2.) ) -.u.) ) r.| K | | 1.:.` ,.Z.C.3.w < = & O o 7.HXmXbXsXF.f.Z.f.B.<.5.B.V.F.F.Z.Z.V.Z.Z.Z.Z.Z.j.V.g.B.f.4.4.4.5.f.B.Z.Z.B.f.B.F.~.(.^.(.(.(.(.^.^.~.Z.~.4.)  .I V { b $ X , n.cX6X>XN...2.1.T | } ) ) _ X...| ......-...| | | I u y p | -...1.-.K K ` r.y.2.<.<.>.=._ p ) 2.-.2.>.>.>.>.<.e.^ j j 9 ",
"W.tXtXtXr.B.B.V.y.5.5.5.4.<.>.:.:.4.y.y.4.:.:.1...........| T K _ ` ..=.=.2.2.:.1.1.=.....=.1.1.r.y.y.5.5.g.B.y.q.w g * # X l 9XJXtXW. .2.w.;._ _ ) | O.1.1.:.-.K I ..1.-.X.1.-.-.) ) p ) r.1.-.2.....) 2.1.B.<.4.` 4.:.i K 2.2.1.2.:.4.2.2.r.o.g f # %   v 1X<XyXY.|  .....;.} R R P P P Y | -.Y Y _ 1.-.1.1.| _ } | | X.| | | | I H F J L I I I I ) | ) | -.X.-.:.-.=.2.q.P 7 < O & o 9.FXcXNX#XG.G.G.G.G.H.h.f.Z.4.` ` <.t.4.<.4.D.4.4.B.<.:.&.f.L.F.C.g.Z.Z.G.).OX&XL.D.pXhXrXhXD./ ' R.sXjXdX@X#XE.pX .t j # $ $ n.cX2X4XN.X.1._ | } T | W L H P I J T W J u J P P J P I P J R _ | ) K Y ) T T W W L r e L E L P T X.-.X.| ) _ r.q.x 6 8 ; & 2 :X0XvXyXT.) P H u u H Y ) | Y ) X.2.r.2.2.r.2.K K 1.2.:.:.>.<.C.H.H.J.J.P.J.^.C.' ` 4.<.f.f.f.h.h.f.f.B.t.w.:.2.X.w j * & O v 1X,X6X4Xq.....} -.1.-.-.2.4.>.>.>.:.:.:.2.y.B.2.2.2.>.>.>.>.>.:.=.:.:.:.>.2.>.4.>.4.2...| X.W P T W | -..._ X.o.0 6 3 2 + + 2 :X,X2X<X .U W } T | -.| W T T R u.-.} T | -.X.| ) ` :.1.4.4.:._ X.-.-.2.t.1.Y K ) r.) K -.I H | ) O.O.` >.D.C.@.w 9 = & + o 7.HXcXbXbXF.f.Z.4.4.>.4.f.V.Z.F.S.V.V.Z.Z.Z.Z.j.g.g.4.4.4.4.4.4.f.B.B.S.Z.f.5.B.F.F.(.(.(.^.(.(.^.^.Z.D.F.1.) X.{ V { b $   1 v.0X6X>XM.X.r.-.Y | } ) _ ..-.-._ ) | X.-.-.| | | I e e p ) ..X.1...p K :.r.4.4.4.>.:.1.Y e ) 1.-.2.=.>.>.:.>.2.^ q j 9 ",
"W.tXyXyXr.B.B.S.y.5.5.4.4.<.:.O.:.>.5.5.4.2.:.:.-.-.-.;.| | T J _ _ =.=.=.2.1.=.1.1.=.` ` -.1.1.r.y.5.5.5.y.y.y.i.w g 9 = X l 9XJX7XT.) w.w.;._ | )  ...1.1.-.-.) ) ..X.| ..-...| p p u ) w.-.1.1.) | ) r.1.y.4.>._ 1.-.i ..2.2.2.4.1.5.2.2.t.o.c f # $   b 1X<XyXY.) ) ..| ;.T P P P R R R } ..K a ) -.-.2.2.;.) } | ;.-...| | } I H F H L L J L J T | } ..1.-...-.=.-.1.q.P 6 * O $ o 7.cXzXxX#XG.s.C.h.h.Z.f.f.B.f.&.` :.r.r.<.4.B.<.<.B.>.` :.f.F.Z.g.g.Z.Z.).OX@X&XL.D.rXjXpXrXD.'  .L.rXjX&X*XOXE.#X .w j # $ $ n.lX2X4Xt.| X.) ) T J } W L H P I L T } L e H P P P P I P J R } | ) Y Y } T } I I L e r L P P L I } X.X._ ) _ q.i.z = 8 ; & 2 :X0XvXxX}.1...I e e J | -.-.) ) -.4.y.4.2.4.| K ) 1.2.:.:.` <.^.Z.H.).P.P.J.^.g./ ` 4.4.a.a.h.j.Z.g.a.B.t.r.=.2.X.w g * & O v 1X,X6XtXe.....| -.2.=.:.2.4.:.4.>.:.:.:.2.y.B.2.>.:.:.>.>.>.>.:.:.:.:.:.>.2.4.4.>.4.2.;.| X.} P } | | -.-...1. .0 9 f 2 + @ 2 :X,XT.<X .U I I T | -.| } } T P 1.| R I } | | _ ) ` :.2.4.4.1._ ..-...1.r.-.I J Y 2.I H Y p p Y / X.:._ :.D.B.@.w * = & O o 7.HXvXbXbXF.f.S.r.<.>.4.5.B.V.S.S.V.Z.Z.Z.Z.Z.j.g.g.<.<.4.4.4.4.f.V.Z.F.Z.5.4.V.F.F.(.^.(.^.(.(.(.(.~.Z.S...) q. .N S n $ X 1 v.qX>X>Xe.X.r.-.Y X.) ) ....:.1.) J ) ..-.-.......Y u K p K | ..X.) p K 1.4.1.4.4.:.` 2.K e ..q.-.4.=.>.>.$.>.1.^ q j q ",
"W.tXiXyXr.M.B.S.5.5.5.4.4.>.:...:.>.2.4.4.2.:.-.=.=.-...| | R p _ _ ..=.=.1.1.-.1.1.=._ _ =.=.=.w.r.5.4.5.5.y.r.X.0 g f * O l 9XmX>XT.) 1.2.| ) ..) ) ..O.....-...| ....| ..X.| K r e J | -...q._ K ) _ r.2.4.<.>.` 1...p 1.1.2.r.4.1.4.2.2.r.o.0 9 X = X A 1X,XeXD.) ) .._ | Y J J P P P P T ..K a R ..-.2.2.-.) _ | ....| | } | W H F H L I L L J T | ) | -.X...:.=.=.w.t.Q 0 * O O X 7.9X6XiX#XC.s.h.h.h.j.f.g.f.<.&.` ` 1.4.<.a.F.4.,.B.:.` :.4.Z.F.Z.f.C.H.+X@XOX$XP.K.aXhX#X#XM.^ O.R.rXjXOX XP.I.#X .w j # $ $ v.lX2X4Xt.) | Y ) I H W W L L I T I W } I e G P P P P I P P R } | R K Y ) } } I L I F r L L P P L T | ..| ..) -.o.0 = ; & O 2 1X0XvXyXY.1...T J Y -.r.r.2.-.1.4.r.4.>.:.2.K K ..2.:.:.>.&.<.(.C.G.OX).P.G.L.f.d ` B.4.a.a.g.j.j.f.4.r.u.t.` :.X.0 g * & $ v 1X,X6X4X8. .| ..2.w.1.1.4.4.>.>.>.>.>.2.4.y.y.4.>.:.:.:.>.:.:.:.:.:.:.:.>.2.4.4.>.4.4.;.| -.| J | X.} ..-.-.1.} 0 9 f 2 + X 2 :X,XQ.>X+.U H I T | -.| } | ) J | R J J T } | _ ` =.>.<.r.r.1.` ....| -.r.1.Y K | 2.Y H J H K J K ..O._ :.B.f.@.w * = , + X 7.GXvXbXsXB.<.B.4.<.4.5.g.V.V.Z.Z.Z.V.V.Z.Z.Z.j.g.g.4.4.4.f.f.4.f.Z.V.F.V.4.4.Z.~.F.F.L.^.^.(.(.(.(.`.Z.B. .) e.o.M ~ b , o 1 v.qX<X>X3.X.r...I X.} | X.....-.K u Y ..X.X.....X.T u Y p K | | ) ) K a 1.4.>.4.4.$.` =.a p q.w.X.4.>.:.&.$.>.2.^ q j 9 ",
"W.tXiXyXr.r.y.S.5.5.4.4.<.2.:.=.=.:.>.2.2.2.=.=._ =.-...| | T J _ _ =.=.=.1.1.-.1.1.-._ _ =.=.-.2.r.4.4.4.5.y.r.X.0 g f * O h 9XmX>XW. .1.-._ _ ..) ) | X.| ..1.X.| ......X.-.) p y u Y ....| r.K p ) | B.2.4.2.4.:.1._ i 2...1.1.<.:.4.2.1.y.X.g f # & O b 1X2X3XA./ ) | ) | R T P J J J J } q.Y K ) X.-.2.2...) _ } | | | } } X.W J u H L I I I I } | ) } X.| ..=.;.;.r.u.o.g f $ & X 7.0X8XiX#XG.s.h.h.h.Z.f.Z.4.&.` ` ` :.1.<.B.'.a.,.f.:.&.:.<.B.F.Z.f.g.H.@XOX).$X].L.aXrX#X{.3.^ O.E.aXjXOXP.P.P.$X .m m # $ $ n.lX2X4Xt.I | Y ) L u T W P J I T I } | I e F P P P P I P P R } } Y J J Y | o.I J W H r L L I I L I | ....-._ X.o.0 - * & X 2 1X0XlXtXY...-.| T _ 1.y.A.t.1.4.r.4.=.) _ :.p K 1.2.` ` >.>.<.`.f.C.+X).P.h.H.4.d ` B.a.f.f.f.g.f.a.<.r.y.y._ =.X.w g * & $ v 1X,X6X4X+.} ) -.2.r.2.2.4.4.:.>.>.>.4.4.4.y.5.y.2.:.=.:.>.:.=.:.:.:.:.:.>.4.4.4.>.4.4.;.| -.| F | ..T _ -.-.-.} 0 9 f 2 + X 2 ;X<XQ.4Xq.I H U T | -.| } | T J | T R R ) | | | ..:.2.4.y.y.2...| | _ -.r.1.) Y 1.w.) J J J } J J | ..' :.B.a...0 * = 3 + o 7.HXvXxXpX4.] 4.<.>.4.f.g.V.V.Z.Z.Z.V.V.Z.Z.Z.j.g.g.f.4.4.B.f.4.f.V.V.F.V.4.4.Z.(.F.F.F.^.^.(.`.`.`._.Z.B./ ^ t.X.M { B , $ , v.qX<X>X3.X.t.| I 8.} | X.| | ..J e I | ..X.....X.T u I u J ..| Y ) ) p 1.r.>.4.4.=.=._ p J t.r._ 2.>.>.>.$.:.1.^ w q 9 ",
"W.7XiXyXr.y.5.B.y.4.:.1.B.r.-.=.2.:.$.>.5.>.=.=.=.=.;.;.X.| T K _ ..-.-.1.1.1.-.1.2.-._ ;.;.-.2.u.w.2.5.5.5.t.A.8.z g * % $ v 1XtXeXT. .1.w.) ..) ) I 1.) 2...| T -.} | -.} } T u p p p ) ..;.2.Y Y _ 2.A.y.4.4.:.=...K p X.y.` 3.:.:.:.=.2.w.X.0 j = & X A 1X2X3XA.^ K } | X.I J J L P P L } X.) I _ | _ ..1.-.) | ..| | ..| T } } T F u H I I L I T W T ) | -...| ;.;.w.u.8.6 * % $ . ! 8XlXxXE.h.h.h.f.f.B.g.V.V.:.=.y.4.` :.:.f.Z.B.B.B.4.( :.f.B.F.C.<.Z.^.J.XX@X&XP.#XkXaXsX{.,.O.a.D.aXhX@XP.I.OX#X^ m n $ $ 3 0.1X<X4Xt.I Y I J H H I W I J J I T T T } F r I I J I J I I I } ..| I I T | W F u T H e L I L J L I ) | | | | i.o.6 = ; & & + :X0XvXeXD.<.2.-.` ..2.r.4.<.4.:.4.y...K ) 2.K X.2.:.:.:.:.B.(.Z.H.Z.H._.G.L.`.&./ <.g.f.f.<.f.f.f.4.>.>.4.A.) -.X.z g * ; O v 8X8XtXtX .) w.1.2.2.2.4.4.4.4.>.>.2.4.5.5.4.4.2.y.y.4.1._ / ` :.:.:.>.1.<.<.<.2.4.4.2.-...| | P T | | _ _ ;.1.} 0 9 h 2 + + 3 :X<X<XW.+.e t I | | ....| ) Y I K I R R } -.-._ ) =.2.4.2.1.1.-.X.` _ -.2.w...Y ) 1.Y Y ..I I I J J ) ) B.A.B.X.z f ; X : @ 7.HXlXtX3X4.4.:.4.<.f.B.V.Z.V.V.V.Z.Z.Z.Z.V.V.g.5.5.5.4.4.B.B.4.5.B.Z.F.f.<.f.Z.Z.Z.Z.L.^.^.^.^.^.`.(.~.<./ I T.o.M E A $ O 3 n.9X<X>Xq.r.2.| e 8.} I .. ...X.J u } e I -...1.q.R T L I J ) ..K K r.1.:.:.4.2.:.:.2._ y _ 2.:.2.$.>.$.=.-.1.1.^ w w 9 ",
"W.uXiXpXr.y.5.y.4.<.>.1.t.2.| ..2.>.$.>.2.>.=.=.=.| | ;.-.| T P _ ..-.-.-.1.1.-.1.2.-._ ......2.y.w.2.4.5.4.r.N.8.z g * % $ v 1X4X3XD. .1.e.) ) | ) ) ..| -...K I i.-.-.-.| } R u J p p ) ..| ..K K ) 1.t.r.r.r.:.:._ a a :.r...,.:.:.:.$.2.w.X.0 f % & X A 1X<X3XT. .I } } X.P W I P P P H I } T I | X.| X.-.` / ) | _ | -.X.T T ) I u u H L I L I W } } } ..X...| ;.;.w.t.8.6 * % & X ! 0XlXiX{.z.h.h.f.g.Z.B.B.B.2.2.B.4.1.4.O.f.Z.B.B.B.<._ <.D.Z.(.Z.g.`.).P.OX@X$XI.E.kXrXrXE.[ [ a.L.aXhXOXP.J.OX#X^ m b X $ 2 0.1X<X3Xr.} } T L H H T | I J H I T W T W H r I I H I J I J I } o.| T I W } W H H T H e P I L J J K Y ) ) ;.} X.Q 6 6 8 % & , :X0XlXeXD.>.=.....:.<.4.4.<.5.>.4.B...a J ) R -.1.:.:.:.<.Z.Z.g.H.H.^.[.G.L.Z.` ' <.g.f.f.f.f.f.f.4.<.<.4.B.Y -.8.z g * ; O v qX8XtXyX@.) 2.2.>.2.2.4.4.4.2.>.>.>.4.4.5.4.4.1.4.4.2.1._ ) ..2.-...:.<.<.<.>.>.2.2.1.-...| | P W | | ) ) ..-.} 0 9 f ; + + 4 :X1X>X3Xe.t M H ) | ....| ) Y I J J P K ) ..| ) ) =.2.2.1.:.:...X.| | -.2.2...) ) 1.Y Y X.T L I I J ) ) A.S.S.+.z f ; X 2 @ 7.HXcXtX3X4.4.:.B.4.f.B.V.Z.V.V.V.Z.Z.Z.Z.Z.g.5.5.5.f.4.5.B.B.f.f.B.Z.F.f.<.g.Z.Z.Z.Z.L.^.^.^.^.^.(.Z.Z.2./ I A.o.V { S = O 3 n.1X<X>Xe.q.2...e o.}  . .| | ..U H X.J J | ..-.} u J H I J Y ) a a :.:.:.:.1.:...` ..) i ` 2.$.>.=.>.=.:.1.1.1.^ w w 9 ",
"7XuXiXpXr.4.5.5.>.<.1.1.r.X._ | >.:.=.:.>.=.=.=.=.| | ;.-...W P _ ..-...;.-.-...-.1.=._ ..| _ =.y.w.2.5.5.4.r.t.8.g g * % $ v 1X,XW.N. .1.e.I I ..) | | ....| p u X.| X.-.-.-.| p R P J ) .._ Y Y Y _ 1.t.t.r.2.-.1.) p ) 1.2.:.3.:.:.:.$.2.w.X.0 9 # $ X A 1X<X>XT. . .} W | T W P P P H F H I I J | -.X.X.| / Y ) _ _ | -.-.| T ) Y H F H L I L I } } } | ....;...%.;.-.t.o.6 % X & o 7.cXlXuX$XG.p.f.f.C.Z.B.B.B.4.2.4.:.X.1.:.f.Z.B.a.a.>.) <.D.B.Z.B.f.`.).).OX@XOXC.I.jXrXjXR./ / ,.L.aX=XOXP.J.].{.^ m B X $ 2 0.1X<X3Xe.} } I H u F I } L F F L W } T T H e L P H I J I L I } o.| T I I I P G H I F e P I P L J P I T T -.T } E g 6 8 % & , :X0XtX3XD.:._ ..:.<.4.4.4.4.4.>.r.B.X.K J J ) -.1.-.:.>.a.(.C.f.H.H.^.[.G.H.g.( ' <.f.<.f.f.f.f.4.<.<.<.<.2.Y -.i.z g % ; O v 1X,X6XyX+.) 2.2.2.2.2.4.2.2.>.>.>.>.2.4.4.4.4.1.4.1.:.1.| ) ..2.....:.<.4.<.>.>.2.2.1.-.......R W | | T R _ X.} 0 9 f ; + + 4 :X1X,X4Xt.p M H ) | ....| ) Y Y J J J P T | | ) Y ..2.2.:.............1.2.1...) ) 1.Y Y X.T L J I K | ) A.A.A.+.z f 3 X 2 @ 7.HXcXyXeXa.4.,.B.f.B.B.V.V.Z.V.V.Z.V.Z.Z.V.f.4.5.f.B.B.B.V.V.B.B.B.Z.Z.f.<.g.Z.Z.Z.Z.L.^.^.^.^.^.(.Z.V.>.) I A.o.E { S = # 3 n.1X<X>Xt.-.1.X.e E } o. .} X...H u o.| W o.X.X.I e T J W ) Y Y K K ..` ..:.:.-.` _ ..K K :.:.$.>.>.>.:.1.1.1.1.I w w 9 ",
"7XuXiXeXr.y.5.y.>.4.1.1.1._ ) ;.2.:.=.:.:.=.-.;.| | | ;.-.| T J | ..;.....-.=._ ..=..._ ...._ 1.y.2.2.5.5.4.r.r.8.0 f * % # l 1X>XW.N. .q.e.J K | I ..Y X.....u u | R P } -.w.X.u Y K p R ..Y p | | X.2.r.r.2.-.-.1.K p | 2.1.:.3.:.:.:.$.2.w.X.0 f # $ X A 1X<X>XT.X. .} I } I P H F G F F H I J H ) X.X.X.../ / ) _ | ..-.-.| } } ) I J H L W L I W } } | | ..;...%.;.-.t.o.6 % X & X 7.cXlXiX$XC.p.a.f.C.F.B.4.2.:.:.:...| :.:.f.Z.B.a.4.:./ ,.B.f.B.f.p.^.^.H.XXOXOXC.K.sX#XjXE./ d ,.K.aX$X).P.I.P.E.^ m B $ O ; 0.1X2X>Xq.T T I H e e H I J u e H T W T I J e L L H I J I T W } } T L J L G G G L H e e J I I L J J L I I -.W o.E g 6 8 % & , :X0XtXeXD.:.` ..1.4.4.4.<.<.<.:.4.4.-.) ) K ..1.1.-.:.>.f.`.Z.f.H.H.^.[.G.H.<.' ` 4.f.<.f.f.f.<.<.<.<.>.:...) 1.q.z g % ; O l 1X1X6XxX8.) 1.2.2.2.2.2.>.>.>.>.>.>.2.4.4.4.4.2.4.:.-.1...) X.2..._ :.4.4.>.>.2.4.2.1.-.......R W | } ) T _ X.} 0 6 f ; + + 4 :X,X<X<Xq.M M M ) ) | ..| ) Y K I J J K } | | | Y ..4.2.:.....` | | ..1.1.1.| ) | 1.) ) 1.} L H K J ) ) y.B.B.X.z f 3 O 2 @ 7.HXmXyX3X4.4.,.B.B.B.V.V.Z.Z.V.Z.Z.V.Z.F.V.5.<.5.g.B.B.Z.S.S.V.B.B.g.Z.f.4.Z.Z.Z.^.Z.L.^.^.^.^.^.^.!.B.:.) ) A.o.V { S = # 3 n.1X2X>XA...-.-.e x }  .{  .i.X.H e I -.| X.| | I u } I o.X.) Y ) _ .._ ` :.1.1.-.X.-.p ) 2.:.$.>.>.:.1.2.1.1.1.I w w 9 ",
"7XiXiXyXr.y.y.y.4.r.2.O.X.) _ 1.>.>.:.:.1.1.-.-.| | ....-.} T P _ ..=.....=..._ _ ;..._ ;.;.=.2.r.2.2.5.5.4.4.e.8.0 9 * & o l 1X<X<XN. .q.q.J H } I ..T X.| ..e T -.T P | | | R u K J p R _ J u ......-.1.1.X.| -...J J 1.w.-.1.3.&.:.:.$.2.w.X.g f % $   b 1X2X<XT.X. . .I W I F u e u F F L I L H T ..| -.1..._ ) _ | X.X.X.| | ) } ) L F J W L L T } } } | | ....;.| ;.q.Q 6 * # & X 7.cXlXxX$XC.<.p.a.B.Z.B.>.` _ ....X.1.:.:.f.Z.B.4.<.../ 4.S.B.B.f.f.`.^.h.).@X@XC.K.rX#XsXE.[ / ] D.=X$XJ.J.P.P.E.^ N B # $ & 0.1X2X<Xq.I T I L H F H L L u e H T W W I J e L I J I H L W } } I J H H L F x G L G r x H I P L J J L L I -.} X.Q z 6 8 % O , :X0XtXpXL.>.:.-.:.2.4.4.<.>.<.>.4.1.X.-.1.| 1.2.1.:.:.:.4.(.L.h.H.H.^.).Z.L.:.' $.f.f.<.f.f.f.4.4.<.<.>...) _ 2.i.z g % ; % l 1X<X6XxXe. .2.2.2.2.2.>.>.>.:.2.>.>.2.4.4.4.2.r.4.1.-.1.| ) -.2.` ) :.4.<.>.>.4.4.2.1.-...| | T W } | _ _ | X.} 6 6 3 ; + + 4 :X<X2XT.X.e M M I )  ...| T I J I J J R } | | | / =.4.4.:.=...` ` _ | X.-.-.| ) | w.| | q.} I J I K | ) y.B.B.X.z f f O 2 > ! FXcXyX3X4.4.:.B.f.B.V.Z.Z.Z.Z.Z.Z.V.Z.Z.V.4.<.5.V.V.S.F.F.F.Z.Z.g.f.g.4.f.Z.Z.Z.^.L.L.!.^.^.^.^.!.`.f._ / ..T.o.V S A = O 3 n.1X<X<XT.} -.| e x Q  .I  .X.} H U } X.X.X.L J I J } T o.-.) Y | 1..._ ..1.2.2.1.-...i ..2.:.:.2.2.=.1.1.1.1.q.U w w 9 ",
"7XuXyXyXt.B.y.y.4.r.1.X...) _ 2.-.:.1.1.1.2.1.-.| | -...} T I P _ ..=.....-..._ ) .._ _ -.-.-.2.w.2.2.5.5.4.4.e.8.0 6 * & O l 1X,X>XU. .q.q.H p T T ..} | | } r T X.W | -.| T J J R R Y } _ Y K | ....-.1.2.1...X.) K ) 1.2.-.1.1.:.:.:.$.1.w.X.g f = & X b 1X2X<XU. .o.| I W T J u e u e e F H I I } ..| -.r.4..._ _ ....| | | } ) ) } L e u I L L I T } } ) ) | ..;.;.;.i.Q 6 * # & X 7.cXvXxX$XC.p.<.4.B.Z.B.V.:.=.=._ | X.` :.a.Z.D.a.,..._ 4.F.B.B.f.f.^.H.h.P.@X$XC.K.sXrX#XR.[ / ] C.=X$XG.J.P.].E.^ N B # $ & 0.1X2XW.q.U P I L H u F H T H u H T } } } J e L I J I H H I T I J F H J L G r G P G x G L P P P L L L L L } T -.o.z 6 8 & O , :X9XtXyXR.,.1.:.:.>.4.4.<.>.4.4.4.:._ 1.w.-.2.2.1.:.>.:.<.Z.(.Z.^.H.L.).C.Z.&.' &.f.f.4.f.4.f.f.4.4.<.:..._ _ -.8.w g * ; O l 1X1X6XyX+.) 2.2.2.2.2.>.>.:.:.>.>.>.4.4.4.2.>.r.r.1.-.-._ _ 1.2.` ) :.4.<.:.<.4.4.2.1.-...| | T W } } _ _ | X.{ 6 6 3 ; + + 4 :X<XQ.U.o.e N U I I  ...| I J u K H J R } | } _ ) ..2.4.1.:..._ | _ _ ..-.-.| ) | r.| ..1.) P J I I .._ y.B.B.+.z f l & 2 > ! FXcXtX3X4.4.:.M.4.B.V.Z.Z.Z.Z.Z.Z.V.V.Z.g.5.4.g.V.Z.F.(.F.F.F.Z.f.f.f.<.f.^.Z.Z.^.L.F.Z.!.(.^.^.!.^.<./ / 1.<XX.V S D = O 3 ;X1X<X<XA.) -.R e G P o.^ } } U U | -.| X.X.H H I J } T W } Y J _ 1._ ` =.1.2.2.1.| K e 1.2.1.1.:.2.=.-.1.1.q.8.E q 0 9 ",
"7XuXiXyXr.y.4.2.2.4.1.O.X.) } 1._ :.1.1.1.2.1.X.| X.-...T J J P ) _ ;.;.-.-..._ Y _ _ _ ;.;...1.w.2.2.5.5.<.1.q.8.6 6 * & O l 1X>X>XU. .X.X.u u J ) | ..Y ..T e I X.W -.i.T R P R } } | -._ Y | | ..X.-.1.r.2.-...K K X.2.1.1.-.1.O.:.:.$.1.w.X.0 f = & X b 1X;X,XU. .o...T } T R J u F e e x F L I }  .) | 2.r..._ _ ....| | | | ) } | I r r L P I I I } } | | | | ;.;.;.i.E 7 % O & o 7.cXvXxX#XD.a.a.4.f.V.V.F.2.:.;.K K | ) :.a.S.Z.f.>.O._ 4.F.B.f.4.p.Z.h.h.).$X$XN.C.jXrX#XL.[ / ] C.+X].h.J.).].E.^ N m # $ & 0.1X;XW.8.H L L L F F F H W L F H P E W } L r L I I E H G H I I H F H H G L r x L x x L L E P P P P L P P R R X.o.c 6 f & O , :XqXtXpXR.:.=.:.1.<.<.4.<.<.<.4.r...) -.r.-.1.2.1.1.2.&.:.Z.L.Z.^.H.^.).C.C.:._ :.5.f.f.f.4.4.4.<.<.1.:...| _ -.o.0 g * ; @ h 1X,X6XyX@.) r.2.4.2.2.2.:.:.:.=.:.:.2.4.2.:.=.4.4.1.....) _ 2.1._ _ >.4.>.:.4.>.2.1.-.;.....-.T } } } _ T _ | W 6 6 f ; + + 4 :X<XQ.N.o.x V M U I  .X. .I F e K H J T | | } _ ) ` :.2.2.2.-.) .._ ) | 1.1.| ) _ r.....-.I J L I I .._ u.y.B.X.0 f l & 2 > ! FXcXyXeX4.4.:.a.<.B.V.Z.Z.Z.V.Z.Z.Z.V.V.g.5.5.V.Z.Z.F.(.^.^.F.Z.f.4.f.<.g.^.^.Z.^.L.L.Z.Z.(.(.!.Z.Z.:./ ` 2.W.o.V S A = O 3 n.1X2X<Xt.} -.u H P L o.} } I r U X.-.I I } L L P F | | I I K p ) 1.) ....X.1.2.1.| p p 2.X.=.2.=.1.-.| X.X.q.q.E q 0 6 ",
"7XuXyXyXt.y.1.:.:.1.1.1.1.| ) -.) X.2.1.1.q.1...| X.-.| I H J I R _ ;.-.-.-..._ Y _ _ _ ...._ -.w.2.2.5.5.<.1.1.8.6 6 * & O l 9X<X>XD. .X. .e e e T } X.K X.} H } -.| -.| u u P R T } | ..R P | | ......-.2.1.....p K 1.1.1.2.X.1.O.:.:.=.1.w.X.0 f = & X b 2X;X4XT. .X.X.) | } T P F u F e x x H U } | I ) 1.1...) _ | -.| | X.| ) | ..I r r L I I I T } | | | _ | ;.;.;.i.E = # X & $ 9.cXlXiX#XG.f.a.4.f.S.S.4....._ p J ....:.a.S.S.f.>...` 4.F.B.f.4.p.Z.f.Z._.@X@Xs.C.jXsX#XR.[ / ] B.].G.s.H.XXOXE.^ M m # o & 0.1X;XW.X.I I I L H H L I I J F F H L W } H r L W I W H F H I W L G F F e L 6 x G x x L G P P P P P P I I J J } Q c 8 f % O 2 :XqX6XeXD.` _ -.4.4.<.<.<.4.:.4.r.` K X.w.X.-.1.:.1.<.&.*.C.Z.g.^.L.^.).h.B.:._ :.4.f.f.f.<.:.:.:.:.:.-....._ ;.} 6 g * ; X l qX8X6XtX@.) r.2.4.4.2.2.:.:.:.` =.:.2.2.2.=.` 1.2.:...| ) _ r.1._ ` >.4.:.:.4.:.:.=.=...| -.-.W } } } T R R } E 7 6 f 2 + o 3 :X<XT.N.o.x c x H I  .X. .I u r I J P } -.-.| _ ) ` :.>.<.2.-.) -._ ) | 1.2...) ) r...| ..J H I I K ..) t.r.y...0 f l & 2 @ 7.HXcXiXeXa.4.:.a.<.B.V.Z.Z.Z.V.Z.Z.Z.V.g.f.f.g.V.Z.Z.^.`.^.^.^.Z.f.<.4.<.g.^.^.Z.^.^.F.Z.F.^.(.!.Z.Z.:./ ..2.Y. .M S A & O 3 n.1X2X<Xt.} -.r H Q x  .}  .U r H o.W e r H J P H e o.-.T I K J _ 1.) ` ` | -.w.w.| p H 2.| ..1.` 1.1._ ..X.q.8.E 0 9 6 ",
"7XuXiXyXr.2.2.=.1.4.2.1.-.) Y | | +.e.1.1.q.q.+.X.X.o.} T L J J ) | -.-..._ _ _ _ ) ) _ | | =.1.w.2.1.>.4.4.3.+.8.0 * 8 % X b 1X<XW.N.o.q.} r I e J | -.T e e I i.| T P P T J u T T } } R J Y -.| ....| ..1.1...) H I -.1.X.-.1.1.| ..=.;.2.w.X.6 f % & X b 2X;X<XT.I o.| | T } R P J F G G x x x H I W ) ) | ..) ) _ | ....-.| -...| -.o.e r I L I I T } } | | R _ ;.;.| X.E 0 * # & o 7.8XtXiXE.a.C.M.a.D.y.y.1...-._ u H | | &.f.D.B.B.:._ ` 4.F.f.Z.f.<.Z.f.h.+XOX&Xd.K.aXaX#XD.' ' <.C.].H.p.J.).+X].U C n $ X $ 0.2X2X<Xo.H I I H F L W I G F F G L I W } W L H J I I L F L L L L L H F e G G G G x x G G E P P P P P P I P J } o.g 6 ; & X 4 :X0X6XiXB.( Y ..4.4.<.<.<.<.:.<.1.` ) -.1.-.r.=.:.4.4.:.:.f.Z.Z.C.].[.Z.K.B.:._ :.4.4.B.B.4.>.:.:.:.2.2.-.| Y _ o.6 6 * & $ v 1X8XlXtX@.X.t.2.2.2.2.4.5.2.` ` :.:.:.4.4.:.:.:.:.:...| | 1.2.2.) _ 2.<.<.4.<.:.:.1.=...| | -.} | } } ) T _ | Q 6 6 f 2 + X 2 ;X8X2XW.8.L z x e I o.|  .I u F } T R } ....| | ) =.4.4.1.:.:...1.X.| ..1.2.-.) 1.-.....X.I H I K I Y ) r.1.B.X.z * $ 2 : @ ! HXvXiXpXa.B.:.,.:.f.V.Z.Z.Z.V.V.Z.~.V.f.<.<.g.Z.(.Z.^.^.^.^.`.Z.f.<.f.Z.Z.Z.Z.~.^.^.Z.Z.^.Z.Z.~.Z.~.` / ..S.T. .N B b = $ 3 v.1X2X<Xt.) Y H H o.E  .} X.} H I W u e J W T H u P W T ) Y J K ) ..X...X...| ..-.W e ) -.-.| ....| | | ..+.8.i.^ 7 z * ",
"7XuXyXeXr.r.1.1.=.2.1.O.X.) T .. .+.q.+.X.X.X.X.X.X.| } I L J J _ ..-.-.-.=....._ ) ) _ ..| =.1.w.2.1.2.4.4.3.+.o.6 6 f % X b 1XQ.>XT.o.o.{ r J I I } X.} H H L W P J J P P J u T T T T P J Y | | ....| ..1.1...K p I -.-...X.X.-.| -.1.2.2.w.o.6 f # & X b 1X2X<XT.I o.| | T | T K H u x G G G x F L I }  .| | ) ) _ | ....-.| ;.| | X.o.F r L L I I T W } | | _ _ %.;.| X.E 6 * X & X ! 8X,XtXW.a.B.a.4.B.4.r.-._ | Y e J X.| ` a.D.B.a.:.) ` a.F.f.f.4.<.Z.f.h.OX+X&Xd.C.rXrXrXK.' ' <.C.].L.p.J.).+X].a U m = X & 0.2X;X<X .H L H r r H I I L L L L P E } } W L H H L I L F L L L L L H F e G G G G x x G G E P P P P P P I P J } Q 6 = ; & O 4 :X9XtXbXB./ ` 1.4.4.<.<.<.<.:.>.:._ ) ..-.-.1.1.4.B.4.*.<.g.Z.Z.h.).[.Z.Z.f.` ` :.f.B.B.B.<.<.>.:.1.2.1.-.| Y } X.0 g ; % O v 1X,XtXtX+.X.t.2.4.2.2.2.2.:._ ` :.:.:.4.4.:.:.:.:.:...| | 1.2.X.) ..4.<.>.<.<.:.>.1.-...| ..-.W } } } ) ) _ | Q 6 6 f 2 + o , ;X8X<X<X8.x z x x I } o.o.I u u } T T | -...| .._ =.2.2.1.:.:...-.| ) _ X.-.| ) -.-...-.1.) J T I Y ) ) r.1.y...0 = % 2 2 @ ! FXvXiXeXa.B.:.<.<.B.V.Z.Z.Z.V.V.V.Z.V.g.5.5.B.Z.(.^.^.Z.Z.^.`.Z.g.<.f.Z.^.F.Z.^.^.^.Z.~.^.Z.Z.~.V.B./ / :.S.Y. .M C b = $ 3 n.1X<X>Xt.Y P H H o.Q }  .o.L e e H e H I } } I I } -.W T K J K ) ..X...X...| ..X.T e J ..X.X.1.-.) ) )  .8.e.N.o.7 0 * ",
"7XzXyXeXw.w.1.:.=.1.X.| | ) T X.X.+.8.+.o.o.X. .X.X.| T I J L I ....-.1.1.1.-..._ ) ) _ ..| ;.1.w.2.2.2.4.<.4.1.o.0 6 f = X v :XQ.tX>Xo.I I e I o.} W } } L F F G G P P T T P P | } W T P J T | | ....| | -.-.| p p T 1.-...-.X.| ) _ ;.;.w.r.o.6 6 # & X b 1X2X2XT.I  .| | T | } R F e r x G P x x x U W  .| ) ) ) _ | ....;.| ..) T | o.J r H L P I T W } | | ..| | | | X.E 6 * X & X ! 8X<XtXR.3.a.4.<.r.2.2.=...| P r L -...` a.Z.B.4.` / ` B.F.f.4.<.,.h.f.h.OX+X@Xd.C.rXrXkXR.' ' <.B.(.Z.p./.).+X].U U m $ O & 0.2X;XT. .F G F r r G P P P P P P E W W W E P F G L P L G P L P P P P G F G P L G x x G G P P P L L P P I I H W E 6 = ; % O 4 :X0XlXbXM.d :.4.r.<.1.>.4.4.:.>.=./ Y _ ......2.B.B.<.:.4.B.h.Z.C.`.].Z.D.4.` ` 1.B.B.B.y.>.>.>.:.:.X.....| Y | i.w g 8 % X l 1X<X6XtX+.+.t.2.4.2.2.2.2.-._ =.:.=.=.r.2.=.1.:.:.:...| | :.2.| ) :.4.<.>.<.<.>.>.:.=.......-.T W } | } _ _ | Q 6 6 f 2 + o , ;X1X2X<Xo.x g x x P W o.o.L e e T T } ..;.| | ....:.1.:.:.1.1...| ) ) ) ) | ) ) ..-...-.q.| I T T ) ) _ r.1.r. .6 # O 2 2 + ! FXlXxXeXa.a.:.4.4.B.V.Z.Z.Z.V.V.V.g.g.g.g.V.Z.~.~.^.^.H.Z.H.^.^.Z.f.g.Z.^.F.Z.Z.^.^.Z.F.^.Z.F.~.V.:.s _ 3.Y.W. .t V b % O 3 v.1X,X4XA.I J H H 8.} Q o.W x r r e H U I W W T W o.-.} T K J K _ | _ ......| ..X.I e I ..X.X.1.-.| |  . .o.8.t.o.7 6 8 ",
"7XxXyX4X2.2.=.-.=.:...) | ) ) X.8.8.8.+.o. .o.X.X.X.} I J J I Y ;.....=.2.1.-..._ ) ) _ ..| ;.1.w.2.2.>.4.<.4.1.o.0 f f & X v :X<XyX3Xo.U U H T | } } } I F e e G P I W W W W W -.X.} T I R T | | ....| ..X...| u p | 1.-.-.-.....| ) _ %.w.t.8.6 * # & X b 1X2X2XU.I  .| | ) | } R F e e G L E x x G U I } } ) ) ) _ | ....;.| ..) I ) o.I e F H L I T W } | | ;.| _ _ } X.E 6 * O & o 7.8X,XuXR.,.4.3.1.r.2.w.r.-.| J r I i.| _ a.Z.B.4.` ) :.B.S.B.<.,.<.g.f.j.+X+X=Xd.C.pXrXNXL./ ( 4.f.Z.f.p.J.).+X}.^ U m * O & 0.2X;XT. .r x F F G P L F P P P P P P P P L G F G L P P G L H G G L P P H L L L L G F G H P L L L L P P I R J W E 6 = ; % O 4 :X0XtXiX4.s 1.r.r.<.1.<.4.4.>.>.` / K ) | | _ 4.B.f.<.<.a.f.g.Z.C.'.].Z.C.,.) ` 2.r.4.4.4.:.:.:.:...) ) ) | R | i.0 g ; % X l :X<X,X3X+.1.r.2.2.2.4.r.2.1.-.=.1.=.=.r.2.=.1.:.:.1..._ _ ..1.X._ :.4.<.>.<.>.>.>.:.=.......-.T W } | | | _ } Q 6 6 f 2 + o , U.<X2X<XE g c c r P o.o.o.H r u I I T | | | } | :.:.:.:.1.2.1.-._ ) ) ) ) ) ) ) X.-...X.-.} I T I ) ) _ t.1.r. .0 # X : : @ ! FXlXiXpXa.4.:.4.B.B.V.V.Z.Z.V.V.V.5.5.5.g.V.Z.~.~.^.^.Z.Z.^.^.H.Z.j.Z.Z.^.F.Z.Z.L.L.Z.~.^.Z.~.F.5.' s ` 4.Y.R.) t C k O O 2 0.1X,XyXT.T K H H o.o.Q o.U r e e e I U L L L P T W | } T J K ) _ ) K | ....| o.| L e  .X...| X...| X.1.X.o.o.8.{ = 6 ; ",
"6XzXtX3X2.2.2.-.-.-.| ) | ) } -.8.8.8.+.o. .o.X.X.X.} I J J I T ;..._ =.1.1.-._ _ ) ) _ ......1.w.2.2.>.4.<.4.q.o.g f f & O v ;XlX4X>X8.^ U u I T } o.} H r r e P P P I P P T T X.| T P P T | | ) | ....X...| } u J | 1.X.-.-.| X.X.-...| -.i.Q 6 * # & X b 1X2X2XU.I  .| | ) _ _ R J F F G L E G G P P P I T ) ) ) _ | ....;.| ..) K Y X.W F F H H I T W } ) ) ;._ _ R W o.L 6 * X & o 7.9X6XxXR.,.3.4.1.4.2.r.r.;.} J r T q.| ` f.S.B.4.] ` >.B.Z.D.<.<.f.f.k.j.+X$X=Xa.D.rXrXaXN.d ( f.a.g.p.k./.`.+X}.^ U m * O & 0.2XQ.T. .r e F G L P L G P P P P P P P H G F x G P P L x F F F F L P P P L P P L G F G H I L L J J L L P R H I E 6 = ; % X 4 :XqX,XeX3.d :.2.4.4.2.<.4.<.<.:.` / Y ) | | =.4.B.4.4.f.f.a.g.L.Z.'.].Z.B.:.) ` 2.4.:.1.<.:.:.:.:...) T T ) _ | 8.6 8 * % O l 1X<X>X3X8.1.r.w.2.2.r.r.2.:.-.=.1.=.=.2.2.=.1.1.1.1...) ) | -.2...-.>.1.<.<.:.2.:.-.=.....-.-.T T ) | | | _ | } 6 6 3 ; + o < v.2X2X<XE g c V 6 L o.o.o.G e H J I T | | } _ _ 1.1.1.:.>.2.1.:.| _ ) ) | | | ..1.1...| | T J T I T ) _ y.1.y...z = X & O @ ! FXlXxXpXa.a.:.B.Z.V.Z.Z.Z.Z.V.V.g.5.5.5.5.V.~.(.(.^.^.^.^.^.^.Z.Z.Z.Z.^.^.~.Z.F.F.L.Z.F.(.F.~.F.4.' / :.4.S.D.' t S b # O 3 v.1X1X4XA.) Y p e } } } o.H r H U H E I P L L I T W W T I J K ) ..) p ) | ..| | W H e o.X...| X.| T } X.X.X.o.8.E = 9 ; ",
"6XtXtX3X1.w.2.2.1.X.) ) | } } -.X.+.+.+.o.{  .X.X.o.} I J J I W ...._ ..-.-..._ _ ) ) _ ......1.w.2.2.>.>.<.4.e.o.z g f & O b ;XlX>X<Xt. .I e H I } o.W F r e J I I P P P P P T P P P J P T | X.Y } ..X...} T I p J | ..| X.X.T H I | _ R ;.X.E 6 * # & X b :X;X2XU.I  .| ) ) _ _ R P J P P E E G L E P P I T ) | ) _ | ....;.| ;.| I Y X.| H e F H L T W } ) ) .._ | _ T o.P 6 # X $ X 7.8X6XxXW.@.3.3.<.4.2.y.w.R P J u W q...` f.Z.B.f.:...<.B.B.Z.<.,.h.f.p.j.+X$X=Xp.K.rXrX#Xa.s O.B.a.f.f.k./.`.[.}./ U m * O & 0.2XQ.T. .e e e e x G P P P P P P P P P P G x x G L P G e x x x F L P P P P P I L H H H J I I L J J L L K Y H I E 6 6 ; % X , m.qX<XW.:./ ..1.4.<.4.4.4.<.<.:.` / ) ) | ..2.5.f.4.4.g.f.<.f.L.Z.'.'.D.M.` ) ..r.4.=.:.<.` 1.1.1.X.| ) } | _ | 8.6 6 * % $ l 1X8X,X>X+.1.r.r.2.2.r.2.-.` ` -.1.=.=.2.2.=.1.1.1.1...) ) _ X.w.....>.>.<.<.:.2.1.-.......-.-.T T T } | | | | o.6 6 3 ; O o 4 v.;X2X<XL g D c c G E o.o.L e J I I T | ..| | ..1.1.1.:.:.:.1.:..._ ) ` ..-.-.-.1.1...) ) I J I I T ) | y.1.y...c * X O + @ ! FXvXxXpXa.B.<.B.D.Z.Z.Z.Z.Z.V.g.g.g.5.4.5.V.~.(.(.^.^.^.^.`.H.Z.Z.Z.Z.Z.Z.Z.~.F.L.Z.Z.^.F.Z.~.F.>._ / <.M.D.D.' t { b # $ 3 v.1XlX>Xr.I K u r E Q o.{ H e U I L L I I L L P I P P J J K Y | X.) K ) | X.| I L L H }  . ...X.) p p I U I { o.V - 6 8 ",
"7XzXtX3X1.2.2.2.1.1.) ) | } } X.8.8.8.8.o.{ { o.o.o.} I U L I W ....| ..;..._ ) _ ) ) _ | | ..1.w.2.2.>.>.>.4.e.o.z g f % O b ;X5X>X<XX.H U H H } } T J u F J I W W P P P P I T J I T T T | X.X.I } ..X.| I H u J I | | ) X.X.I y e K J p R o.E 6 * # & X b :XU.2XT.I  .} ) Y _ ) R R P P E E E G L L P P I T T | ) _ | ....;.| -.X.) T X.X.L F F H L I W } ) ) | | ;.| } o.L 6 # - $ X 7.8X6XxXW.@.3.4.4.r.2.y.2.P J I J } i...` 4.B.B.B.<.:.4.B.B.Z.&.&.j.f.f.h.[.+X=Xa.D.rXrX#Xa./ ,.C.<.f.f.f.^.`.[.$X/ E m = X & 0.2X;XW. .e x x x x G L Q E E E E E E P P L G x x L L G x G G G G L E E P P I I I J J J L I I P J J J P K Y F I E g 6 8 % O , v.<XQ.W.:./ :.2.4.<.<.4.4.<.4.>...` | | ....4.5.4.5.5.f.f.a.f.Z.Z.(.'.D.a._ ) X.t.r.:.1.1.` 1.1.1.-...| } | _ | 8.6 8 ; & $ v 8XlX6X>X@.+.t.w.2.2.r.2.;._ | -.2.-.-.2.2.=.1.:.:.:...) ) | X.-.| :.>.>.<.4.:.4.1.=.....;.-.-.W T T ) | | ..| o.6 6 3 & + o 4 U.;X2X,XL c D c c x G E o.I F H T I R } ..| | | =.:.1.:...=.-.-.| ) ) ` -.2.1...-.1...) ) I H L I ) | | y.1.y. .z = - & + o ! FXcXxXeXa.B.4.B.B.F.Z.V.V.Z.V.g.f.g.5.4.f.Z.(.(.(.`.^.^.^.^.j.Z.^.^.H.Z.Z.Z.~.~.^.Z.Z.(.F.F.(.F.:.' _ y.B.D.D.' t { b # $ 3 0.1XlX>Xq.u p p e W Q W H x H H I I L L L L L L L P P T Y Y ) | X.| K | ....W H e P } W  . .X.-.T e e H e e M { V - * 8 ",
"zXxXtX3XX.-.;.-.1.1.) ) ..| } X.8.8.8.8.8.{ { o.o.o.} I L L I W ............_ ) _ ) ) _ | | ..1.w.w.2.>.>.>.4.r.o.z g f % O b ;XlX4X<XE 7 M I I o.T F e u J I I P L P P P T T P T | X.| | X.-.-.I ) ..X.} H r y T ) | } ) X.X.J H J I u y H | Q 6 * # &   v :XU.2XT.E  .} ) Y ) _ ) R P P E E E L G G L E W W Y | ) _ | ....;.| -.-.} ) X.X.I F F H L I W } ) ) _ | ;.;.} o.E 6 * X & o 7.8X6XuXW.O.3.3.4.4.2.y.r.K J T I } 8...` 4.B.B.B.<.>.4.D.B.B.` ` j.f.h.f._.+X=Xa.D.rXrXhXD.' 4.C.,.<.<.f.^.`.[.}.^ E m $ X & 0.2X;XW. .r x G G G G L E P P P P P P E E P G r r G L G G G G G L E E E P L I I I L J J P I P K J J J J K Y J T Q c 6 8 # & + 9.;XQ.W.:./ 1.2.4.<.<.4.4.<.4.>...` X.X.X.-.y.5.f.f.5.4.a.f.a.Z.Z.(.(.C.4./ Y -.A.B.1.2.2.` 1.:.1.X...| } ) _ | i.0 g ; & $ v 9XcX6XW.X.X.t.2.2.2.r.w.-...-.-.2.-.=.2.2.=.1.-.:.-.| ) ) | 1.) ` 1.<.>.<.4.>.4.1.=.....;.-.-.W T Y T | | ....o.6 6 3 & + o 4 U.;X2X5XE c D 8 c x r L 8.W F e I J P T | | _ _ _ :.:.=.` ` ....| ) ) | 1.w.1...X.1...) } T J J T ) | ..y.1.r.| 0 # - & 2 + 7.FXcXxXeXa.D.4.B.B.F.Z.V.Z.Z.V.g.5.f.4.4.g.Z.(.(.^./.^.^.^.^.j.Z.`.^.Z.Z.Z.Z.~.~.^.Z.Z.(.F.F.(.V.:./ ` B.B.S.D.' U E k X O 3 0.1XlX4X+.r u J L o.o.M r e U F U W L L L I I I I P P ..| | ) | | ) K ....o.I r r P 8.o. . . .X.T H H } M r w E V # f 8 "
};
