/* XPM */
static char *_63b580af0a343b9aaa9437ea904256ezuIksqrMP5CmEn2A[] = {
/* columns rows colors chars-per-pixel */
"289 291 254 2 ",
"   c #010101",
".  c #090806",
"X  c #0C0C0C",
"o  c #110201",
"O  c #0F100E",
"+  c #14130D",
"@  c #131313",
"#  c #191916",
"$  c #1B1B1B",
"%  c #230000",
"&  c #25160B",
"*  c #341100",
"=  c #043004",
"-  c #1F211E",
";  c #23221D",
":  c #2B261B",
">  c #352914",
",  c #242423",
"<  c #272826",
"1  c #2B2B25",
"2  c #2B2C2B",
"3  c #322E27",
"4  c #2F302E",
"5  c #31322E",
"6  c #393629",
"7  c #202139",
"8  c #343433",
"9  c #383A36",
"0  c #3B3B3B",
"q  c #481208",
"w  c #7C1514",
"e  c #462211",
"r  c #562312",
"t  c #4F3311",
"y  c #682F13",
"u  c #7C1E23",
"i  c #48392B",
"p  c #782C26",
"a  c #673323",
"s  c #7C2939",
"d  c #186913",
"f  c #177510",
"g  c #3E403D",
"h  c #714F11",
"j  c #47452F",
"k  c #494735",
"l  c #41423D",
"z  c #574A30",
"x  c #544C3A",
"c  c #664828",
"v  c #764422",
"b  c #755D2E",
"n  c #715031",
"m  c #765835",
"M  c #282E55",
"N  c #543255",
"B  c #7A2E45",
"V  c #79314A",
"C  c #7C324C",
"Z  c #6A3754",
"A  c #7B3553",
"S  c #78375A",
"D  c #6E3C6A",
"F  c #763C65",
"G  c #7B3D63",
"H  c #733E6B",
"J  c #6F3F71",
"K  c #394272",
"L  c #434443",
"P  c #4B4541",
"I  c #464844",
"U  c #4A4B44",
"Y  c #4B4D4B",
"T  c #534D43",
"R  c #4E504D",
"E  c #595647",
"W  c #545453",
"Q  c #595A54",
"!  c #5C5C5B",
"~  c #625D4A",
"^  c #6B5D52",
"/  c #5D625B",
"(  c #6D644B",
")  c #696755",
"_  c #736E5A",
"`  c #77735C",
"'  c #4F4F72",
"]  c #7A416C",
"[  c #6D4175",
"{  c #6D447B",
"}  c #734274",
"|  c #7A4677",
" . c #73457B",
".. c #646463",
"X. c #686965",
"o. c #6B6B6B",
"O. c #6E6F6E",
"+. c #7A7864",
"@. c #787977",
"#. c #8C1C15",
"$. c #871D19",
"%. c #931D14",
"&. c #9A1F12",
"*. c #A11F11",
"=. c #8D231C",
"-. c #94231B",
";. c #982719",
":. c #9A321B",
">. c #A4321C",
",. c #892528",
"<. c #942925",
"1. c #9A3626",
"2. c #842934",
"3. c #892B34",
"4. c #832C3B",
"5. c #89323A",
"6. c #913431",
"7. c #A33B23",
"8. c #F3191D",
"9. c #8D5D19",
"0. c #904C2E",
"q. c #875533",
"w. c #A94729",
"e. c #AD5230",
"r. c #B45B34",
"t. c #8F6935",
"y. c #B96738",
"u. c #AC733A",
"i. c #C04A29",
"p. c #C36C37",
"a. c #C3753C",
"s. c #822E42",
"d. c #863345",
"f. c #83344B",
"g. c #923845",
"h. c #833A56",
"j. c #803E62",
"k. c #914F4B",
"l. c #AB5842",
"z. c #91704B",
"x. c #B26E4D",
"c. c #824368",
"v. c #837E68",
"b. c #8A7A75",
"n. c #B97866",
"m. c #C57B46",
"M. c #C77752",
"N. c #C37A60",
"B. c #188A13",
"V. c #28981B",
"C. c #32AF28",
"Z. c #48B32B",
"A. c #3FC335",
"S. c #49C939",
"D. c #71D732",
"F. c #768F72",
"G. c #5DE14E",
"H. c #AF8852",
"J. c #89846A",
"K. c #888675",
"L. c #938D71",
"P. c #999479",
"I. c #A89466",
"U. c #AC956F",
"Y. c #CA8748",
"T. c #CE9150",
"R. c #D49956",
"E. c #DAA658",
"W. c #D6AB5C",
"Q. c #E2B75C",
"!. c #D09069",
"~. c #E28D6F",
"^. c #DAA868",
"/. c #D9B06F",
"(. c #E2B867",
"). c #E3B977",
"_. c #E6C05F",
"`. c #E9C768",
"'. c #E8C678",
"]. c #EED472",
"[. c #394382",
"{. c #595E9E",
"}. c #6B4682",
"|. c #6D4985",
" X c #674A8D",
".X c #6C4B8B",
"XX c #734A84",
"oX c #744D89",
"OX c #76518D",
"+X c #674E95",
"@X c #6A4E93",
"#X c #6C5096",
"$X c #66519D",
"%X c #6A529B",
"&X c #735496",
"*X c #6554A4",
"=X c #6A55A3",
"-X c #6C58A6",
";X c #6457A9",
":X c #6459AD",
">X c #6A5AAC",
",X c #715AA5",
"<X c #635BB4",
"1X c #695EB3",
"2X c #615EBB",
"3X c #6360BE",
"4X c #6961BA",
"5X c #7675B0",
"6X c #5F62C5",
"7X c #5364C9",
"8X c #5E65CC",
"9X c #5D67D1",
"0X c #5D69D5",
"qX c #5C6CDC",
"wX c #5F71DD",
"eX c #6162C3",
"rX c #6166CA",
"tX c #6168CE",
"yX c #737BC4",
"uX c #6069D2",
"iX c #5B6EE0",
"pX c #5B6EE1",
"aX c #5D70E1",
"sX c #6476E2",
"dX c #93798B",
"fX c #7B86D6",
"gX c #8A8B89",
"hX c #918F8C",
"jX c #989688",
"kX c #989896",
"lX c #A29B85",
"zX c #9FA19E",
"xX c #AAA587",
"cX c #B0AB8F",
"vX c #BBB694",
"bX c #918FAE",
"nX c #A7A8A6",
"mX c #B5B5AF",
"MX c #C7B995",
"NX c #DBBA92",
"BX c #CEC398",
"VX c #E9C888",
"CX c #EED393",
"ZX c #F4E19B",
"AX c #D1CDAD",
"SX c #EFD9AC",
"DX c #F5E4AA",
"FX c #F5E6B7",
"GX c #8A8DC9",
"HX c #DBD6CC",
"JX c #F8EFD0",
"KX c #EDEAE5",
"LX c #FDFBE6",
"PX c #FEFEFB",
/* pixels */
"pXpXpXpXpXpXpXpXpXpXpXpXpXpXpXpXpXpXpXpXpXpXpXpXpXpXpXpXpXpXpXpXpXpXpXpXpXpXpXpXpXpXpXpXpXpXpXpXpXpXpXpXpXpXpXpXpXpXpXpXpXpXpXpXpXpXpXpXpXpXpXpXpXpXpXpXpXpXpXpXpXpXpXpXpXpXpXpXpXpXpXpXpXpXpXpXpXpXpXpXpXpXpXpXpXpXpXpXpXpXpXpXpXpXpXqXpXqXqXqXqXpXpXpXpXpXpXpXpXpXpXpXpXpXpXpXpXpXpXpXpXpXpXpXpXpXpXpXpXpXpXpXpX0XpXpXpXpXqXpXpXpXpXpXpXpXpXpXpXpXpXpXpXpXpXpXpXpXpXpXpXpXpXpXpXpXpXpXpXpXpXpXpXpXpXpXpXpXpXpXpXpXpXpXpXpXpXpXpXpXpXpXpXpXpXpXpXpXpXpXpXpXpXpXpXpXpXpXpXpXpXpXpXpXpXpXpXpXpXpXpXpXpXpXpXpXpXpXpXpXpXpXpXpXpXpXpXpXpXpXpXpXpXpXpXpXpXpXpXpXpXpXpXpXpXpXpXpXpXpXpXpXpXpXpXpXpXpXpX",
"pXpXpXpXpXpXpXpXpXpXpXpXpXpXpXpXpXpXpXpXpXpXpXpXpXpXpXpXpXpXpXpXpXpXpXpXpXpXpXpXpXpXpXpXpXpXpXpXpXpXpXpXpXpXpXpXpXpXpXpXpXpXpXpXpXpXpXpXpXpXpXpXpXpXpXpXpXpXpXpXpXpXpXpXpXpXpXpXpXpXpXpXpXpXpXpXpXpXpXpXpXpXpXpXpXpXpXpXpXpXpXpXpXpX8XpX8X6XpX9XpXqXpXpXpXpXpXpXpXpXpX0X0X0XqXqXpXqXpXpXpXpXpXpXpXpXpXqXpXpXpX6X8X6X6XpXpXqX0XpXpXpXpXpXpXpXpXpXpXpXpXpXpXpXpXpXpXpXpXpXpXpXpXpXpXpXpXpXpXpXpXpXpXpXpXpXpXpXpXpXpXpXpXpXpXpXpXpXpXpXpXpXpXpXpXpXpXpXpXpXpXpXpXpXpXpXpXpXpXpXpXpXpXpXpXpXpXpXpXpXpXpXpXpXpXpXpXpXpXpXpXpXpXpXpXpXpXpXpXpXpXpXpXpXpXpXpXpXpXpXpXpXpXpXpXpXpXpXpXpXpXpXpXpXpXpXpXpXpX",
"pXpXpXpXpXpXpXpXpXpXpXpXpXpXpXpXpXpXpXpXpXpXpXpXpXpXpXpXpXpXpXpXpXpXpXpXpXpXpXpXpXpXpXpXpXpXpXpXpXpXpXpXpXpXpXpXpXpXpXpXpXpXpXpXpXpXpXpXpXpXpXpXpXpXpXpXpXpXpXpXpXpXpXpXpXpXpXpXpXpXpXpXpXpXpXpXpXpXpXpXpXpXpXpXpXpXpXpXpXpXpXpX0XpX0X<XpXqX8X9X8X0XqXpXpXpXpXpXqXqX8XpXpX6X8XpXpXqXqXqXqXpXpXpXpXpXqXpXpXqX<X8XpX0XpX:X9XpXpX0XpXpXpXpXpXpXpXpXpXpXpXpXpXpXpXpXpXpXpXpXpXpXpXpXpXpXpXpXpXpXpXpXpXpXpXpXpXpXpXpXpXpXpXpXpXpXpXpXpXpXpXpXpXpXpXpXpXpXpXpXpXpXpXpXpXpXpXpXpXpXpXpXpXpXpXpXpXpXpXpXpXpXpXpXpXpXpXpXpXpXpXpXpXpXpXpXpXpXpXpXpXpXpXpXpXpXpXpXpXpXpXpXpXpXpXpXpXpXpXpXpXpXpXpXpXpXpXpXpX",
"pXpXpXpXpXpXpXpXpXpXpXpXpXpXpXpXpXpXpXpXpXpXpXpXpXpXpXpXpXpXpXpXpXpXpXpXpXpXpXpXpXpXpXpXpXpXpXpXpXpXpXpXpXpXpXpXpXpXpXpXpXpXpXpXpXpXpXpXpXpXpXpXpXpXpXpXpXpXpXpXpXpXpXpXpXpXpXpXpXpXpXpXpXpXpXpXpXpXpXpXpXpXpXpXpXpXpXpXpXpXpXpXpX8X0X0X;X8X;X2XpXqXqXpXpXpXpXpXpX8X:XpX0XqXeXqX9XqX0X0X0XqXpX0XpXqXqX8X0X<X;X8X6X<X8XpX2X<XpXpXqXpXpXpXpXpXpXpXpXpXpXpXpXpXpXpXpXpXpXpXpXpXpXpXpXpXpXpXpXpXpXpXpXpXpXpXpXpXpXpXpXpXpXpXpXpXpXpXpXpXpXpXpXpXpXpXpXpXpXpXpXpXpXpXpXpXpXpXpXpXpXpXpXpXpXpXpXpXpXpXpXpXpXpXpXpXpXpXpXpXpXpXpXpXpXpXpXpXpXpXpXpXpXpXpXpXpXpXpXpXpXpXpXpXpXpXpXpXpXpXpXpXpXpXpXpXpXpXpX",
"pXpXpXpXpXpXpXpXpXpXpXpXpXpXpXpXpXpXpXpXpXpXpXpXpXpXpXpXpXpXpXpXpXpXpXpXpXpXpXpXpXpXpXpXpXpXpXpXpXpXpXpXpXpXpXpXpXpXpXpXpXpXpXpXpXpXpXpXpXpXpXpXpXpXpXpXpXpXpXpXpXpXpXpXpXpXpXpXpXpXpXpXpXpXpXpXpXpXpXpXpXpXpXpXpXpXpXpXpXpXpXpXeX<XqX1X| eX1X:X0XpX0XpXpXpXpXpX6X0X2X8X@X;X6XpX<X:X6XpXpX8X8X0XqXpXqX6X0X8X-XOX2XqX=XG $X6XpX0XpXpXpXpXpXpXpXpXpXpXpXpXpXpXpXpXpXpXpXpXpXpXpXpXpXpXpXpXpXpXpXpXpXpXpXpXpXpXpXpXpXpXpXpXpXpXpXpXpXpXpXpXpXpXpXpXpXpXpXpXpXpXpXpXpXpXpXpXpXpXpXpXpXpXpXpXpXpXpXpXpXpXpXpXpXpXpXpXpXpXpXpXpXpXpXpXpXpXpXpXpXpXpXpXpXpXpXpXpXpXpXpXpXpXpXpXpXpXpXpXpXpXpXpXpXpXpXpXpX",
"pXpXpXpXpXpXpXpXpXpXpXpXpXpXpXpXpXpXpXpXpXpXpXpXpXpXpXpXpXpXpXpXpXpXpXpXpXpXpXpXpXpXpXpXpXpXpXpXpXpXpXpXpXpXpXpXpXpXpXpXpXpXpXpXpXpXpXpXpXpXpXpXpXpXpXpXpXpXpXpXpXpXpXpXpXpXpXpXpXpXpXpXpXpXpXpXpXpXpXpXpXpXpXpXpXpXpXpXpXpXpXpXpX2XqX=XG eX3X*X2X6X0XqXpXpXpXqX6X6XqX&Xh.@X$XqX*X3X2X8X8X:X2XpX6XpXpX6XqXqX%XOX<X8X-XoXuX0XpX6XqXpXpXpXpXpXpXpXpXpXpXpXpXpXpXpXpXpXpXpXpXpXpXpXpXpXpXpXpXpXpXpXpXpXpXpXpXpXpXpXpXpXpXpXpXpXpXpXpXpXpXpXpXpXpXpXpXpXpXpXpXpXpXpXpXpXpXpXpXpXpXpXpXpXpXpXpXpXpXpXpXpXpXpXpXpXpXpXpXpXpXpXpXpXpXpXpXpXpXpXpXpXpXpXpXpXpXpXpXpXpXpXpXpXpXpXpXpXpXpXpXpXpXpXpXpXpXpXpX",
"pXpXpXpXpXpXpXpXpXpXpXpXpXpXpXpXpXpXpXpXpXpXpXpXpXpXpXpXpXpXpXpXpXpXpXpXpXpXpXpXpXpXpXpXpXpXpXpXpXpXpXpXpXpXpXpXpXpXpXpXpXpXpXpXpXpXpXpXpXpXpXpXpXpXpXpXpXpXpXpXpXpXpXpXpXpXpXpXpXpXpXpXpXpXpXpXpXpXpXpXpXpXpXpXpXpXpXpXpXpXpXqX6X;XqX.X| F -XrX0XqXpXpXqXqXqXqXqX<X+X#Xf.} :X$XqXuX0X;XpX*X#X;XpXqXpXpX:XpXeX] ] 0X;XoX| eX0XpXpXpXpXpXpXpXpXpXpXpXpXpXpXpXpXpXpXpXpXpXpXpXpXpXpXpXpXpXpXpXpXpXpXpXpXpXpXpXpXpXpXpXpXpXpXpXpXpXpXpXpXpXpXpXpXpXpXpXpXpXpXpXpXpXpXpXpXpXpXpXpXpXpXpXpXpXpXpXpXpXpXpXpXpXpXpXpXpXpXpXpXpXpXpXpXpXpXpXpXpXpXpXpXpXpXpXpXpXpXpXpXpXpXpXpXpXpXpXpXpXpXpXpXpXpXpXpXpXpX",
"pXpXpXpXpXpXpXpXpXpXpXpXpXpXpXpXpXpXpXpXpXpXpXpXpXpXpXpXpXpXpXpXpXpXpXpXpXpXpXpXpXpXpXpXpXpXpXpXpXpXpXpXpXpXpXpXpXpXpXpXpXpXpXpXpXpXpXpXpXpXpXpXpXpXpXpXpXpXpXpXpXpXpXpXpXpXpXpXpXpXpXpXpXpXpXpXpXpXpXpXpXpXpXpXpXpXpXpXpXpXpXpXpXpXqXqX3X@X2XeX;XqX8X0XpXpX2XpX0X8X XA 5.c.h.%X*XqXpX0X8X} | 3X*X:XqXpX0X3XpXrXuX;X6X%X0X<XpX8XqXpXpXpXpXpXpXpXpXpXpXpXpXpXpXpXpXpXpXpXpXpXpXpXpXpXpXpXpXpXpXpXpXpXpXpXpXpXpXpXpXpXpXpXpXpXpXpXpXpXpXpXpXpXpXpXpXpXpXpXpXpXpXpXpXpXpXpXpXpXpXpXpXpXpXpXpXpXpXpXpXpXpXpXpXpXpXpXpXpXpXpXpXpXpXpXpXpXpXpXpXpXpXpXpXpXpXpXpXpXpXpXpXpXpXpXpXpXpXpXpXpXpXpXpXpXpXpXpX",
"pXpXpXpXpXpXpXpXpXpXpXpXpXpXpXpXpXpXpXpXpXpXpXpXpXpXpXpXpXpXpXpXpXpXpXpXpXpXpXpXpXpXpXpXpXpXpXpXpXpXpXpXpXpXpXpXpXpXpXpXpXpXpXpXpXpXpXpXpXpXpXpXpXpXpXpXpXpXpXpXpXpXpXpXpXpXpXpXpXpXpXpXpXpXpXpXpXpXpXpXpXpXpXpXpX0X0XpXqXpXpXqX8XpX8X;X%XG <X8XpXpX2X6XpXpX;X;X<X;XD ] 5.] c.|.6X.X:X2X.X} | 3XqXpXpXpX0XpX8X6X<X:X:XpX2XqX0XpXqXqXpXqXpXqXpXpXpXpXpXpXpXpXpXpXpXpXpXpXpXpXpXpXpXpXpXpXpXpXpXpXpXpXpXpXpXpXpXpXpXpXpXpXpXpXpXpXpXpXpXpXpXpXpXpXpXpXpXpXpXpXpXpXpXpXpXpXpXpXpXpXpXpXpXpXpXpXpXpXpXpXpXpXpXpXpXpXpXpXpXpXpXpXpXpXpXpXpXpXpXpXpXpXpXpXpXpXpXpXpXpXpXpXpXpXpXpXpXpXpXpXpXpXpXpXpXpXpX",
"pXpXpXpXpXpXpXpXpXpXpXpXpXpXpXpXpXpXpXpXpXpXpXpXpXpXpXpXpXpXpXpXpXpXpXpXpXpXpXpXpXpXpXpXpXpXpXpXpXpXpXpXpXpXpXpXpXpXpXpXpXpXpXpXpXpXpXpXpXpXpXpXpXpXpXpXpXpXpXpXpXpXpXpXpXpXpXpXpXpXpXpXpXpXpXpXpXpXpXpXpXpXpX0X9X6X6X8X8XpXpXpX8X6X<X X.Xj.{ *XpX<XpXpXeX:XqX2X+X}. XH f.c.d.XX%X;X<XA h..XG ] +X;X6X2XpX0XpXpX8XpXpXpXpX6XpX8XpX0X8XpXpX0XpXpXpXpXpXpXpXpXpXpXpXpXpXpXpXpXpXpXpXpXpXpXpXpXpXpXpXpXpXpXpXpXpXpXpXpXpXpXpXpXpXpXpXpXpXpXpXpXpXpXpXpXpXpXpXpXpXpXpXpXpXpXpXpXpXpXpXpXpXpXpXpXpXpXpXpXpXpXpXpXpXpXpXpXpXpXpXpXpXpXpXpXpXpXpXpXpXpXpXpXpXpXpXpXpXpXpXpXpXpXpXpXpXpXpXpXpXpXpXpXpXpXpX",
"pXpXpXpXpXpXpXpXpXpXpXpXpXpXpXpXpXpXpXpXpXpXpXpXpXpXpXpXpXpXpXpXpXpXpXpXpXpXpXpXpXpXpXpXpXpXpXpXpXpXpXpXpXpXpXpXpXpXpXpXpXpXpXpXpXpXpXpXpXpXpXpXpXpXpXpXpXpXpXpXpXpXpXpXpXpXpXpXpXpXpXpXpXpXpXpXpXpXpXpXpXpX0X8XpX8XpXpXpX2XpXqXqX0XeX.X<Xf.G rX<X2XqXqX$X<X<X$XF 3.s D [ { F @X} h.S S d. .S [ +X<X0X:X0X6X9XpXeX6X2XpX<X6XpXpX8XpX2XpXpXpXpXpXpXpXpXpXpXpXpXpXpXpXpXpXpXpXpXpXpXpXpXpXpXpXpXpXpXpXpXpXpXpXpXpXpXpXpXpXpXpXpXpXpXpXpXpXpXpXpXpXpXpXpXpXpXpXpXpXpXpXpXpXpXpXpXpXpXpXpXpXpXpXpXpXpXpXpXpXpXpXpXpXpXpXpXpXpXpXpXpXpXpXpXpXpXpXpXpXpXpXpXpXpXpXpXpXpXpXpXpXpXpXpXpXpXpXpXpXpXpXpXpXpX",
"pXpXpXpXpXpXpXpXpXpXpXpXpXpXpXpXpXpXpXpXpXpXpXpXpXpXpXpXpXpXpXpXpXpXpXpXpXpXpXpXpXpXpXpXpXpXpXpXpXpXpXpXpXpXpXpXpXpXpXpXpXpXpXpXpXpXpXpXpXpXpXpXpXpXpXpXpXpXpXpXpXpXpXpXpXpXpXpXpXpXpXpXpXpXpXpXpXpXpXpXpXpX8X2XpXqX=X6X<X<X<X0XpX0X;X}.+X] d.|. X;XqX*X#Xd.{ ] -.<.,.S Z D [ s h.<.B s ,.h.h.A F | |.8XpXpXpXpXpXpXpXpX0X2X6XpX0XpX;XqX6X2X8XpXpXpXpXpXpXpXpXpXpXpXpXpXpXpXpXpXpXpXpXpXpXpXpXpXpXpXpXpXpXpXpXpXpXpXpXpXpXpXpXpXpXpXpXpXpXpXpXpXpXpXpXpXpXpXpXpXpXpXpXpXpXpXpXpXpXpXpXpXpXpXpXpXpXpXpXpXpXpXpXpXpXpXpXpXpXpXpXpXpXpXpXpXpXpXpXpXpXpXpXpXpXpXpXpXpXpXpXpXpXpXpXpXpXpXpXpXpXpXpXpXpX",
"pXpXpXpXpXpXpXpXpXpXpXpXpXpXpXpXpXpXpXpXpXpXpXpXpXpXpXpXpXpXpXpXpXpXpXpXpXpXpXpXpXpXpXpXpXpXpXpXpXpXpXpXpXpXpXpXpXpXpXpXpXpXpXpXpXpXpXpXpXpXpXpXpXpXpXpXpXpXpXpXpXpXpXpXpXpXpXpXpXpXpXpXpXpXpXpXpXpXpXpXpXpXpXpXpX#XG <XpXpX6X8X$XeX8X<X] d.f.[ :X<X$X3X| <.G 3.>.>.&.-.A B Z S ,.-.6.=.u $.,.} V j.>X<X8XpXpX8XpXpX;XqXuX0X;XpX<XeX1X,XpXpX8XpXpXpXpXpXpXpXpXpXpXpXpXpXpXpXpXpXpXpXpXpXpXpXpXpXpXpXpXpXpXpXpXpXpXpXpXpXpXpXpXpXpXpXpXpXpXpXpXpXpXpXpXpXpXpXpXpXpXpXpXpXpXpXpXpXpXpXpXpXpXpXpXpXpXpXpXpXpXpXpXpXpXpXpXpXpXpXpXpXpXpXpXpXpXpXpXpXpXpXpXpXpXpXpXpXpXpXpXpXpXpXpXpXpXpXpXpXpXpXpXpXpX",
"pXpXpXpXpXpXpXpXpXpXpXpXpXpXpXpXpXpXpXpXpXpXpXpXpXpXpXpXpXpXpXpXpXpXpXpXpXpXpXpXpXpXpXpXpXpXpXpXpXpXpXpXpXpXpXpXpXpXpXpXpXpXpXpXpXpXpXpXpXpXpXpXpXpXpXpXpXpXpXpXpXpXpXpXpXpXpXpXpXpXpXpXpXpXpXpXpXpXpXpXpXqX8XpXqX>Xj.>X;X:XqX*X&Xc.J eX} f.4.} |.$X;X@XB 6.3.#.;.&.&.&.&.%.u s %.%.;.%.B 2.<.,.S f.XX X$XqXqX;X<X6X*X} | <X0X<X8X*X1XoX*X2XpXqXpXpXpXpXpXpXpXpXpXpXpXpXpXpXpXpXpXpXpXpXpXpXpXpXpXpXpXpXpXpXpXpXpXpXpXpXpXpXpXpXpXpXpXpXpXpXpXpXpXpXpXpXpXpXpXpXpXpXpXpXpXpXpXpXpXpXpXpXpXpXpXpXpXpXpXpXpXpXpXpXpXpXpXpXpXpXpXpXpXpXpXpXpXpXpXpXpXpXpXpXpXpXpXpXpXpXpXpXpXpXpXpXpXpXpXpXpXpXpXpXpX",
"pXpXpXpXpXpXpXpXpXpXpXpXpXpXpXpXpXpXpXpXpXpXpXpXpXpXpXpXpXpXpXpXpXpXpXpXpXpXpXpXpXpXpXpXpXpXpXpXpXpXpXpXpXpXpXpXpXpXpXpXpXpXpXpXpXpXpXpXpXpXpXpXpXpXpXpXpXpXpXpXpXpXpXpXpXpXpXpXpXpXpXpXpXpXpXpXpXpXpXpXpXpXpXpX8X<X&X| <XqX3XH c.c.%X2X$XG f.%X[ |.V H s =.,.$.%.&.%.%.&.;.2.#.&.<.&.%.#.#.-.,.B |.F  X XpXpX<X*X0X8XoX| .XpX<XpXpXtXoX#X<X8X0XpXpXpXpXpXpXpXpXpXpXpXpXpXpXpXpXpXpXpXpXpXpXpXpXpXpXpXpXpXpXpXpXpXpXpXpXpXpXpXpXpXpXpXpXpXpXpXpXpXpXpXpXpXpXpXpXpXpXpXpXpXpXpXpXpXpXpXpXpXpXpXpXpXpXpXpXpXpXpXpXpXpXpXpXpXpXpXpXpXpXpXpXpXpXpXpXpXpXpXpXpXpXpXpXpXpXpXpXpXpXpXpXpXpXpXpXpXpXpXpXpX",
"pXpXpXpXpXpXpXpXpXpXpXpXpXpXpXpXpXpXpXpXpXpXpXpXpXpXpXpXpXpXpXpXpXpXpXpXpXpXpXpXpXpXpXpXpXpXpXpXpXpXpXpXpXpXpXpXpXpXpXpXpXpXpXpXpXpXpXpXpXpXpXpXpXpXpXpXpXpXpXqXpXpXpXpXpXpXpXpXpXpXpXpXpXpXpXpXpXpXpXpXpXpX9X2X8X6X+X+X8X$X$X.Xf.f.| $X X<X}.J D S B 5.,.3.w w $.,.$.$.-.&.#.;.;.1.;.;.<.#.;.%.C s  X$X*X#X+X8X:X2X%X{ | H *X$X3X<XqXqXqX9XpXpXpXpXpXpXpXpXpXpXpXpXpXpXpXpXpXpXpXpXpXpXpXpXpXpXpXpXpXpXpXpXpXpXpXpXpXpXpXpXpXpXpXpXpXpXpXpXpXpXpXpXpXpXpXpXpXpXpXpXpXpXpXpXpXpXpXpXpXpXpXpXpXpXpXpXpXpXpXpXpXpXpXpXpXpXpXpXpXpXpXpXpXpXpXpXpXpXpXpXpXpXpXpXpXpXpXpXpXpXpXpXpXpXpXpXpXpXpXpXpXpXpX",
"pXpXpXpXpXpXpXpXpXpXpXpXpXpXpXpXpXpXpXpXpXpXpXpXpXpXpXpXpXpXpXpXpXpXpXpXpXpXpXpXpXpXpXpXpXpXpXpXpXpXpXpXpXpXpXpXpXpXpXpXpXpXpXpXpXpXpXpXpXpXpXpXpXpXpXpXpXqXqXpXqXpXpXpXpXpXpXpXpXpXpXpXpXpXpXpXpXpXpXpXpXpX0X8XpXpX<XqXeXqX@X} ] | } $X X*X[ } 3.,.-.<.<.#.#.#.p 2.2.V $.;.;.>.w.;.7.7.;.%.<.&.&.-.S D S d.A F F XXf. XD [ <XqX0X6XpXpXpX6X0XqXpXpXpXpXpXpXpXpXpXpXpXpXpXpXpXpXpXpXpXpXpXpXpXpXpXpXpXpXpXpXpXpXpXpXpXpXpXpXpXpXpXpXpXpXpXpXpXpXpXpXpXpXpXpXpXpXpXpXpXpXpXpXpXpXpXpXpXpXpXpXpXpXpXpXpXpXpXpXpXpXpXpXpXpXpXpXpXpXpXpXpXpXpXpXpXpXpXpXpXpXpXpXpXpXpXpXpXpXpXpXpXpXpXpXpXpXpXpXpXpXpX",
"pXpXpXpXpXpXpXpXpXpXpXpXpXpXpXpXpXpXpXpXpXpXpXpXpXpXpXpXpXpXpXpXpXpXpXpXpXpXpXpXpXpXpXpXpXpXpXpXpXpXpXpXpXpXpXpXpXpXpXpXpXpXpXpXpXpXpXpXpXpXpXpXpXpXpXpXpXqXpXqXqXpXpXpXpXpXpXpXpXpXpXpXpXpXpXpXpXpXpXpXpXpXpX8XpXpX2X=X| 3X X+X$XrX0X2X$X*X|.s.-.-.1.%.&.%.&.-.,.u F s C ;.>.>.w.w.w.w.>.;.;.;.&.%.,.} ] 5.-.3. .2.<.V D @X{ 9XpXpX9X8XpX0XpXqXpXpXpXpXpXpXpXpXpXpXpXpXpXpXpXpXpXpXpXpXpXpXpXpXpXpXpXpXpXpXpXpXpXpXpXpXpXpXpXpXpXpXpXpXpXpXpXpXpXpXpXpXpXpXpXpXpXpXpXpXpXpXpXpXpXpXpXpXpXpXpXpXpXpXpXpXpXpXpXpXpXpXpXpXpXpXpXpXpXpXpXpXpXpXpXpXpXpXpXpXpXpXpXpXpXpXpXpXpXpXpXpXpXpXpXpXpXpXpXpXpX",
"pXpXpXpXpXpXpXpXpXpXpXpXpXpXpXpXpXpXpXpXpXpXpXpXpXpXpXpXpXpXpXpXpXpXpXpXpXpXpXpXpXpXpXpXpXpXpXpXpXpXpXpXpXpXpXpXpXpXpXpXpXpXpXpXpXpXpXpXpXpXpXpXpXpXpXpXpXqXpXpXqXqXpXpXpXpXpXpXpXpXpXpXpXpXpXpXpXpXpXpXpXpXpXqX6X<X2XXX| 1X+X X2X*XqX2X+X<X X2.<.<.;.<.%.-.;.>.;.$.u D $.;.7.>.e.e.w.w.w.;.1.-.<.&.&.,.B 5.-.5.s 4.-.d.S XXh.|.pX;X3XpXqXqXpXpXpXpXpXpXpXpXpXpXpXpXpXpXpXpXpXpXpXpXpXpXpXpXpXpXpXpXpXpXpXpXpXpXpXpXpXpXpXpXpXpXpXpXpXpXpXpXpXpXpXpXpXpXpXpXpXpXpXpXpXpXpXpXpXpXpXpXpXpXpXpXpXpXpXpXpXpXpXpXpXpXpXpXpXpXpXpXpXpXpXpXpXpXpXpXpXpXpXpXpXpXpXpXpXpXpXpXpXpXpXpXpXpXpXpXpXpXpXpXpXpXpX",
"pXpXpXpXpXpXpXpXpXpXpXpXpXpXpXpXpXpXpXpXpXpXpXpXpXpXpXpXpXpXpXpXpXpXpXpXpXpXpXpXpXpXpXpXpXpXpXpXpXpXpXpXpXpXpXpXpXpXpXpXpXpXpXpXpXpXpXpXpXpXpXpXpXpXpXpXpXqXpXqXqXpXpXpXpXpXpXpXpXpXpXpXpXpXpXpXpXpXpXpXpXpXpXqXpX0X8XrXG F }.eX}. X3X$X8X+X|.f.-.=.%.,.$.6.>.>.>.1.s w u -.7.e.1.w.y.w.7.-.2.=.#.#.;.5.u A =.-.6.B 3.<.XX .c.$X<XpXpXpXpXpXpXpXpXpXpXpXpXpXpXpXpXpXpXpXpXpXpXpXpXpXpXpXpXpXpXpXpXpXpXpXpXpXpXpXpXpXpXpXpXpXpXpXpXpXpXpXpXpXpXpXpXpXpXpXpXpXpXpXpXpXpXpXpXpXpXpXpXpXpXpXpXpXpXpXpXpXpXpXpXpXpXpXpXpXpXpXpXpXpXpXpXpXpXpXpXpXpXpXpXpXpXpXpXpXpXpXpXpXpXpXpXpXpXpXpXpXpXpXpXpXpXpXpX",
"pXpXpXpXpXpXpXpXpXpXpXpXpXpXpXpXpXpXpXpXpXpXpXpXpXpXpXpXpXpXpXpXpXpXpXpXpXpXpXpXpXpXpXpXpXpXpXpXpXpXpXpXpXpXpXpXpXpXpXpXpXpXpXpXpXpXpXpXpXpXpXpXpXpXpXpXpXpXpXpXpXpXpXpXpXpXpXpXpXpXpXpXpXpXpXpXpXpXpXpXpXpXpXpX8XpX2XqXuX<X#X| }.XX| 3X<X} h.d.<.#.w $.u <.w.7.e.w.=.u 3.:.7.w.:.r.y.y.e.5.u u $.6.=.$.#.5.$.4.5.u s h.} .X| | rX2XpXpXpXpXpXpXpXpXpXpXpXpXpXpXpXpXpXpXpXpXpXpXpXpXpXpXpXpXpXpXpXpXpXpXpXpXpXpXpXpXpXpXpXpXpXpXpXpXpXpXpXpXpXpXpXpXpXpXpXpXpXpXpXpXpXpXpXpXpXpXpXpXpXpXpXpXpXpXpXpXpXpXpXpXpXpXpXpXpXpXpXpXpXpXpXpXpXpXpXpXpXpXpXpXpXpXpXpXpXpXpXpXpXpXpXpXpXpXpXpXpXpXpXpXpXpXpX",
"pXpXpXpXpXpXpXpXpXpXpXpXpXpXpXpXpXpXpXpXpXpXpXpXpXpXpXpXpXpXpXpXpXpXpXpXpXpXpXpXpXpXpXpXpXpXpXpXpXpXpXpXpXpXpXpXpXpXpXpXpXpXpXpXpXpXpXpXpXpXpXpXpXpXpXpXpXpXpXpXpXpXpXpXpXpXpXpXpXpXpXpXpXpXpXpXpXpXpXpXpXpXpXpX0XpX0XpX:X$X .f.|.@Xf.%XJ A 3.,.&.;.#.#.,.-.w.e.w.e.e.4.6.e.w.w.1.r.p.p.e.1.0.$.3.-.2.3.-.#.S S ,.A A s.| *X*X|.$X6XpXpXpXpXpXpXpXpXpXpXpXpXpXpXpXpXpXpXpXpXpXpXpXpXpXpXpXpXpXpXpXpXpXpXpXpXpXpXpXpXpXpXpXpXpXpXpXpXpXpXpXpXpXpXpXpXpXpXpXpXpXpXpXpXpXpXpXpXpXpXpXpXpXpXpXpXpXpXpXpXpXpXpXpXpXpXpXpXpXpXpXpXpXpXpXpXpXpXpXpXpXpXpXpXpXpXpXpXpXpXpXpXpXpXpXpXpXpXpXpXpXpXpXpXpXpXpX",
"pXpXpXpXpXpXpXpXpXpXpXpXpXpXpXpXpXpXpXpXpXpXpXpXpXpXpXpXpXpXpXpXpXpXpXpXpXpXpXpXpXpXpXpXpXpXpXpXpXpXpXpXpXpXpXpXpXpXpXpXpXpXpXpXpXpXpXpXpXpXpXpXpXpXpXpXpXpXpXpXpXpXpXpXpXpXpXpXpXpXpXpXpXpXpXpXpXpXpXpXpXpXpXpXpXpXpX8XpX:X1XoXH @X| | D .X2.3.-.;.-.-.;.w.r.w.y.r.e.1.w.r.y.1.k.y.a.a.y.y.w.1.1.;.7.<.:.%.2.s B A { V Z $X;X$X<X0XpX2XpXpXpXpXpXpXpXpXpXpXpXpXpXpXpXpXpXpXpXpXpXpXpXpXpXpXpXpXpXpXpXpXpXpXpXpXpXpXpXpXpXpXpXpXpXpXpXpXpXpXpXpXpXpXpXpXpXpXpXpXpXpXpXpXpXpXpXpXpXpXpXpXpXpXpXpXpXpXpXpXpXpXpXpXpXpXpXpXpXpXpXpXpXpXpXpXpXpXpXpXpXpXpXpXpXpXpXpXpXpXpXpXpXpXpXpXpXpXpXpXpXpXpXpXpX",
"pXpXpXpXpXpXpXpXpXpXpXpXpXpXpXpXpXpXpXpXpXpXpXpXpXpXpXpXpXpXpXpXpXpXpXpXpXpXpXpXpXpXpXpXpXpXpXpXpXpXpXpXpXpXpXpXpXpXpXpXpXpXpXpXpXpXpXpXpXpXpXpXpXpXpXpXpXpXpXpXpXpXpXpXpXpXpXpXpXpXpXpXpXpXpXpXpXpXpXpXpXpXpXpXpXqX0X8X6X<X2X;X;X2X.X3X}.D V 2.-.%.1.:.7.w.w.r.y.e.r.e.y.a.y.e.k.y.Y.Y.y.r.r.e.0.7.w.w.;.#.w B C 3.C f.F F h.{ 1X<X2X;X0XqXpXpXpXpXpXpXpXpXpXpXpXpXpXpXpXpXpXpXpXpXpXpXpXpXpXpXpXpXpXpXpXpXpXpXpXpXpXpXpXpXpXpXpXpXpXpXpXpXpXpXpXpXpXpXpXpXpXpXpXpXpXpXpXpXpXpXpXpXpXpXpXpXpXpXpXpXpXpXpXpXpXpXpXpXpXpXpXpXpXpXpXpXpXpXpXpXpXpXpXpXpXpXpXpXpXpXpXpXpXpXpXpXpXpXpXpXpXpXpXpXpXpXpX",
"pXpXpXpXpXpXpXpXpXpXpXpXpXpXpXpXpXpXpXpXpXpXpXpXpXpXpXpXpXpXpXpXpXpXpXpXpX{.' _ ) _ ) ~ ~ ) E E ) ) ~ ~ ~ g pXpXpXpXpXpXpXpXpXpXpXpXpXpXpXpXpXpXpXpXpXpXpXpXpXpXpXpXpXpXpXpXpXpXpXpXpXpXpXpXpXpXpXpXpXpXpXpXpXpXpXpXpXpXpX<XpXqX+X} j.+X$X{ V 3.&.-.1.1.7.w.r.r.a.y.y.y.r.Y.Y.y.e.Y.Y.x.a.y.p.r.w.e.e.w.1.,.u B 4.<.2.h.B ] s.} ] <X+X;X2XpXpXpXpXpXpXpXpXpXpXpXpXpXpXpXpXpXpXpXpXpXpXpXpXpXpXpXpXpXpXpXpXpXpXpXpXpXpXpXpXpXpXpXpXpXpXpXpXpXpXpXpXpXpXpXpXpXpXpXpXpXpXpXpXpXpXpXpXpXpXpXpXpXpXpXpXpXpXpXpXpXpXpXpXpXpXpXpXpXpXpXpXpXpXpXpXpXpXpXpXpXpXpXpXpXpXpXpXpXpXpXpXpXpXpXpXpXpXpXpXpXpXpXpX",
"pXpXpXpXpXpXpXpXpXpXpXpXpXpXpXpXpXpXpXpXpXpXpXpXpXpXpXpXpXpXpXpXpXpXpXpXcXL.lXE T x E E x x k k k k k l l l 6 K pXpXpXpXpXpXpXpXpXpXpXpXpXpXpXpXpXpXpXpXpXpXpXpXpXpXpXpXpXpXpXpXpXpXpXpXpXpXpXpXpXpXpXpXpXpXpXpXpXqXpXpXpX0X8X0X2XoXc.@X$X.XA =.*.&.;.<.>.e.w.y.a.x.a.z.n _ ) _ ) ~ ~ ) E E ) ) ~ ~ ~ i w.;.#.u f.-.<.6.s.A h.h.d.>X2X$X2XpXpXpXpXpXpXpXpXpXpXpXpXpXpXpXpXpXpXpXpXpXpXpXpXpXpXpXpXpXpXpXpXpXpXpXpXpXpXpXpXpXpXpXpXpXpXpXpXpXpXpXpXpXpXpXpXpXpXpXpXpXpXpXpXpXpXpXpXpXpXpXpXpXpXpXpXpXpXpXpXpXpXpXpXpXpXpXpXpXpXpXpXpXpXpXpXpXpXpXpXpXpXpXpXpXpXpXpXpXpXpXpXpXpXpXpXpXpXpXpXpXpXpXpX",
"pXpXpXpXpXpXpXpXpXpXpXpXpXpXpXpXpXpXpXpXpXpXpXpXpXpXpXpXpXpXpXpXpXpXpX{.xXcXcXxX+.6 d B.C.S.S.G.G.G.G.S.C.V.f 1 [.pXpXpXpXpXpXpXpXpXpXpXpXpXpXpXpXpXpXpXpXpXpXpXpXpXpXpXpXpXpXpXpXpXpXpXpXpXpXpXpXpXpXpXpXpXpXpXpX8X6X2XeXpXqX<X2X}.h.OX Xs ,.d.&.&.1.=.1.e.r.a.a.Y.cXL.lXE x x E E k x k k k k k l l l 6 r -.B A $.5.d.S  X.X .] ] 3X8XpXpXqXpXpXpXpXpXpXpXpXpXpXpXpXpXpXpXpXpXpXpXpXpXpXpXpXpXpXpXpXpXpXpXpXpXpXpXpXpXpXpXpXpXpXpXpXpXpXpXpXpXpXpXpXpXpXpXpXpXpXpXpXpXpXpXpXpXpXpXpXpXpXpXpXpXpXpXpXpXpXpXpXpXpXpXpXpXpXpXpXpXpXpXpXpXpXpXpXpXpXpXpXpXpXpXpXpXpXpXpXpXpXpXpXpXpXpXpXpXpXpXpXpXpX",
"pXpXpXpXpXpXpXpXpXpXpXpXpXpXpXpXpXpXpXpXpXpXpXpXpXpXpXpXpXpXpXpXpXpXpXP.BXL.cXcXvX_ E E k k x T j j k k k T x x k 9 pXpXpXpXpXpXpXpXpXpXpXpXpXpXpXpXpXpXpXpXpXpXpXpXpXpXpXpXpXpXpXpXpXpXpXpXpXpXpXpXpXpXpXpXqX0X6X<X2X0X2X6X6X:XeX$X@X{ %X| ,.,.#.%.1.1.=.1.y.y.a.t.xXcXcXxX+.6 d B.C.S.S.G.G.G.G.S.C.V.f 1 y 5.B 2.<.,.S B D [ G h.;X$X6XpXpXpXpXpXpXpXpXpXpXpXpXpXpXpXpXpXpXpXpXpXpXpXpXpXpXpXpXpXpXpXpXpXpXpXpXpXpXpXpXpXpXpXpXpXpXpXpXpXpXpXpXpXpXpXpXpXpXpXpXpXpXpXpXpXpXpXpXpXpXpXpXpXpXpXpXpXpXpXpXpXpXpXpXpXpXpXpXpXpXpXpXpXpXpXpXpXpXpXpXpXpXpXpXpXpXpXpXpXpXpXpXpXpXpXpXpXpXpXpXpXpXpXpX",
"pXpXpXpXpXpXpXpXpXpXpXpXpXpXpXpXpXpXpXpXpXpXpXpXpXpXpXpXpXpXpXpXpXpXxXxX: J.vXvXBXBXl d B.C.C.G.G.G.G.G.G.S.S.C.V.f i [.pXpXpXpXpXpXpXpXpXpXpXpXpXpXpXpXpXpXpXpXpXpXpXpXpXpXpXpXpXpXpXpXpXpXpXpXpXpXpXpXpXpXqXpXpX8XqX$X8XpXpX*X8X$X2X|.} h.d.h.u s #.<.=.6.y.m.a.P.BXP.cXcXvX_ E E k k x T j j k k k x x U k 9 w $.<.A B s H H | h. .qX:X<XqXpXpXpXpXpXpXpXpXpXpXpXpXpXpXpXpXpXpXpXpXpXpXpXpXpXpXpXpXpXpXpXpXpXpXpXpXpXpXpXpXpXpXpXpXpXpXpXpXpXpXpXpXpXpXpXpXpXpXpXpXpXpXpXpXpXpXpXpXpXpXpXpXpXpXpXpXpXpXpXpXpXpXpXpXpXpXpXpXpXpXpXpXpXpXpXpXpXpXpXpXpXpXpXpXpXpXpXpXpXpXpXpXpXpXpXpXpXpXpXpXpXpX",
"pXpXpXpXpXpXpXpXpXpXpXpXpXpXpXpXpXpXpXpXpXpXpXpXpXpXpXpXpXpXpXpX2XvXP.xX; P.U.AXBXAXMX+.` +.K.kXjXK.hXjXjXjXK.K.P.J.` x 6 pXpXpXpXpXpXpXpXpXpXpXpXpXpXpXpXpXpXpXpXpXpXpXpXpXpXpXpXpXpXpXpXpXpXpXpXpXpXpXpXpXqXpX6X<X>X] :X8X<XqX;X*XeX$XH h.,.,.F D 2.-.<.0.r.y.xXxX< J.vXvXBXBXk d B.C.C.G.G.G.G.G.G.S.S.C.V.f i r <.#.w $.<.f.V h.A *X<XpXpXpXpXpXpXpXpXpXpXpXpXpXpXpXpXpXpXpXpXpXpXpXpXpXpXpXpXpXpXpXpXpXpXpXpXpXpXpXpXpXpXpXpXpXpXpXpXpXpXpXpXpXpXpXpXpXpXpXpXpXpXpXpXpXpXpXpXpXpXpXpXpXpXpXpXpXpXpXpXpXpXpXpXpXpXpXpXpXpXpXpXpXpXpXpXpXpXpXpXpXpXpXpXpXpXpXpXpXpXpXpXpXpXpXpXpXpXpXpXpXpXpXpX",
"pXpXpXpXpXpXpXpXpXpXpXpXpXpXpXpXpXpXpXpXpXpXpXpXpXpXpXpXpXpXpXpXP.P.` ~ ~ xXxXvXBXvXvXxX) ) ` ) ) ~ E ) E _ _ ) ) _ _ J.` x [.pXpXpXpXpXpXpXpXpXpXpXpXpXpXpXpXpXpXpXpXpXpXpXpXpXpXpXpXpXpXpXpXpXpXpXpXpXpXpXqXpX:XqX4XOX1X*X<X;X} ] =X+X.Xs.3.5.u ,.%.;.6.1.0.vXP.xX; P.U.AXBXAXMX+.+.+.K.kXjXK.jXjXjXjXK.K.P.v.` x 6 #.#.%.<.d.B S .X X<X2XpXpXpXpXpXpXpXpXpXpXpXpXpXpXpXpXpXpXpXpXpXpXpXpXpXpXpXpXpXpXpXpXpXpXpXpXpXpXpXpXpXpXpXpXpXpXpXpXpXpXpXpXpXpXpXpXpXpXpXpXpXpXpXpXpXpXpXpXpXpXpXpXpXpXpXpXpXpXpXpXpXpXpXpXpXpXpXpXpXpXpXpXpXpXpXpXpXpXpXpXpXpXpXpXpXpXpXpXpXpXpXpXpXpXpXpXpXpXpXpXpXpXpX",
"pXpXpXpXpXpXpXpXpXpXpXpXpXpXpXpXpXpXpXpXpXpXpXpXpXpXpXpXpXpXpXpXK.L.~ 9 ( P.L.cXBXAXMXBX+.` ) _ +.` ) E ) ` _ ` _ ` +.J.J.` 1 pXpXpXpXpXpXpXpXpXpXpXpXpXpXpXpXpXpXpXpXpXpXpXpXpXpXpXpXpXpXpXpXpXpXpXpXpXpXpXqX0XpX<XrXOXoX<X<X0X .j.} @XD D H 4.,.%.;.;.,.1.P.jX` ) ~ xXxXvXBXvXvXxX) ) _ ) ) ) E ) E _ _ ) ) _ ` J.` x r <.6.6.f.c.|.eXpXpXpXpXpXpXpXpXpXpXpXpXpXpXpXpXpXpXpXpXpXpXpXpXpXpXpXpXpXpXpXpXpXpXpXpXpXpXpXpXpXpXpXpXpXpXpXpXpXpXpXpXpXpXpXpXpXpXpXpXpXpXpXpXpXpXpXpXpXpXpXpXpXpXpXpXpXpXpXpXpXpXpXpXpXpXpXpXpXpXpXpXpXpXpXpXpXpXpXpXpXpXpXpXpXpXpXpXpXpXpXpXpXpXpXpXpXpXpXpXpXpXpXpXpX",
"pXpXpXpXpXpXpXpXpXpXpXpXpXpXpXpXpXpXpXpXpXpXpXpXpXpXpXpXpXpXpXpXR P.) # J.P.P.cXj cXxXvX) E ) ) E Q ) E ) ) ) ) _ ` ` J.J.J.J.1 pXpXpXpXpXpXpXpXpXpXpXpXpXpXpXpXpXpXpXpXpXpXpXpXpXpXpXpXpXpXpXpXpXpXpXpXpXpXpXpXpX0XqX*X:X<X0X*X%Xf.c.4.s V Z A $.%.1.7.:.1.K.L.~ 9 ( P.L.cXBXAXMXBX+.` ) _ +._ ) E ) +.) ` ) ` +.J.J.` 1 ,.2.A ] d.H *XpX:X9XpXpXpXpXpXpXpXpXpXpXpXpXpXpXpXpXpXpXpXpXpXpXpXpXpXpXpXpXpXpXpXpXpXpXpXpXpXpXpXpXpXpXpXpXpXpXpXpXpXpXpXpXpXpXpXpXpXpXpXpXpXpXpXpXpXpXpXpXpXpXpXpXpXpXpXpXpXpXpXpXpXpXpXpXpXpXpXpXpXpXpXpXpXpXpXpXpXpXpXpXpXpXpXpXpXpXpXpXpXpXpXpXpXpXpXpXpXpXpXpXpXpX",
"pXpXpXpXpXpXpXpXpXpXpXpXpXpXpXpXpXpXpXpXpXpXpXpXpXpXpXpXpXpXpXpXY o._ 3 P.L.P.BXk cXMXSX) k j 9 1 j 6 : : ; : # : # ; ; 6 T T j K pXpXpXpXpXpXpXpXpXpXpXpXpXpXpXpXpXpXpXpXpXpXpXpXpXpXpXpXpXpXpXpXpXpXpXpXpXqXpX<XpX:X8X0XpX<X X+XS ,.3.$.#.B $.-.%.;.:.,.5.R P.) # J.P.P.cXj cXxXvX) E ) ) E Q ) Q ) ) ) ) _ ` ` J.J.J.J.1 s D H G  ..XpX<XpXpXpXpXpXpXpXpXpXpXpXpXpXpXpXpXpXpXpXpXpXpXpXpXpXpXpXpXpXpXpXpXpXpXpXpXpXpXpXpXpXpXpXpXpXpXpXpXpXpXpXpXpXpXpXpXpXpXpXpXpXpXpXpXpXpXpXpXpXpXpXpXpXpXpXpXpXpXpXpXpXpXpXpXpXpXpXpXpXpXpXpXpXpXpXpXpXpXpXpXpXpXpXpXpXpXpXpXpXpXpXpXpXpXpXpXpXpXpXpXpXpXpX",
"pXpXpXpXpXpXpXpXpXpXpXpXpXpXpXpXpXpXpXpXpXpXpXpXpXpXpXpXpXpXpXpXP.W E $ L.J.P.~ _ xXJXLX3 mXmXnXK.3 ) ) +.xXcXcXcXHXmXKXi P.jXK.U pXpXpXpXpXpXpXpXpXpXpXpXpXpXpXpXpXpXpXpXpXpXpXpXpXpXpXpXpXpXpXpXpXpXpXpXpXpXpXpX2X0XpXqX6XpX;X[ B <.&.6.&.,.#.&.<.>.>.-.=.Y o._ 3 P.L.P.BXk cXMXSX) k j 9 1 j 6 < : ; : # : # ; ; 6 T T j i }.D =X|.8X:X<XpXpXpXpXpXpXpXpXpXpXpXpXpXpXpXpXpXpXpXpXpXpXpXpXpXpXpXpXpXpXpXpXpXpXpXpXpXpXpXpXpXpXpXpXpXpXpXpXpXpXpXpXpXpXpXpXpXpXpXpXpXpXpXpXpXpXpXpXpXpXpXpXpXpXpXpXpXpXpXpXpXpXpXpXpXpXpXpXpXpXpXpXpXpXpXpXpXpXpXpXpXpXpXpXpXpXpXpXpXpXpXpXpXpXpXpXpXpXpXpXpXpXpX",
"pXpXpXpXpXpXpXpXpXpXpXpXpXpXpXpXpXpXpXpXpXpXpXpXpXpXpXpXpXpXpXpXK.Y I 6 J.J.P.E P.xXLXPXP.K.K.+._ E i i 6 3 : j j k k k 9 hX) E ~ 7 pXpXpXpXpXpXpXpXpXpXpXpXpXpXpXpXpXpXpXpXpXpXpXpXpXpXpXpXpXpXpXpXpXpXpXpXpX6XpX2X<X%XpX<X8X$X{ } 6.%.#.;.;.#.;.:.>.7.5.<.P.W E # K.J.P.~ _ xXJXLX3 mXnXnXK.3 ) ) +.xXcXcXcXHXmXKXj P.jXK.x { .X#Xc.;X8X8XpXpXpXpXpXpXpXpXpXpXpXpXpXpXpXpXpXpXpXpXpXpXpXpXpXpXpXpXpXpXpXpXpXpXpXpXpXpXpXpXpXpXpXpXpXpXpXpXpXpXpXpXpXpXpXpXpXpXpXpXpXpXpXpXpXpXpXpXpXpXpXpXpXpXpXpXpXpXpXpXpXpXpXpXpXpXpXpXpXpXpXpXpXpXpXpXpXpXpXpXpXpXpXpXpXpXpXpXpXpXpXpXpXpXpXpXpXpXpXpXpXpXpX",
"pXpXpXpXpXpXpXpXpXpXpXpXpXpXpXpXpXpXpXpXpXpXpXpXpXpXpXpXpXpXpXpXQ L I k E +.L.6 L.xXPXPXK.) ) T ~ ) +.jXK.jXjXkXkXjXjXnXjXK.) E E 5 7 pXpXpXpXpXpXpXpXpXpXpXpXpXpXpXpXpXpXpXpXpXpXpXpXpXpXpXpXpXpXpXpXpXpXpXpXqXpXqX-X] <X;X$X:XD ] <.&.;.&.;.#.%.;.>.>.-.6.K.Y U 6 J.v.P.E P.xXLXPXP.K.K.+._ E i i 6 : 1 j j k k k i jX) ~ ~ < J | d.{ qXpX<XqXpXpXpXpXpXpXpXpXpXpXpXpXpXpXpXpXpXpXpXpXpXpXpXpXpXpXpXpXpXpXpXpXpXpXpXpXpXpXpXpXpXpXpXpXpXpXpXpXpXpXpXpXpXpXpXpXpXpXpXpXpXpXpXpXpXpXpXpXpXpXpXpXpXpXpXpXpXpXpXpXpXpXpXpXpXpXpXpXpXpXpXpXpXpXpXpXpXpXpXpXpXpXpXpXpXpXpXpXpXpXpXpXpXpXpXpXpXpXpXpXpX",
"pXpXpXpXpXpXpXpXpXpXpXpXpXpXpXpXpXpXpXpXpXpXpXpXpXpXpXpXpXpXpXpXL Q I Q : +.L.3 P.vXPXLX` ` _ ) _ Q ) _ ) +.~ +.v.v.J.K.+.) _ ) ) x 6 pXpXpXpXpXpXpXpXpXpXpXpXpXpXpXpXpXpXpXpXpXpXpXpXpXpXpXpXpXpXpXpXpXpXpXpXpXpX8X-Xh.-X8XpX+X XB 3.,.%.%.%.%.=.-.>.,.p 6.Q L I k E +.L.6 L.xXPXPXK.) ) T ~ ) +.jXK.jXjXkXkXjXjXnXjXJ.) E Q 5 < G g.] qX;XqXpXpXpXpXpXpXpXpXpXpXpXpXpXpXpXpXpXpXpXpXpXpXpXpXpXpXpXpXpXpXpXpXpXpXpXpXpXpXpXpXpXpXpXpXpXpXpXpXpXpXpXpXpXpXpXpXpXpXpXpXpXpXpXpXpXpXpXpXpXpXpXpXpXpXpXpXpXpXpXpXpXpXpXpXpXpXpXpXpXpXpXpXpXpXpXpXpXpXpXpXpXpXpXpXpXpXpXpXpXpXpXpXpXpXpXpXpXpXpXpXpXpX",
"pXpXpXpXpXpXpXpXpXpXpXpXpXpXpXpXpXpXpXpXpXpXpXpXpXpXpXpXpXpXpXpXl l L L E _ P.k P.MXLXHX+._ ) Q U l l U T U T U T E U k U T U Q _ ) 6 pXpXpXpXpXpXpXpXpXpXpXpXpXpXpXpXpXpXpXpXpXpXpXpXpXpXpXpXpXpXpXpXpXpXpXpXpX0XqX#X] | @XpX;X[ H 2.%.;.%.,.#.$.<.w.-.u 1.L Q I Q : +.L.3 P.vXPXLX` ` _ ) _ Q ) _ ) +.~ +.v.v.J.K.+.) _ ) ) x 6 H d.@X<XpX2XqXpXpXpXpXpXpXpXpXpXpXpXpXpXpXpXpXpXpXpXpXpXpXpXpXpXpXpXpXpXpXpXpXpXpXpXpXpXpXpXpXpXpXpXpXpXpXpXpXpXpXpXpXpXpXpXpXpXpXpXpXpXpXpXpXpXpXpXpXpXpXpXpXpXpXpXpXpXpXpXpXpXpXpXpXpXpXpXpXpXpXpXpXpXpXpXpXpXpXpXpXpXpXpXpXpXpXpXpXpXpXpXpXpXpXpXpXpXpXpXpXpX",
"pXpXpXpXpXpXpXpXpXpXpXpXpXpXpXpXpXpXpXpXpXpXpXpXpXpXpXpXpXpXpXpXjXL l L g ) L.E +.MXAXAX_ Q ` x x j j j j j j j j j j j k k k 6 l Q < pXpXpXpXpXpXpXpXpXpXpXpXpXpXpXpXpXpXpXpXpXpXpXpXpXpXpXpXpXpXpXpXpXpXpXpX8XqXqXqX<X$X;X$X6X X{ A f.%.%.#.=.$.5.>.6.s 1.l g L L E _ P.k P.MXLXHX+._ ) Q k l l U T U T U T E U k U T U Q X.) 6 } | oX XqX6XpXpXpXpXpXpXpXpXpXpXpXpXpXpXpXpXpXpXpXpXpXpXpXpXpXpXpXpXpXpXpXpXpXpXpXpXpXpXpXpXpXpXpXpXpXpXpXpXpXpXpXpXpXpXpXpXpXpXpXpXpXpXpXpXpXpXpXpXpXpXpXpXpXpXpXpXpXpXpXpXpXpXpXpXpXpXpXpXpXpXpXpXpXpXpXpXpXpXpXpXpXpXpXpXpXpXpXpXpXpXpXpXpXpXpXpXpXpXpXpXpXpX",
"pXpXpXpXpXpXpXpXpXpXpXpXpXpXpXpXpXpXpXpXpXpXpXpXpXpXpXpXpXpXpXpX+.L 0 L g E +.3 ` vXvXAX@.) ( x k k k j j j j j j j k k k k k j 5 W ; [.pXpXpXpXpXpXpXpXpXpXpXpXpXpXpXpXpXpXpXpXpXpXpXpXpXpXpXpXpXpXpXpXpXpXpXqX6X<X0X<X;X X:X*X.XS s 5.%.&.&.%.u 4.6.=.6.w.jXL l L g ) L.E +.MXAXAXX.Q ` x x j j j j j j j j j j j k k k 6 l Q < j.>X|.pXpXqXpXpXpXpXpXpXpXpXpXpXpXpXpXpXpXpXpXpXpXpXpXpXpXpXpXpXpXpXpXpXpXpXpXpXpXpXpXpXpXpXpXpXpXpXpXpXpXpXpXpXpXpXpXpXpXpXpXpXpXpXpXpXpXpXpXpXpXpXpXpXpXpXpXpXpXpXpXpXpXpXpXpXpXpXpXpXpXpXpXpXpXpXpXpXpXpXpXpXpXpXpXpXpXpXpXpXpXpXpXpXpXpXpXpXpXpXpXpXpXpXpXpX",
"pXpXpXpXpXpXpXpXpXpXpXpXpXpXpXpXpXpXpXpXpXpXpXpXpXpXpXpXpXpXpXpXMXP.0 @.I g ) T E cXX O     2 # @ @ @ O X X O O O O X @ O O @ @ .     pXpXpXpXpXpXpXpXpXpXpXpXpXpXpXpXpXpXpXpXpXpXpXpXpXpXpXpXpXpXpXpXpXpXpXpXpX0X0XpX;X@X>Xh.A f.}.} ,.$.<.;.%.,.-.2.=.>.w.+.l 0 L g E +.3 ` vXvXAX@.) ( x k k k j j j j j j j k k k k k j 5 Q ; a }. X:XpX8XqXpXpXpXpXpXpXpXpXpXpXpXpXpXpXpXpXpXpXpXpXpXpXpXpXpXpXpXpXpXpXpXpXpXpXpXpXpXpXpXpXpXpXpXpXpXpXpXpXpXpXpXpXpXpXpXpXpXpXpXpXpXpXpXpXpXpXpXpXpXpXpXpXpXpXpXpXpXpXpXpXpXpXpXpXpXpXpXpXpXpXpXpXpXpXpXpXpXpXpXpXpXpXpXpXpXpXpXpXpXpXpXpXpXpXpXpXpXpXpXpXpX",
"pXpXpXpXpXpXpXpXpXpXpXpXpXpXpXpXpXpXpXpXpXpXpXpXpXpXpXpXpXpXpXJ.cXv.3 O.8 l L +.T L..       1 # O X X X f @ # # @ @ f # , , , O .     pXpXpXpXpXpXpXpXpXpXpXpXpXpXpXpXpXpXpXpXpXpXpXpXpXpXpXpXpXpXpXpXpXpXpXpXpXqXpXqX6XqX.Xh.XXh.#XF 2.h.%.*.&.%.&.;.;.>.1.MXP.0 @.I g ) T E cXX O     2 $ @ @ @ O O X X X X O X @ O O O @ .     | | rX0XpXpXpXpXpXpXpXpXpXpXpXpXpXpXpXpXpXpXpXpXpXpXpXpXpXpXpXpXpXpXpXpXpXpXpXpXpXpXpXpXpXpXpXpXpXpXpXpXpXpXpXpXpXpXpXpXpXpXpXpXpXpXpXpXpXpXpXpXpXpXpXpXpXpXpXpXpXpXpXpXpXpXpXpXpXpXpXpXpXpXpXpXpXpXpXpXpXpXpXpXpXpXpXpXpXpXpXpXpXpXpXpXpXpXpXpXpXpXpXpXpXpXpXpX",
"pXpXpXpXpXpXpXpXpXpXpXpXpXpXpXpXpXpXpXpXpXpXpXpXpXpXpXpXpXpXpXcX( ~ +.2 L I l ` 3 T         2 # R 8 8 5 < S.O.5 8 5 @ Z.o.5 5 8 .     pXpXpXpXpXpXpXpXpXpXpXpXpXpXpXpXpXpXpXpXpXpXpXpXpXpXpXpXpXpXpXpXpXpXpXpXpXpXqXpX2X:X@X] XXc.H *X{ H G ,.,.#.&.;.;.;.J.xXv.3 O.8 l L +.T L..       1 # O X X X f @ @ @ @ @ f @ , , , X .     rX*XqX:XpXpXpXpXpXpXpXpXpXpXpXpXpXpXpXpXpXpXpXpXpXpXpXpXpXpXpXpXpXpXpXpXpXpXpXpXpXpXpXpXpXpXpXpXpXpXpXpXpXpXpXpXpXpXpXpXpXpXpXpXpXpXpXpXpXpXpXpXpXpXpXpXpXpXpXpXpXpXpXpXpXpXpXpXpXpXpXpXpXpXpXpXpXpXpXpXpXpXpXpXpXpXpXpXpXpXpXpXpXpXpXpXpXpXpXpXpXpXpXpXpXpXpXpX",
"pXpXpXpXpXpXpXpXpXpXpXpXpXpXpXpXpXpXpXpXpXpXpXpXpXpXpXpXpXpXpXR j E _ 1 W # L g E +         2 9 2 0 8 8 < 1 C.I 9 8 2 @ V.R 9 8 @   2XpXpXpXpXpXpXpXpXpXpXpXpXpXpXpXpXpXpXpXpXpXpXpXpXpXpXpXpXpXpXpXpXpXpXpXpXpXpXqXqXpXpX$XuX|.%X+X0X6X<X.XV s #.;.;.7.>.cX( ~ +.2 L I l ` 3 T         2 # R 5 8 4 < S.O.4 8 5 @ Z.O.5 5 8 .     0X8X:X8X0XqXpXpXpXpXpXpXpXpXpXpXpXpXpXpXpXpXpXpXpXpXpXpXpXpXpXpXpXpXpXpXpXpXpXpXpXpXpXpXpXpXpXpXpXpXpXpXpXpXpXpXpXpXpXpXpXpXpXpXpXpXpXpXpXpXpXpXpXpXpXpXpXpXpXpXpXpXpXpXpXpXpXpXpXpXpXpXpXpXpXpXpXpXpXpXpXpXpXpXpXpXpXpXpXpXpXpXpXpXpXpXpXpXpXpXpXpXpXpXpXpXpXpX",
"pXpXpXpXpXpXpXpXpXpXpXpXpXpXpXpXpXpXpXpXpXpXpXpXpXpXpXpXpXpXpXL k E 6 ~ + . < L U 3         2 L $ O.2 2 4 < + / l 8 8 2 @ / 0 < 2     M pXpXpXpXpXpXpXpXpXpXpXpXpXpXpXpXpXpXpXpXpXpXpXpXpXpXpXpXpXpXpXpXpXpXpXpXpXpXpX0X6XpX0X;X3X6X$X<X8X@XF 5.#.<.&.%.&.R i E _ 1 Q # L g E +         2 9 2 0 8 8 < < C.I 9 8 < @ V.R 9 8 @   {.<X;X0XqXqXpXpXpXpXpXpXpXpXpXpXpXpXpXpXpXpXpXpXpXpXpXpXpXpXpXpXpXpXpXpXpXpXpXpXpXpXpXpXpXpXpXpXpXpXpXpXpXpXpXpXpXpXpXpXpXpXpXpXpXpXpXpXpXpXpXpXpXpXpXpXpXpXpXpXpXpXpXpXpXpXpXpXpXpXpXpXpXpXpXpXpXpXpXpXpXpXpXpXpXpXpXpXpXpXpXpXpXpXpXpXpXpXpXpXpXpXpXpXpXpXpXpXpX",
"pXpXpXpXpXpXpXpXpXpXpXpXpXpXpXpXpXpXpXpXpXpXpXpXpXpXpXpXpXpXpXO.vX# 3 ) x . Q g - #         < 8 - = f B.B.B.C.C.S.S.S.A.V.V.B.f @ @   . @ pXpXpXpXpXpXpXpXpXpXpXpXpXpXpXpXpXpXpXpXpXpXpXpXpXpXpXpXpXpXpXpXpXpXpXpXpXqX0XpX0XpX6X6XpX2X<XpX@X .,.,.;.*.,.%.L k E 9 ) + . < L U 3         2 L $ O.2 2 4 < + ! L 8 8 2 @ / 0 < 2     M pXpXpXpXpXpXpXpXpXpXpXpXpXpXpXpXpXpXpXpXpXpXpXpXpXpXpXpXpXpXpXpXpXpXpXpXpXpXpXpXpXpXpXpXpXpXpXpXpXpXpXpXpXpXpXpXpXpXpXpXpXpXpXpXpXpXpXpXpXpXpXpXpXpXpXpXpXpXpXpXpXpXpXpXpXpXpXpXpXpXpXpXpXpXpXpXpXpXpXpXpXpXpXpXpXpXpXpXpXpXpXpXpXpXpXpXpXpXpXpXpXpXpXpXpXpXpX",
"pXpXpXpXpXpXpXpXpXpXpXpXpXpXpXpXpXpXpXpXpXpXpXpXpXpXpXpXpXpXpXP.vXj 3 6 P.+ W Q , L 2 , # @ - 5 < O.K.X...! ! ! ! ..! ! R R W ! ! O . X O pXpXpXpXpXpXpXpXpXpXpXpXpXpXpXpXpXpXpXpXpXpXpXpXpXpXpXpXpXpXpXpXpXpXpXpXpXpXpX0XpXpXpX8X8XpX8X8X+X|.d.<.%.>.#.s O.vX# 3 ) x . Q g - #         < 9 - = f B.B.B.C.C.S.S.S.S.V.V.B.f @ @   . @ qXpXpXpXpXpXpXpXpXpXpXpXpXpXpXpXpXpXpXpXpXpXpXpXpXpXpXpXpXpXpXpXpXpXpXpXpXpXpXpXpXpXpXpXpXpXpXpXpXpXpXpXpXpXpXpXpXpXpXpXpXpXpXpXpXpXpXpXpXpXpXpXpXpXpXpXpXpXpXpXpXpXpXpXpXpXpXpXpXpXpXpXpXpXpXpXpXpXpXpXpXpXpXpXpXpXpXpXpXpXpXpXpXpXpXpXpXpXpXpXpXpXpXpXpXpX",
"pXpXpXpXpXpXpXpXpXpXpXpXpXpXpXpXpXpXpXpXpXpXpXpXpXpXpXpXpXpXpXE vXL.# ~ +.) Y hXW Q 0 5 < , < , 9 1 @.8 8 5 5 4 4 5 5 8 5 5 5 5 5 8 @ X @ @ pXpXpXpXpXpXpXpXpXpXpXpXpXpXpXpXpXpXpXpXpXpXpXpXpXpXpXpXpXpXpXpXpXpXpXpXpXpXpXpXpXpXqXpXqXpXpX;X{ | ,.d.&.=.w P.vXj 3 6 P.+ Q Q , l 2 , # @ - 5 < O.K.X...! ! ! ! ..! ! R R W ! ! O . X O pXpXpXpXpXpXpXpXpXpXpXpXpXpXpXpXpXpXpXpXpXpXpXpXpXpXpXpXpXpXpXpXpXpXpXpXpXpXpXpXpXpXpXpXpXpXpXpXpXpXpXpXpXpXpXpXpXpXpXpXpXpXpXpXpXpXpXpXpXpXpXpXpXpXpXpXpXpXpXpXpXpXpXpXpXpXpXpXpXpXpXpXpXpXpXpXpXpXpXpXpXpXpXpXpXpXpXpXpXpXpXpXpXpXpXpXpXpXpXpXpXpXpXpXpXpX",
"pXpXpXpXpXpXpXpXpXpXpXpXpXpXpXpXpXpXpXpXpXpXpXpXpXpXpXpXpXpXpXl P.cX3 j J.l U gXL / Y 0 5 2 , $ 9 $ o.5 8 5 2 2 4 4 4 4 2 2 2 2 2 4 X . X @ @ pXpXpXpXpXpXpXpXpXpXpXpXpXpXpXpXpXpXpXpXpXpXpXpXpXpXpXpXpXpXpXpXpXpXpXpXpXpXqXqXqX0X0XpXpX6X X XH 3.f.,.,.B E vXL.# ~ ` ) R hXW Q 0 5 < , < , 9 1 @.8 8 5 5 4 4 5 5 8 5 5 5 5 5 8 @ X @ @ pXpXpXpXpXpXpXpXpXpXpXpXpXpXpXpXpXpXpXpXpXpXpXpXpXpXpXpXpXpXpXpXpXpXpXpXpXpXpXpXpXpXpXpXpXpXpXpXpXpXpXpXpXpXpXpXpXpXpXpXpXpXpXpXpXpXpXpXpXpXpXpXpXpXpXpXpXpXpXpXpXpXpXpXpXpXpXpXpXpXpXpXpXpXpXpXpXpXpXpXpXpXpXpXpXpXpXpXpXpXpXpXpXpXpXpXpXpXpXpXpXpXpXpXpX",
"pXpXpXpXpXpXpXpXpXpXpXpXpXpXpXpXpXpXpXpXpXpXpXpXpXpXpXpXpXpXpXL +.lXL.x _ Y 2 O.Y @./ W 0 9 2 , - gX9 4 5 4 2 1 2 2 2 2 2 2 2 2 2 2 2 2 $ @ # 2XpXpXpXpXpXpXpXpXpXpXpXpXpXpXpXpXpXpXpXpXpXpXpXpXpXpXpXpXpXpXpXpXpXpXpXpXpXpX9XpXpXeX8XeX9X6X.XH 3.B V .Xs g lXxX3 j J.l U gXL / Y 0 5 2 , $ 9 $ o.5 5 5 2 2 4 4 4 4 2 2 2 2 2 4 X . X @ @ pXpXpXpXpXpXpXpXpXpXpXpXpXpXpXpXpXpXpXpXpXpXpXpXpXpXpXpXpXpXpXpXpXpXpXpXpXpXpXpXpXpXpXpXpXpXpXpXpXpXpXpXpXpXpXpXpXpXpXpXpXpXpXpXpXpXpXpXpXpXpXpXpXpXpXpXpXpXpXpXpXpXpXpXpXpXpXpXpXpXpXpXpXpXpXpXpXpXpXpXpXpXpXpXpXpXpXpXpXpXpXpXpXpXpXpXpXpXpXpXpXpXpXpX",
"pXpXpXpXpXpXpXpXpXpXpXpXpXpXpXpXpXpXpXpXpXpXpXpXpXpXpXpXpXpXpX@.~ P.cXk 6 g I ..! X.I / I 0 9 8 , 2 Y 2 L g 1 $ 1 1 2 2 2 2 0 I 2 , < 2 , @ # $ pXpXpXpXpXpXpXpXpXpXpXpXpXpXpXpXpXpXpXpXpXpXpXpXpXpXpXpXpXpXpXpXpXpXpXpXpX9X6X2X;XpXeX2X;X*X$X] 3.h.%X*X=XL +.lXL.x _ R 2 O.R @./ W 0 9 2 , - gX9 4 5 4 2 1 2 2 2 2 2 2 2 2 2 2 2 2 $ @ # 2XpXpXpXpXpXpXpXpXpXpXpXpXpXpXpXpXpXpXpXpXpXpXpXpXpXpXpXpXpXpXpXpXpXpXpXpXpXpXpXpXpXpXpXpXpXpXpXpXpXpXpXpXpXpXpXpXpXpXpXpXpXpXpXpXpXpXpXpXpXpXpXpXpXpXpXpXpXpXpXpXpXpXpXpXpXpXpXpXpXpXpXpXpXpXpXpXpXpXpXpXpXpXpXpXpXpXpXpXpXpXpXpXpXpXpXpXpXpXpXpXpXpXpX",
"pXpXpXpXpXpXpXpXpXpXpXpXpXpXpXpXpXpXpXpXpXpXpXpXpXpXpXpXpXpXpX+.T P.cXvX9 I I W X.O.I ! R L 0 8 2 < ! 2 I 0 2 ; $ 1 2 2 2 2 I 0 2 1 $ 1 1 X @ # $ pXpXpXpXpXpXpXpXpXpXpXpXpXpXpXpXpXpXpXpXpXpXpXpXpXpXpXpXpXpXpXpXpXpXpXpXpX<XeX8X;X$X$X;X*X+X|.c.g.S *X;X@.~ P.cXk 6 g I ..! X.I / I 0 9 8 , 2 Y 2 L g 1 $ 1 1 2 2 2 2 0 U 2 , < 2 , @ # $ pXpXpXpXpXpXpXpXpXpXpXpXpXpXpXpXpXpXpXpXpXpXpXpXpXpXpXpXpXpXpXpXpXpXpXpXpXpXpXpXpXpXpXpXpXpXpXpXpXpXpXpXpXpXpXpXpXpXpXpXpXpXpXpXpXpXpXpXpXpXpXpXpXpXpXpXpXpXpXpXpXpXpXpXpXpXpXpXpXpXpXpXpXpXpXpXpXpXpXpXpXpXpXpXpXpXpXpXpXpXpXpXpXpXpXpXpXpXpXpXpXpXpX",
"pXpXpXpXpXpXpXpXpXpXpXpXpXpXpXpXpXpXpXpXpXpXpXpXpXpXpXpXpXpXpXx l J.P.xX_ I I R O./ 0 I / I 9 8 < 2 gX4 9 @ X X ; 2 2 2 2 2 0 @ X X , 1 2 @ @ # $ # pXpXpXpXpXpXpXpXpXpXpXpXpXpXpXpXpXpXpXpXpXpXpXpXpXpXpXpXpXpXpXpXpXpXqXpX:XqX=XOX2XeX:X0X6X+X-Xc.&X.XqX+.T P.cXvX9 I I W X.O.I ! R L 0 8 1 < ! 2 I 0 2 ; $ 2 2 2 2 2 I 0 2 1 $ 2 1 X @ # $ pXpXpXpXpXpXpXpXpXpXpXpXpXpXpXpXpXpXpXpXpXpXpXpXpXpXpXpXpXpXpXpXpXpXpXpXpXpXpXpXpXpXpXpXpXpXpXpXpXpXpXpXpXpXpXpXpXpXpXpXpXpXpXpXpXpXpXpXpXpXpXpXpXpXpXpXpXpXpXpXpXpXpXpXpXpXpXpXpXpXpXpXpXpXpXpXpXpXpXpXpXpXpXpXpXpXpXpXpXpXpXpXpXpXpXpXpXpXpXpXpXpX",
"pXpXpXpXpXpXpXpXpXpXpXpXpXpXpXpXpXpXpXpXpXpXpXpXpXpXpXpXpXpXpXl l +.L.+.L.I I Y ! ! ! I ..Y 9 2 ; 9 ..2 2 2 2 2 2 1 2 2 2 2 2 2 2 1 1 1 1 # # # $ $ pXpXpXpXpXpXpXpXpXpXpXpXpXpXpXpXpXpXpXpXpXpXpXpXpXpXpXpXpXpXpXpXpXpXqXpX0X:X1XoX@X .G *X6XpXqX@XeX8XqXx l v.P.xX_ I I R O./ 0 I / I 9 8 < 2 gX4 9 @ X X , 2 2 2 2 2 0 @ X X , 1 2 @ @ # $ # pXpXpXpXpXpXpXpXpXpXpXpXpXpXpXpXpXpXpXpXpXpXpXpXpXpXpXpXpXpXpXpXpXpXpXpXpXpXpXpXpXpXpXpXpXpXpXpXpXpXpXpXpXpXpXpXpXpXpXpXpXpXpXpXpXpXpXpXpXpXpXpXpXpXpXpXpXpXpXpXpXpXpXpXpXpXpXpXpXpXpXpXpXpXpXpXpXpXpXpXpXpXpXpXpXpXpXpXpXpXpXpXpXpXpXpXpXpXpXpXpX",
"pXpXpXpXpXpXpXpXpXpXpXpXpXpXpXpXpXpXpXpXpXpXpXpXpXpXpXpXpXpXpX[.Y ~ ` 6 k 0 I I I U Y I W ! l 2 0 0 8 5 2 1 1 1 < 1 @ 8.8.8.w Y 1 1 1 < < - $ $ - - # pXpXpXpXpXpXpXpXpXpXpXpXpXpXpXpXpXpXpXpXpXpXpXpXpXpXpXpXpXpXpXpXpXqXpX6X8X3Xh.&X .h.|.8X0XpX<X8XpX0Xl l +.L.+.L.I I Y ! ! ! I ..Y 9 2 ; 9 ..2 2 2 2 2 2 1 2 2 2 2 2 2 2 1 1 1 1 # # # $ $ pXpXpXpXpXpXpXpXpXpXpXpXpXpXpXpXpXpXpXpXpXpXpXpXpXpXpXpXpXpXpXpXpXpXpXpXpXpXpXpXpXpXpXpXpXpXpXpXpXpXpXpXpXpXpXpXpXpXpXpXpXpXpXpXpXpXpXpXpXpXpXpXpXpXpXpXpXpXpXpXpXpXpXpXpXpXpXpXpXpXpXpXpXpXpXpXpXpXpXpXpXpXpXpXpXpXpXpXpXpXpXpXpXpXpXpXpXpXpXpXpX",
"pXpXpXpXpXpXpXpXpXpXpXpXpXpXpXpXpXpXpXpXpXpXpXpXpXpXpXpXpXpXpXpX0 vXE mXE 2 I I X.I o.I I / I 0 0 0 0 9 1 < < < < , @ # # # # $ 2 < , , , , , ; , , , 7 pXpXpXpXpXpXpXpXpXpXpXpXpXpXpXpXpXpXpXpXpXpXpXpXpXpXpXpXpXpXpXpXqXpXpX8X2X.X$X.X| &X<X*X2XpX0XpXqXK I ~ ` 6 x g I I I U Y I W ! l 2 0 0 8 5 2 1 1 < < 1 @ 8.8.8.w Y < < < < < - $ $ - - # pXpXpXpXpXpXpXpXpXpXpXpXpXpXpXpXpXpXpXpXpXpXpXpXpXpXpXpXpXpXpXpXpXpXpXpXpXpXpXpXpXpXpXpXpXpXpXpXpXpXpXpXpXpXpXpXpXpXpXpXpXpXpXpXpXpXpXpXpXpXpXpXpXpXpXpXpXpXpXpXpXpXpXpXpXpXpXpXpXpXpXpXpXpXpXpXpXpXpXpXpXpXpXpXpXpXpXpXpXpXpXpXpXpXpXpXpXpXpXpX",
"pXpXpXpXpXpXpXpXpXpXpXpXpXpXpXpXpXpXpXpXpXpXpXpXpXpXpXpXpXpXpXpX; vXl mXzX1 L L X.U gXI L ! Y I L 0 0 0 8 4 2 2 2 2 2 2 2 2 2 2 2 2 1 1 < < < < < < , < pXpXpXpXpXpXpXpXpXpXpXpXpXpXpXpXpXpXpXpXpXpXpXpXpXpXpXpXpXpXpXpX0XpXpXpX2XpX$X0XuXeX0XpXpX0XpXqX0X#X0 vXE mXE 2 I I X.I o.I I / I 0 0 0 0 8 2 < < < < , @ # # $ # $ 2 < , , , , , , , , , 7 pXpXpXpXpXpXpXpXpXpXpXpXpXpXpXpXpXpXpXpXpXpXpXpXpXpXpXpXpXpXpXpXpXpXpXpXpXpXpXpXpXpXpXpXpXpXpXpXpXpXpXpXpXpXpXpXpXpXpXpXpXpXpXpXpXpXpXpXpXpXpXpXpXpXpXpXpXpXpXpXpXpXpXpXpXpXpXpXpXpXpXpXpXpXpXpXpXpXpXpXpXpXpXpXpXpXpXpXpXpXpXpXpXpXpXpXpXpXpX",
"pXpXpXpXpXpXpXpXpXpXpXpXpXpXpXpXpXpXpXpXpXpXpXpXpXpXpXpXpXpXpXpXE J.K.v.lXY I L F.U . L L I @.@.gXnXmXmXmXmXmXzXhXgXO.8 ! Q g 4 2 ; X.Q 8 , , $ # @ . . M pXpXpXpXpXpXpXpXpXpXpXpXpXpXpXpXpXpXpXpXpXpXpXpXpXpXpXpXpXpXpX9X6X<XpX6X6X6XpX2XpXpXpXqX0XeXpX3XXX; vXl mXzX2 I I X.U gXI L ! Y I L 0 0 0 8 4 2 2 2 2 2 2 2 2 2 2 2 2 1 1 < < < < < < , < pXpXpXpXpXpXpXpXpXpXpXpXpXpXpXpXpXpXpXpXpXpXpXpXpXpXpXpXpXpXpXpXpXpXpXpXpXpXpXpXpXpXpXpXpXpXpXpXpXpXpXpXpXpXpXpXpXpXpXpXpXpXpXpXpXpXpXpXpXpXpXpXpXpXpXpXpXpXpXpXpXpXpXpXpXpXpXpXpXpXpXpXpXpXpXpXpXpXpXpXpXpXpXpXpXpXpXpXpXpXpXpXpXpXpXpXpXpXpX",
"pXpXpXpXpXpXpXpXpXpXpXpXpXpXpXpXpXpXpXpXpXpXpXpXpXpXpXpXpXpXpXpX' ) v.) ` l L L @.U . _ L I L X.W 9 I mXmXmXnXzXhXgXO., X.Y 0 4 2 $ l < $ $ $ # O I 0 1 X pXpXpXpXpXpXpXpXpXpXpXpXpXpXpXpXpXpXpXpXpXpXpXpXpXpXpXpXpXpXqXpXpXpXqX=X2XpX:XpXpX6XpXpX0XpXqX9XrXE J.K.v.xXY I I F.U . L L I @.@.gXnXmXmXmXmXmXzXhXgXO.8 ! Q g 4 2 ; X.Q 8 , , $ # @ . . M pXpXpXpXpXpXpXpXpXpXpXpXpXpXpXpXpXpXpXpXpXpXpXpXpXpXpXpXpXpXpXpXpXpXpXpXpXpXpXpXpXpXpXpXpXpXpXpXpXpXpXpXpXpXpXpXpXpXpXpXpXpXpXpXpXpXpXpXpXpXpXpXpXpXpXpXpXpXpXpXpXpXpXpXpXpXpXpXpXpXpXpXpXpXpXpXpXpXpXpXpXpXpXpXpXpXpXpXpXpXpXpXpXpXpXpXpXpX",
"pXpXpXpXpXpXpXpXpXpXpXpXpXpXpXpXpXpXpXpXpXpXpXpXpXpXpXpXpXpXpXpXpX` J.T k l I I @.g   +.1 L L KXnXnXmX0 KXmXnXzXhXgXO.1 o.I 0 4 2 # 9 , $ # # # . 1 @ @ X pXpXpXpXpXpXpXpXpXpXpXpXpXpXpXpXpXpXpXpXpXpXpXpXpXpXpXpXpXpXpX6X:XeX@X| *XpX6X2XpX8X0XpXpXpXpX3X6X' ) v.) ` l L I @.U . _ L I L X.W 8 Y mXmXmXnXnXhXgXO., X.Y 0 4 2 $ l < $ $ $ # O I 0 1 X pXpXpXpXpXpXpXpXpXpXpXpXpXpXpXpXpXpXpXpXpXpXpXpXpXpXpXpXpXpXpXpXpXpXpXpXpXpXpXpXpXpXpXpXpXpXpXpXpXpXpXpXpXpXpXpXpXpXpXpXpXpXpXpXpXpXpXpXpXpXpXpXpXpXpXpXpXpXpXpXpXpXpXpXpXpXpXpXpXpXpXpXpXpXpXpXpXpXpXpXpXpXpXpXpXpXpXpXpXpXpXpXpXpXpXpXpXpX",
"pXpXpXpXpXpXpXpXpXpXpXpXpXpXpXpXpXpXpXpXpXpXpXpXpXpXpXpXpXpXpXpXpX+.L.T # 2 I I O.2 X +.I 9 L HXzXnXnXL PXnXnXkXhX@.o.1 o.I 0 4 2 @ 9 - $ # # # . $ @ @ X pXpXpXpXpXpXpXpXpXpXpXpXpXpXpXpXpXpXpXpXpXpXpXpXpXpXpXpXpXpXpXpX3X0XoXh.rXpXqX<X8X0XpXqXqX0XpX8XpX<X_ J.T k l I I @.l   +.1 L L KXnXnXmX0 KXmXnXzXhXgXO.1 o.I 0 4 2 # 9 , $ # # # . 1 @ @ X pXpXpXpXpXpXpXpXpXpXpXpXpXpXpXpXpXpXpXpXpXpXpXpXpXpXpXpXpXpXpXpXpXpXpXpXpXpXpXpXpXpXpXpXpXpXpXpXpXpXpXpXpXpXpXpXpXpXpXpXpXpXpXpXpXpXpXpXpXpXpXpXpXpXpXpXpXpXpXpXpXpXpXpXpXpXpXpXpXpXpXpXpXpXpXpXpXpXpXpXpXpXpXpXpXpXpXpXpXpXpXpXpXpXpXpXpXpX",
"pXpXpXpXpXpXpXpXpXpXpXpXpXpXpXpXpXpXpXpXpXpXpXpXpXpXpXpXpXpXpXpXpX' +.; # 2 I I ) $ ; v.W L 0 mXgXhXzX0 KXnXzXhXK.@...L o.L 9 2 1 @ 8 # # # # @ . # @ @ X pXpXpXpXpXpXpXpXpXpXpXpXpXpXpXpXpXpXpXpXpXpXpXpXpXpXpXpXpXpXpX6XpX2XrXOXOXrXqXeXpX0XqXqXpXpX0XpXpX2X+.L.T # 2 I I O.2 X +.I 9 L HXzXnXnXL PXnXnXkXgXK.O.1 o.I 0 4 2 @ 9 - $ # # # . - @ @ X pXpXpXpXpXpXpXpXpXpXpXpXpXpXpXpXpXpXpXpXpXpXpXpXpXpXpXpXpXpXpXpXpXpXpXpXpXpXpXpXpXpXpXpXpXpXpXpXpXpXpXpXpXpXpXpXpXpXpXpXpXpXpXpXpXpXpXpXpXpXpXpXpXpXpXpXpXpXpXpXpXpXpXpXpXpXpXpXpXpXpXpXpXpXpXpXpXpXpXpXpXpXpXpXpXpXpXpXpXpXpXpXpXpXpXpXpXpX",
"pXpXpXpXpXpXpXpXpXpXpXpXpXpXpXpXpXpXpXpXpXpXpXpXpXpXpXpXpXpXpXpXpX2X_ : 3 2 I I ! @ 1 +.I Q 0 kXF.gXhX2 mXkXkXX.@.X.Q 2 8 2 < - $ @ - $ $ $ , , , , , < , 2 pXpXpXpXpXpXpXpXpXpXpXpXpXpXpXpXpXpXpXpXpXpXpXpXpXpXpXpXpXpXpXpXpXpXeX2X<XpXuX0XpXqXpXpXpXpXqX0XpX' ` ; # 2 I I ) $ ; v.R L 0 mXgXhXzX0 KXnXzXhXK.@.X.L o.L 9 2 1 @ 8 # # # @ @ . # @ @ X pXpXpXpXpXpXpXpXpXpXpXpXpXpXpXpXpXpXpXpXpXpXpXpXpXpXpXpXpXpXpXpXpXpXpXpXpXpXpXpXpXpXpXpXpXpXpXpXpXpXpXpXpXpXpXpXpXpXpXpXpXpXpXpXpXpXpXpXpXpXpXpXpXpXpXpXpXpXpXpXpXpXpXpXpXpXpXpXpXpXpXpXpXpXpXpXpXpXpXpXpXpXpXpXpXpXpXpXpXpXpXpXpXpXpXpXpXpX",
"pXpXpXpXpXpXpXpXpXpXpXpXpXpXpXpXpXpXpXpXpXpXpXpXpXpXpXpXpXpXpXpXpXpXL.6 # 8 I I L . 6 +.Y / L 8 8 4 4 4 5 8 4 5 5 8 4 5 8 5 4 4 5 4 5 4 5 4 4 5 8 4 4 2 4 5 8 pXpXpXpXpXpXpXpXpXpXpXpXpXpXpXpXpXpXpXpXpXpXpXpXpXpXpXpXpX0XpXpXpX<X8X6XpXpX9XqXqXpXpXpXpXpXpXpX2X_ : 1 2 I I ! @ 1 +.I Q 0 kXF.gXhX2 mXkXkXX.@.X.Q 2 5 2 < $ $ @ - $ $ $ , ; , , , < , 2 pXpXpXpXpXpXpXpXpXpXpXpXpXpXpXpXpXpXpXpXpXpXpXpXpXpXpXpXpXpXpXpXpXpXpXpXpXpXpXpXpXpXpXpXpXpXpXpXpXpXpXpXpXpXpXpXpXpXpXpXpXpXpXpXpXpXpXpXpXpXpXpXpXpXpXpXpXpXpXpXpXpXpXpXpXpXpXpXpXpXpXpXpXpXpXpXpXpXpXpXpXpXpXpXpXpXpXpXpXpXpXpXpXpXpXpXpX",
"pXpXpXpXpXpXpXpXpXpXpXpXpXpXpXpXpXpXpXpXpXpXpXpXpXpXpXpXpXpXpXpXpXpX+.T : 6 L I < . 9 +.g Q mX5 5 5 4 4 4 4 4 4 4 4 4 4 5 4 5 4 4 4 2 5 4 4 4 4 4 5 4 4 5 5 9 pXpXpXpXpXpXpXpXpXpXpXpXpXpXpXpXpXpXpXpXpXpXpXpXpXpXpXpXpXqX0X8X6XpXqXpXpXpXpXqXpXpXpXpXpXpXpXpXpXL.6 # 8 I I L . 6 +.Y ! L 8 8 4 4 4 5 8 4 5 5 8 4 5 8 5 4 4 5 4 5 4 4 4 4 5 8 4 4 2 4 5 8 pXpXpXpXpXpXpXpXpXpXpXpXpXpXpXpXpXpXpXpXpXpXpXpXpXpXpXpXpXpXpXpXpXpXpXpXpXpXpXpXpXpXpXpXpXpXpXpXpXpXpXpXpXpXpXpXpXpXpXpXpXpXpXpXpXpXpXpXpXpXpXpXpXpXpXpXpXpXpXpXpXpXpXpXpXpXpXpXpXpXpXpXpXpXpXpXpXpXpXpXpXpXpXpXpXpXpXpXpXpXpXpXpXpXpXpX",
"pXpXpXpXpXpXpXpXpXpXpXpXpXpXpXpXpXpXpXpXpXpXpXpXpXpXpXpXpXpXpXpXpXpX) ~ 6 i l 5 , . 6 +.I I gX8 8 8 8 5 8 5 4 5 8 8 8 5 8 5 8 8 8 8 8 8 9 8 8 9 9 8 8 0 0 9 0 7XpXpXpXpXpXpXpXpXpXpXpXpXpXpXpXpXpXpXpXpXpXpXpXpXpXpXpXpXpXpXpXpX0X0XpX0XqXpXpXpXpXpXpXpXpXpXpXpX+.E : 6 L I < . 9 +.0 Q mX5 5 5 4 4 4 4 4 4 4 4 4 4 5 4 5 4 4 4 2 5 4 4 4 4 4 5 4 4 5 5 9 pXpXpXpXpXpXpXpXpXpXpXpXpXpXpXpXpXpXpXpXpXpXpXpXpXpXpXpXpXpXpXpXpXpXpXpXpXpXpXpXpXpXpXpXpXpXpXpXpXpXpXpXpXpXpXpXpXpXpXpXpXpXpXpXpXpXpXpXpXpXpXpXpXpXpXpXpXpXpXpXpXpXpXpXpXpXpXpXpXpXpXpXpXpXpXpXpXpXpXpXpXpXpXpXpXpXpXpXpXpXpXpXpXpXpXpX",
"pXpXpXpXpXpXpXpXpXpXpXpXpXpXpXpXpXpXpXpXpXpXpXpXpXpXpXpXpXpXpXpXpXpX{._ k k 0 1 X   # ~ L 8 W Y I g g 8 9 8 2 < < - $ # @ @ X X . . . . . .               [.pXpXpXpXpXpXpXpXpXpXpXpXpXpXpXpXpXpXpXpXpXpXpXpXpXpXpXpXpXpXpXpXpXpXpXpXpXpXpXpXpXpXpXpXpXpXpXpXpXpX) ~ 6 i l 5 , . 6 +.I U gX8 8 8 8 5 8 5 4 5 8 8 8 5 8 5 8 8 8 8 8 8 9 8 8 9 9 8 8 0 0 9 0 7XpXpXpXpXpXpXpXpXpXpXpXpXpXpXpXpXpXpXpXpXpXpXpXpXpXpXpXpXpXpXpXpXpXpXpXpXpXpXpXpXpXpXpXpXpXpXpXpXpXpXpXpXpXpXpXpXpXpXpXpXpXpXpXpXpXpXpXpXpXpXpXpXpXpXpXpXpXpXpXpXpXpXpXpXpXpXpXpXpXpXpXpXpXpXpXpXpXpXpXpXpXpXpXpXpXpXpXpXpXpXpXpXpXpXpX",
"pXpXpXpXpXpXpXpXpXpXpXpXpXpXpXpXpXpXpXpXpXpXpXpXpXpXpXpXpXpXpXpXpXpXpX+.E k 9 l .   ; x l 2 .                                                             pXpXpXpXpXpXpXpXpXpXpXpXpXpXpXpXpXpXpXpXpXpXpXpXpXpXpXpXpXpXpXpXpXpXpXpXpXpXpXpXpXpXpXpXpXpXpXpXpXpXpX{._ k k 0 1 X   # ~ L 8 W Y I g g 8 9 8 2 < < - $ # @ @ X X . . . . . .               [.pXpXpXpXpXpXpXpXpXpXpXpXpXpXpXpXpXpXpXpXpXpXpXpXpXpXpXpXpXpXpXpXpXpXpXpXpXpXpXpXpXpXpXpXpXpXpXpXpXpXpXpXpXpXpXpXpXpXpXpXpXpXpXpXpXpXpXpXpXpXpXpXpXpXpXpXpXpXpXpXpXpXpXpXpXpXpXpXpXpXpXpXpXpXpXpXpXpXpXpXpXpXpXpXpXpXpXpXpXpXpXpXpXpXpXpXpX",
"pXpXpXpXpXpXpXpXpXpXpXpXpXpXpXpXpXpXpXpXpXpXpXpXpXpXpXpXpXpXpXpXpXpXpX+._ x - 9 . @ Y 9 0 X                                                             pXpXpXpXpXpXpXpXpXpXpXpXpXpXpXpXpXpXpXpXpXpXpXpXpXpXpXpXpXpXpXpXpXpXpXpXpXpXpXpXpXpXpXpXpXpXpXpXpXpXpXpXpX+.E k 9 l .   ; k l 2 .                                                             pXpXpXpXpXpXpXpXpXpXpXpXpXpXpXpXpXpXpXpXpXpXpXpXpXpXpXpXpXpXpXpXpXpXpXpXpXpXpXpXpXpXpXpXpXpXpXpXpXpXpXpXpXpXpXpXpXpXpXpXpXpXpXpXpXpXpXpXpXpXpXpXpXpXpXpXpXpXpXpXpXpXpXpXpXpXpXpXpXpXpXpXpXpXpXpXpXpXpXpXpXpXpXpXpXpXpXpXpXpXpXpXpXpXpXpXpXpX",
"pXpXpXpXpXpXpXpXpXpXpXpXpXpXpXpXpXpXpXpXpXpXpXpXpXpXpXpXpXpXpXpXpXpXpX` E : . 2   2 I l 8 .                                                             pXpXpXpXpXpXpXpXpXpXpXpXpXpXpXpXpXpXpXpXpXpXpXpXpXpXpXpXpXpXpXpXpXpXpXpXpXpXpXpXpXpXpXpXpXpXpXpXpXpXpXpXpX+.) x $ 9 . @ Y 9 0 X                                                             pXpXpXpXpXpXpXpXpXpXpXpXpXpXpXpXpXpXpXpXpXpXpXpXpXpXpXpXpXpXpXpXpXpXpXpXpXpXpXpXpXpXpXpXpXpXpXpXpXpXpXpXpXpXpXpXpXpXpXpXpXpXpXpXpXpXpXpXpXpXpXpXpXpXpXpXpXpXpXpXpXpXpXpXpXpXpXpXpXpXpXpXpXpXpXpXpXpXpXpXpXpXpXpXpXpXpXpXpXpXpXpXpXpXpXpXpXpXpX",
"pXpXpXpXpXpXpXpXpXpXpXpXpXpXpXpXpXpXpXpXpXpXpXpXpXpXpXpXpXpXpXpXpXpXpX..E .   @   U U 8 ;                                                             7XpXpXpXpXpXpXpXpXpXpXpXpXpXpXpXpXpXpXpXpXpXpXpXpXpXpXpXpXpXpXpXpXpXpXpXpXpXpXpXpXpXpXpXpXpXpXpXpXpXpXpXpXpX` E : . 2   2 I l 8 .                                                             pXpXpXpXpXpXpXpXpXpXpXpXpXpXpXpXpXpXpXpXpXpXpXpXpXpXpXpXpXpXpXpXpXpXpXpXpXpXpXpXpXpXpXpXpXpXpXpXpXpXpXpXpXpXpXpXpXpXpXpXpXpXpXpXpXpXpXpXpXpXpXpXpXpXpXpXpXpXpXpXpXpXpXpXpXpXpXpXpXpXpXpXpXpXpXpXpXpXpXpXpXpXpXpXpXpXpXpXpXpXpXpXpXpXpXpXpXpXpX",
"pXpXpXpXpXpXpXpXpXpXpXpXpXpXpXpXpXpXpXpXpXpXpXpXpXpXpXpXpXpXpXpXpXpXpXpX)     j 1 8 5 X .                                                           pXpXpXpXpXpXpXpXpXpXpXpXpXpXpXpXpXpXpXpXpXpXpXpXpXpXpXpXpXpXpXpXpXpXpXpXpXpXpXpXpXpXpXpXpXpXpXpXpXpXpXpXpXpXpX..E .   @   I U 8 ;                                                             7XpXpXpXpXpXpXpXpXpXpXpXpXpXpXpXpXpXpXpXpXpXpXpXpXpXpXpXpXpXpXpXpXpXpXpXpXpXpXpXpXpXpXpXpXpXpXpXpXpXpXpXpXpXpXpXpXpXpXpXpXpXpXpXpXpXpXpXpXpXpXpXpXpXpXpXpXpXpXpXpXpXpXpXpXpXpXpXpXpXpXpXpXpXpXpXpXpXpXpXpXpXpXpXpXpXpXpXpXpXpXpXpXpXpXpXpXpXpXpX",
"pXpXpXpXpXpXpXpXpXpXpXpXpXpXpXpXpXpXpXpXpXpXpXpXpXpXpXpXpXpXpXpXpXpXpXpX+.    1 Q t # . ) @                                                         pXpXpXpXpXpXpXpXpXpXpXpXpXpXpXpXpXpXpXpXpXpXpXpXpXpXpXpXpXpXpXpXpXpXpXpXpXpXpXpXpXpXpXpXpXpXpXpXpXpXpXpXpXpXpXpX)     j 1 8 5 X .                                                           pXpXpXpXpXpXpXpXpXpXpXpXpXpXpXpXpXpXpXpXpXpXpXpXpXpXpXpXpXpXpXpXpXpXpXpXpXpXpXpXpXpXpXpXpXpXpXpXpXpXpXpXpXpXpXpXpXpXpXpXpXpXpXpXpXpXpXpXpXpXpXpXpXpXpXpXpXpXpXpXpXpXpXpXpXpXpXpXpXpXpXpXpXpXpXpXpXpXpXpXpXpXpXpXpXpXpXpXpXpXpXpXpXpXpXpXpXpXpXpXpX",
"pXpXpXpXpXpXpXpXpXpXpXpXpXpXpXpXpXpXpXpXpXpXpXpXpXpXpXpXpXpXpXpXpXpXpXpX2X    x.0.r   6 ) @                                                       M pXpXpXpXpXpXpXpXpXpXpXpXpXpXpXpXpXpXpXpXpXpXpXpXpXpXpXpXpXpXpXpXpXpXpXpXpXpXpXpXpXpXpXpXpXpXpXpXpXpXpXpXpXpXpXpX+.    1 E t # . ) +                                                         pXpXpXpXpXpXpXpXpXpXpXpXpXpXpXpXpXpXpXpXpXpXpXpXpXpXpXpXpXpXpXpXpXpXpXpXpXpXpXpXpXpXpXpXpXpXpXpXpXpXpXpXpXpXpXpXpXpXpXpXpXpXpXpXpXpXpXpXpXpXpXpXpXpXpXpXpXpXpXpXpXpXpXpXpXpXpXpXpXpXpXpXpXpXpXpXpXpXpXpXpXpXpXpXpXpXpXpXpXpXpXpXpXpXpXpXpXpXpXpXpX",
"pXpXpXpXpXpXpXpXpXpXpXpXpXpXpXpXpXpXpXpXpXpXpXpXpXpXpXpXpXpXpXpXpXpXpXpXpXpXl.0.a q   6 E .                                                       7XpXpXpXpXpXpXpXpXpXpXpXpXpXpXpXpXpXpXpXpXpXpXpXpXpXpXpXpXpXpXpXpXpXpXpXpXpXpXpXpXpXpXpXpXpXpXpXpXpXpXpXpXpXpXpXpX2X    x.0.r   6 ) +                                                       M pXpXpXpXpXpXpXpXpXpXpXpXpXpXpXpXpXpXpXpXpXpXpXpXpXpXpXpXpXpXpXpXpXpXpXpXpXpXpXpXpXpXpXpXpXpXpXpXpXpXpXpXpXpXpXpXpXpXpXpXpXpXpXpXpXpXpXpXpXpXpXpXpXpXpXpXpXpXpXpXpXpXpXpXpXpXpXpXpXpXpXpXpXpXpXpXpXpXpXpXpXpXpXpXpXpXpXpXpXpXpXpXpXpXpXpXpXpXpXpXpX",
"pXpXpXpXpXpXpXpXpXpXpXpXpXpXpXpXpXpXpXpXpXpXpXpXpXpXpXpXpXpXpXpXpXpXpXpXpXGX0.y q *   T 6                                                       . X pXpXpXpXpXpXpXpXpXpXpXpXpXpXpXpXpXpXpXpXpXpXpXpXpXpXpXpXpXpXpXpXpXpXpXpXpXpXpXpXpXpXpXpXpXpXpXpXpXpXpXpXpXpXpXpXpXpXl.0.a q   6 E                                                         7XpXpXpXpXpXpXpXpXpXpXpXpXpXpXpXpXpXpXpXpXpXpXpXpXpXpXpXpXpXpXpXpXpXpXpXpXpXpXpXpXpXpXpXpXpXpXpXpXpXpXpXpXpXpXpXpXpXpXpXpXpXpXpXpXpXpXpXpXpXpXpXpXpXpXpXpXpXpXpXpXpXpXpXpXpXpXpXpXpXpXpXpXpXpXpXpXpXpXpXpXpXpXpXpXpXpXpXpXpXpXpXpXpXpXpXpXpXpXpXpXpX",
"pXpXpXpXpXpXpXpXpXpXpXpXpXpXpXpXpXpXpXpXpXpXpXpXpXpXpXpXpXpXpXpXpXpXpXpXpXyXy y q * + Q 3         .                                             . X O pXpXpXpXpXpXpXpXpXpXpXpXpXpXpXpXpXpXpXpXpXpXpXpXpXpXpXpXpXpXpXpXpXpXpXpXpXpXpXpXpXpXpXpXpXpXpXpXpXpXpXpXpXpXpXpXGX0.y q *   T 6                                                       . X pXpXpXpXpXpXpXpXpXpXpXpXpXpXpXpXpXpXpXpXpXpXpXpXpXpXpXpXpXpXpXpXpXpXpXpXpXpXpXpXpXpXpXpXpXpXpXpXpXpXpXpXpXpXpXpXpXpXpXpXpXpXpXpXpXpXpXpXpXpXpXpXpXpXpXpXpXpXpXpXpXpXpXpXpXpXpXpXpXpXpXpXpXpXpXpXpXpXpXpXpXpXpXpXpXpXpXpXpXpXpXpXpXpXpXpXpXpXpXpXpX",
"pXpXpXpXpXpXpXpXpXpXpXpXpXpXpXpXpXpXpXpXpXpXpXpXpXpXpXpXpXpXpXpXpXpXpXpXpXpX0.y r e i c z > .   . @ 8 .                                         @ X . . pXpXpXpXpXpXpXpXpXpXpXpXpXpXpXpXpXpXpXpXpXpXpXpXpXpXpXpXpXpXpXpXpXpXpXpXpXpXpXpXpXpXpXpXpXpXpXpXpXpXpXpXpXpXpXyXy y q * + E 1         .                                             . X X pXpXpXpXpXpXpXpXpXpXpXpXpXpXpXpXpXpXpXpXpXpXpXpXpXpXpXpXpXpXpXpXpXpXpXpXpXpXpXpXpXpXpXpXpXpXpXpXpXpXpXpXpXpXpXpXpXpXpXpXpXpXpXpXpXpXpXpXpXpXpXpXpXpXpXpXpXpXpXpXpXpXpXpXpXpXpXpXpXpXpXpXpXpXpXpXpXpXpXpXpXpXpXpXpXpXpXpXpXpXpXpXpXpXpXpXpXpXpXpX",
"pXpXpXpXpXpXpXpXpXpXpXpXpXpXpXpXpXpXpXpXpXpXpXpXpXpXpXpXpXpXpXpXpXpXpXpXpXpXpXx.x.!.x.x.x.l.0.v > @ 2 8 2 1                                   @ @ @ . . X pXpXpXpXpXpXpXpXpXpXpXpXpXpXpXpXpXpXpXpXpXpXpXpXpXpXpXpXpXpXpXpXpXpXpXpXpXpXpXpXpXpXpXpXpXpXpXpXpXpXpXpXpXpXpX0.y r e i c z > .   . @ 8 .                                         @ X . . pXpXpXpXpXpXpXpXpXpXpXpXpXpXpXpXpXpXpXpXpXpXpXpXpXpXpXpXpXpXpXpXpXpXpXpXpXpXpXpXpXpXpXpXpXpXpXpXpXpXpXpXpXpXpXpXpXpXpXpXpXpXpXpXpXpXpXpXpXpXpXpXpXpXpXpXpXpXpXpXpXpXpXpXpXpXpXpXpXpXpXpXpXpXpXpXpXpXpXpXpXpXpXpXpXpXpXpXpXpXpXpXpXpXpXpXpXpXpX",
"pXpXpXpXpXpXpXpXpXpXpXpXpXpXpXpXpXpXpXpXpXpXpXpXpXpXpXpXpXpXpXpXpXpXpXpXpXpX~.n.n.n.n.n.n.x.l.k.n T 8 0 9 < , # < , . .                 @ . O , X # . X @ pXpXpXpXpXpXpXpXpXpXpXpXpXpXpXpXpXpXpXpXpXpXpXpXpXpXpXpXpXpXpXpXpXpXpXpXpXpXpXpXpXpXpXpXpXpXpXpXpXpXpXpXpXpXpXpXn.n.!.x.n.n.l.0.v e # 4 8 2 1                                   O @ @ . . X pXpXpXpXpXpXpXpXpXpXpXpXpXpXpXpXpXpXpXpXpXpXpXpXpXpXpXpXpXpXpXpXpXpXpXpXpXpXpXpXpXpXpXpXpXpXpXpXpXpXpXpXpXpXpXpXpXpXpXpXpXpXpXpXpXpXpXpXpXpXpXpXpXpXpXpXpXpXpXpXpXpXpXpXpXpXpXpXpXpXpXpXpXpXpXpXpXpXpXpXpXpXpXpXpXpXpXpXpXpXpXpXpXpXpXpXpXpX",
"pXpXpXpXpXpXpXpXpXpXpXpXpXpXpXpXpXpXpXpXpXpXpXpXpXpXpXpXpXpXpXpXpXpXpXpXpX!.!.x.x.x.n.n.x.x.l.k.0.3 W I 0 0 , , # < - , 2 2 # < @ $ @ $ - . . X X . X @ @ @ pXpXpXpXpXpXpXpXpXpXpXpXpXpXpXpXpXpXpXpXpXpXpXpXpXpXpXpXpXpXpXpXpXpXpXpXpXpXpXpXpXpXpXpXpXpXpXpXpXpXpXpXpXpX~.n.n.n.n.n.n.x.l.k.n T 8 0 8 < , # < , . .                 @ . X , X # . X @ pXpXpXpXpXpXpXpXpXpXpXpXpXpXpXpXpXpXpXpXpXpXpXpXpXpXpXpXpXpXpXpXpXpXpXpXpXpXpXpXpXpXpXpXpXpXpXpXpXpXpXpXpXpXpXpXpXpXpXpXpXpXpXpXpXpXpXpXpXpXpXpXpXpXpXpXpXpXpXpXpXpXpXpXpXpXpXpXpXpXpXpXpXpXpXpXpXpXpXpXpXpXpXpXpXpXpXpXpXpXpXpXpXpXpXpXpXpX",
"pXpXpXpXpXpXpXpXpXpXpXpXpXpXpXpXpXpXpXpXpXpXpXpXpXpXpXpXpXpXpXpXpXpXpXpXpXx.x.x.x.x.x.x.x.l.0.q.n @ ! 0 8 2 2 2 2 $ < , 2 1 < 4 $ # 8 8 $ $ .   X 2 @ # @ @ pXpXpXpXpXpXpXpXpXpXpXpXpXpXpXpXpXpXpXpXpXpXpXpXpXpXpXpXpXpXpXpXpXpXpXpXpXpXpXpXpXpXpXpXpXpXpXpXpXpXpXpXpX!.!.x.x.n.n.n.x.x.l.k.0.3 Q I 0 0 , < # < $ , 2 2 # < @ $ @ $ $ . . X X . X @ @ @ pXpXpXpXpXpXpXpXpXpXpXpXpXpXpXpXpXpXpXpXpXpXpXpXpXpXpXpXpXpXpXpXpXpXpXpXpXpXpXpXpXpXpXpXpXpXpXpXpXpXpXpXpXpXpXpXpXpXpXpXpXpXpXpXpXpXpXpXpXpXpXpXpXpXpXpXpXpXpXpXpXpXpXpXpXpXpXpXpXpXpXpXpXpXpXpXpXpXpXpXpXpXpXpXpXpXpXpXpXpXpXpXpXpXpXpXpX",
"pXpXpXpXpXpXpXpXpXpXpXpXpXpXpXpXpXpXpXpXpXpXpXpXpXpXpXpXpXpXpXpXpXpXpXpXpXl.z.l.l.l.l.x.k.k.q.q.# 0 0 L 0 8 8 0 8 I 0 1 < 1 < 2 2 # , 8 1 $ @ .   , @ @ @ # pXpXpXpXpXpXpXpXpXpXpXpXpXpXpXpXpXpXpXpXpXpXpXpXpXpXpXpXpXpXpXpXpXpXpXpXpXpXpXpXpXpXpXpXpXpXpXpXpXpXpXpXpXx.x.x.x.x.x.x.x.l.0.q.n @ Q 0 8 2 4 2 2 $ , , 2 1 < 4 $ # 8 8 $ $ . . X 2 @ # @ @ pXpXpXpXpXpXpXpXpXpXpXpXpXpXpXpXpXpXpXpXpXpXpXpXpXpXpXpXpXpXpXpXpXpXpXpXpXpXpXpXpXpXpXpXpXpXpXpXpXpXpXpXpXpXpXpXpXpXpXpXpXpXpXpXpXpXpXpXpXpXpXpXpXpXpXpXpXpXpXpXpXpXpXpXpXpXpXpXpXpXpXpXpXpXpXpXpXpXpXpXpXpXpXpXpXpXpXpXpXpXpXpXpXpXpXpXpX",
"pXpXpXpXpXpXpXpXpXpXpXpXpXpXpXpXpXpXpXpXpXpXpXpXpXpXpXpXpXpXpXpXpXpXpXpXpXq.0.0.0.q.q.q.q.q.n n # < 2 ..8 8 8 2 2 0 8 8 8 Q I 0 2 @ $ 1 - 1 # X . . @ @ @ # @ pXpXpXpXpXpXpXpXpXpXpXpXpXpXpXpXpXpXpXpXpXpXpXpXpXpXpXpXpXpXpXpXpXpXpXpXpXpXpXpXpXpXpXpXpXpXpXpXpXpXpXpXl.z.l.l.l.l.x.k.k.q.q.# 0 0 L 0 8 8 0 8 I 0 1 < 2 < 2 2 @ , 8 1 $ @ .   , @ @ @ # pXpXpXpXpXpXpXpXpXpXpXpXpXpXpXpXpXpXpXpXpXpXpXpXpXpXpXpXpXpXpXpXpXpXpXpXpXpXpXpXpXpXpXpXpXpXpXpXpXpXpXpXpXpXpXpXpXpXpXpXpXpXpXpXpXpXpXpXpXpXpXpXpXpXpXpXpXpXpXpXpXpXpXpXpXpXpXpXpXpXpXpXpXpXpXpXpXpXpXpXpXpXpXpXpXpXpXpXpXpXpXpXpXpXpXpXpX",
"pXpXpXpXpXpXpXpXpXpXpXpXpXpXpXpXpXpXpXpXpXpXpXpXpXpXpXpXpXpXpXpXpXpXpXpXpXq.q.0.n v v v 0.v p ; < 2 < o.W W 1 2 1 1 2 1 2 I I 0 2 @ , 8 < # < @ . . . $ 0 @ < # pXpXpXpXpXpXpXpXpXpXpXpXpXpXpXpXpXpXpXpXpXpXpXpXpXpXpXpXpXpXpXpXpXpXpXpXpXpXpXpXpXpXpXpXpXpXpXpXpXpXpXq.0.0.0.q.q.q.q.q.n n # < 2 ..8 8 8 2 2 0 8 8 8 Q I 0 2 # $ 1 $ 1 # X . . # @ @ # @ pXpXpXpXpXpXpXpXpXpXpXpXpXpXpXpXpXpXpXpXpXpXpXpXpXpXpXpXpXpXpXpXpXpXpXpXpXpXpXpXpXpXpXpXpXpXpXpXpXpXpXpXpXpXpXpXpXpXpXpXpXpXpXpXpXpXpXpXpXpXpXpXpXpXpXpXpXpXpXpXpXpXpXpXpXpXpXpXpXpXpXpXpXpXpXpXpXpXpXpXpXpXpXpXpXpXpXpXpXpXpXpXpXpXpXpX",
"pXpXpXpXpXpXpXpXpXpXpXpXpXpXpXpXpXpXpXpXpXpXpXpXpXpXpXpXpXpXpXpXpXpXpXpXpXz.v a a v a a a y y $ # , - R 9 I W 2 8 @.2 < < L L 0 0 # $ 8 , # 1 @ @ . X X @ X $ # pXpXpXpXpXpXpXpXpXpXpXpXpXpXpXpXpXpXpXpXpXpXpXpXpXpXpXpXpXpXpXpXpXpXpXpXpXpXpXpXpXpXpXpXpXpXpXpXpXpXpXq.q.0.n v v v 0.v p ; < 2 < o.W W 1 2 2 2 2 1 2 I I 9 2 @ , 8 < # < @ . . . $ 0 @ < # pXpXpXpXpXpXpXpXpXpXpXpXpXpXpXpXpXpXpXpXpXpXpXpXpXpXpXpXpXpXpXpXpXpXpXpXpXpXpXpXpXpXpXpXpXpXpXpXpXpXpXpXpXpXpXpXpXpXpXpXpXpXpXpXpXpXpXpXpXpXpXpXpXpXpXpXpXpXpXpXpXpXpXpXpXpXpXpXpXpXpXpXpXpXpXpXpXpXpXpXpXpXpXpXpXpXpXpXpXpXpXpXpXpXpX",
"pXpXpXpXpXpXpXpXpXpXpXpXpXpXpXpXpXpXpXpXpXpXpXpXpXpXpXpXpXpXpXpXpXpXpXpXpX&Xv a a a y r y y . $ # $ < ! 0 9 9 Y L 2 4 < , 8 I L 0 $ $ 2 < , < < @ .   @ @ , @ , @ pXpXpXpXpXpXpXpXpXpXpXpXpXpXpXpXpXpXpXpXpXpXpXpXpXpXpXpXpXpXpXpXpXpXpXpXpXpXpXpXpXpXpXpXpXpXpXpXpXpXz.v a a v a a a y y $ # < - R 0 I W 1 8 @.1 < < L L g 0 # $ 8 , # 1 @ @ X X X @ X $ @ pXpXpXpXpXpXpXpXpXpXpXpXpXpXpXpXpXpXpXpXpXpXpXpXpXpXpXpXpXpXpXpXpXpXpXpXpXpXpXpXpXpXpXpXpXpXpXpXpXpXpXpXpXpXpXpXpXpXpXpXpXpXpXpXpXpXpXpXpXpXpXpXpXpXpXpXpXpXpXpXpXpXpXpXpXpXpXpXpXpXpXpXpXpXpXpXpXpXpXpXpXpXpXpXpXpXpXpXpXpXpXpXpXpXpX",
"pXpXpXpXpXpXpXpXpXpXpXpXpXpXpXpXpXpXpXpXpXpXpXpXpXpXpXpXpXpXpXpXpXpXpXpXpXpXc t r t r r r t # # # @ 1 0 < 2 - 2 9 0 I 1 $ 8 0 8 0 , < 8 X., # < @ @ . . . # @ 1 @ pXpXpXpXpXpXpXpXpXpXpXpXpXpXpXpXpXpXpXpXpXpXpXpXpXpXpXpXpXpXpXpXpXpXpXpXpXpXpXpXpXpXpXpXpXpXpXpXpXpX&Xv a a a y r y y . $ # $ < ! 0 9 9 Y L 2 4 < , 8 I L 0 $ # 2 < , < < @ .   @ @ , @ , @ pXpXpXpXpXpXpXpXpXpXpXpXpXpXpXpXpXpXpXpXpXpXpXpXpXpXpXpXpXpXpXpXpXpXpXpXpXpXpXpXpXpXpXpXpXpXpXpXpXpXpXpXpXpXpXpXpXpXpXpXpXpXpXpXpXpXpXpXpXpXpXpXpXpXpXpXpXpXpXpXpXpXpXpXpXpXpXpXpXpXpXpXpXpXpXpXpXpXpXpXpXpXpXpXpXpXpXpXpXpXpXpXpXpX",
"pXpXpXpXpXpXpXpXpXpXpXpXpXpXpXpXpXpXpXpXpXpXpXpXpXpXpXpXpXpXpXpXpXpXpXpXpXpXn a e * q q t # @ @ @ @ # 2 < < 1 8 2 1 L X.8 2 2 9 0 4 1 I I < $ - @ @ . . . @ X.$ , X pXpXpXpXpXpXpXpXpXpXpXpXpXpXpXpXpXpXpXpXpXpXpXpXpXpXpXpXpXpXpXpXpXpXpXpXpXpXpXpXpXpXpXpXpXpXpXpXpXpXc t r t r r r t # # # @ 1 0 < 2 - 2 9 0 I 1 $ 8 0 8 0 , < 8 X., # 1 @ @ . . . # @ 1 @ pXpXpXpXpXpXpXpXpXpXpXpXpXpXpXpXpXpXpXpXpXpXpXpXpXpXpXpXpXpXpXpXpXpXpXpXpXpXpXpXpXpXpXpXpXpXpXpXpXpXpXpXpXpXpXpXpXpXpXpXpXpXpXpXpXpXpXpXpXpXpXpXpXpXpXpXpXpXpXpXpXpXpXpXpXpXpXpXpXpXpXpXpXpXpXpXpXpXpXpXpXpXpXpXpXpXpXpXpXpXpXpXpXpX",
"pXpXpXpXpXpXpXpXpXpXpXpXpXpXpXpXpXpXpXpXpXpXpXpXpXpXpXpXpXpXpXpXpXpXpXpXpXpX( t e * % o . # @ # @ @ @ # 4 , < - , 1 , < 4 4 I < 2 8 9 0 0 8 @., 2 @ @ . . . . , @ , @ pXpXpXpXpXpXpXpXpXpXpXpXpXpXpXpXpXpXpXpXpXpXpXpXpXpXpXpXpXpXpXpXpXpXpXpXpXpXpXpXpXpXpXpXpXpXpXpXpXn a e * q q t # @ @ # @ # 2 < < 1 8 2 1 L X.8 2 2 8 0 4 1 I I < $ , @ @ . . . @ X.$ , X pXpXpXpXpXpXpXpXpXpXpXpXpXpXpXpXpXpXpXpXpXpXpXpXpXpXpXpXpXpXpXpXpXpXpXpXpXpXpXpXpXpXpXpXpXpXpXpXpXpXpXpXpXpXpXpXpXpXpXpXpXpXpXpXpXpXpXpXpXpXpXpXpXpXpXpXpXpXpXpXpXpXpXpXpXpXpXpXpXpXpXpXpXpXpXpXpXpXpXpXpXpXpXpXpXpXpXpXpXpXpXpXpX",
"pXpXpXpXpXpXpXpXpXpXpXpXpXpXpXpXpXpXpXpXpXpXpXpXpXpXpXpXpXpXpXpXpXpXpXpXpXpXj c r * % o   # @ # # # # # 2 - - - - - - - - - g L 9 < 2 L o.0 8 2 8 # @ @ . . X L X $ @ X pXpXpXpXpXpXpXpXpXpXpXpXpXpXpXpXpXpXpXpXpXpXpXpXpXpXpXpXpXpXpXpXpXpXpXpXpXpXpXpXpXpXpXpXpXpXpXpX( t e * % o . # @ # # @ @ # 4 , < - , 1 , < 4 2 I < 1 8 8 0 0 8 @., 2 @ # . . . . , @ , @ pXpXpXpXpXpXpXpXpXpXpXpXpXpXpXpXpXpXpXpXpXpXpXpXpXpXpXpXpXpXpXpXpXpXpXpXpXpXpXpXpXpXpXpXpXpXpXpXpXpXpXpXpXpXpXpXpXpXpXpXpXpXpXpXpXpXpXpXpXpXpXpXpXpXpXpXpXpXpXpXpXpXpXpXpXpXpXpXpXpXpXpXpXpXpXpXpXpXpXpXpXpXpXpXpXpXpXpXpXpXpXpX",
"pXpXpXpXpXpXpXpXpXpXpXpXpXpXpXpXpXpXpXpXpXpXpXpXpXpXpXpXpXpXpXpXpXpXpXpXqXpXpXn e % o o   @ @ @ # # # # 8 # - - - < # $ , - # 4 0 2 8 Y Y I 8 , , < @ X @ . . X . # $ . . pXpXpXpXpXpXpXpXpXpXpXpXpXpXpXpXpXpXpXpXpXpXpXpXpXpXpXpXpXpXpXpXpXpXpXpXpXpXpXpXpXpXpXpXpXpXpXj a r * % o   # @ # # # # # 2 - - - - - - $ $ $ 0 L 8 < 1 L o.0 8 1 8 # @ @ . . X L X $ @ X pXpXpXpXpXpXpXpXpXpXpXpXpXpXpXpXpXpXpXpXpXpXpXpXpXpXpXpXpXpXpXpXpXpXpXpXpXpXpXpXpXpXpXpXpXpXpXpXpXpXpXpXpXpXpXpXpXpXpXpXpXpXpXpXpXpXpXpXpXpXpXpXpXpXpXpXpXpXpXpXpXpXpXpXpXpXpXpXpXpXpXpXpXpXpXpXpXpXpXpXpXpXpXpXpXpXpXpXpXpXpX",
"pXpXpXpXpXpXpXpXpXpXpXpXpXpXpXpXpXpXpXpXpXpXpXpXpXpXpXpXpXpXpXpXpXpXpXpXpXpXsXm e * * & o @ o.0 @ # # , , # # < # $ , - $ # , 1 $ , 0 1 1 9 8 L 1 L , @ @ X . @ @ . X @     pXpXpXpXpXpXpXpXpXpXpXpXpXpXpXpXpXpXpXpXpXpXpXpXpXpXpXpXpXpXpXpXpXpXpXpXpXpXpXpXpXpXpXpXpXpXpXn e % o o   @ @ @ # # # # 9 # - - - < # $ , - # 2 0 2 8 Y R I 4 , - , @ X @ . . X X # $ . . pXpXpXpXpXpXpXpXpXpXpXpXpXpXpXpXpXpXpXpXpXpXpXpXpXpXpXpXpXpXpXpXpXpXpXpXpXpXpXpXpXpXpXpXpXpXpXpXpXpXpXpXpXpXpXpXpXpXpXpXpXpXpXpXpXpXpXpXpXpXpXpXpXpXpXpXpXpXpXpXpXpXpXpXpXpXpXpXpXpXpXpXpXpXpXpXpXpXpXpXpXpXpXpXpXpXpXpXpXpX",
"pXpXpXpXpXpXpXpXpXpXpXpXpXpXpXpXpXpXpXpXpXpXpXpXpXpXpXpXpXpXpXpXpXpXpXpXqXpXpXm c c r * o   # nX@ @ # # # # # # $ - # - $ , , $ < < 1 8 8 2 I 0 Q 8 , , @ @ . .   . X X .   pXpXpXpXpXpXpXpXpXpXpXpXpXpXpXpXpXpXpXpXpXpXpXpXpXpXpXpXpXpXpXpXpXpXpXpXpXpXpXpXpXpXpXpXpXpXsXm e * * & o @ o.0 @ # # , , # # < # $ , - $ # , 1 - , 0 2 1 0 8 I 1 L , @ @ X . @ @ . X @     pXpXpXpXpXpXpXpXpXpXpXpXpXpXpXpXpXpXpXpXpXpXpXpXpXpXpXpXpXpXpXpXpXpXpXpXpXpXpXpXpXpXpXpXpXpXpXpXpXpXpXpXpXpXpXpXpXpXpXpXpXpXpXpXpXpXpXpXpXpXpXpXpXpXpXpXpXpXpXpXpXpXpXpXpXpXpXpXpXpXpXpXpXpXpXpXpXpXpXpXpXpXpXpXpXpXpXpXpX",
"pXpXpXpXpXpXpXpXpXpXpXpXpXpXpXpXpXpXpXpXpXpXpXpXpXpXpXpXpXpXpXpXpXpXpXpXpXpXpXt.z.z.r q o   O nX2 @ @ # # # # # - # # # # - 2 # , 8 < - , 0 8 ! I kX8 2 , @ O   X X # . @   < pXpXpXpXpXpXpXpXpXpXpXpXpXpXpXpXpXpXpXpXpXpXpXpXpXpXpXpXpXpXpXpXpXpXpXpXpXpXpXpXpXpXpXpXpXpXm c c r * o   # nX@ @ # # # # # # $ - # $ $ , , $ < < 1 8 8 2 I 0 Q 8 , , @ @ . .   . X . .   pXpXpXpXpXpXpXpXpXpXpXpXpXpXpXpXpXpXpXpXpXpXpXpXpXpXpXpXpXpXpXpXpXpXpXpXpXpXpXpXpXpXpXpXpXpXpXpXpXpXpXpXpXpXpXpXpXpXpXpXpXpXpXpXpXpXpXpXpXpXpXpXpXpXpXpXpXpXpXpXpXpXpXpXpXpXpXpXpXpXpXpXpXpXpXpXpXpXpXpXpXpXpXpXpXpXpXpXpX",
"pXpXpXpXpXpXpXpXpXpXpXpXpXpXpXpXpXpXpXpXpXpXpXpXpXpXpXpXpXpXpXpXpXpXpXpXpXpXpXz.z.q.r q %     kXX.@ @ @ # @ # # # # , # # # # $ $ $ 0 , < < 9 8 X.! 8 I , $ X . .   . . @ @ , wXpXpXpXpXpXpXpXpXpXpXpXpXpXpXpXpXpXpXpXpXpXpXpXpXpXpXpXpXpXpXpXpXpXpXpXpXpXpXpXpXpXpXpXpXpXt.z.z.r q o   X nX1 @ @ @ # @ # # - # # # # - 2 # , 8 < $ , 9 8 ! I kX8 2 , @ X   X . # . @   < pXpXpXpXpXpXpXpXpXpXpXpXpXpXpXpXpXpXpXpXpXpXpXpXpXpXpXpXpXpXpXpXpXpXpXpXpXpXpXpXpXpXpXpXpXpXpXpXpXpXpXpXpXpXpXpXpXpXpXpXpXpXpXpXpXpXpXpXpXpXpXpXpXpXpXpXpXpXpXpXpXpXpXpXpXpXpXpXpXpXpXpXpXpXpXpXpXpXpXpXpXpXpXpXpXpXpXpX",
"pXpXpXpXpXpXpXpXpXpXpXpXpXpXpXpXpXpXpXpXpXpXpXpXpXpXpXpXpXpXpXpXpXpXpXpXpXpXpXpX~ c t q %     gXgX@ @ O # @ # # # # - # # , # , 2 $ < , 1 < 8 0 ! Y 0 < 1 $ @ X . . . X @ @ $ . pXpXpXpXpXpXpXpXpXpXpXpXpXpXpXpXpXpXpXpXpXpXpXpXpXpXpXpXpXpXpXpXpXpXpXpXpXpXpXpXpXpXpXpXpXz.z.q.r q %     kXX.@ @ @ # @ # # # # , # # # # $ $ - 0 , < < 0 8 X.! 8 I , $ X . .   . . @ # , wXpXpXpXpXpXpXpXpXpXpXpXpXpXpXpXpXpXpXpXpXpXpXpXpXpXpXpXpXpXpXpXpXpXpXpXpXpXpXpXpXpXpXpXpXpXpXpXpXpXpXpXpXpXpXpXpXpXpXpXpXpXpXpXpXpXpXpXpXpXpXpXpXpXpXpXpXpXpXpXpXpXpXpXpXpXpXpXpXpXpXpXpXpXpXpXpXpXpXpXpXpXpXpXpXpXpXpX",
"pXpXpXpXpXpXpXpXpXpXpXpXpXpXpXpXpXpXpXpXpXpXpXpXpXpXpXpXpXpXpXpXpXpXpXpXpXpXpXpXpXpXc e %     hXkX@ @ @ @ @ , @ # # # # @ $ 4 , , , $ $ < 8 1 X.0 8 2 < 1 # # @ . . . . . . . . qXpXpXpXpXpXpXpXpXpXpXpXpXpXpXpXpXpXpXpXpXpXpXpXpXpXpXpXpXpXpXpXpXpXpXpXpXpXpXpXpXpXpXpXpXpX~ c t q %     gXgXO @ @ @ # # # # # - # # , # , 2 $ < , 1 < 8 0 ! Y 0 < 1 $ @ X . . . X @ @ $ . pXpXpXpXpXpXpXpXpXpXpXpXpXpXpXpXpXpXpXpXpXpXpXpXpXpXpXpXpXpXpXpXpXpXpXpXpXpXpXpXpXpXpXpXpXpXpXpXpXpXpXpXpXpXpXpXpXpXpXpXpXpXpXpXpXpXpXpXpXpXpXpXpXpXpXpXpXpXpXpXpXpXpXpXpXpXpXpXpXpXpXpXpXpXpXpXpXpXpXpXpXpXpXpXpXpXpX",
"pXpXpXpXpXpXpXpXpXpXpXpXpXpXpXpXpXpXpXpXpXpXpXpXpXpXpXpXpXpXpXpXpXpXpXpXpXpXpXpXpXz.y e * o   kXhX$ O @ O @ @ # # # @ @ # # $ # $ # , 0 , < 8 8 @.8 1 1 < , , @ X . . . . . . . # pXpXpXpXpXpXpXpXpXpXpXpXpXpXpXpXpXpXpXpXpXpXpXpXpXpXpXpXpXpXpXpXpXpXpXpXpXpXpXpXpXpXpXpXpXpXpXc e %     hXkX@ @ @ @ @ , # # # # $ @ $ 4 , , , $ $ < 8 1 ..0 8 4 < 1 # # @ . . . . X . . . qXpXpXpXpXpXpXpXpXpXpXpXpXpXpXpXpXpXpXpXpXpXpXpXpXpXpXpXpXpXpXpXpXpXpXpXpXpXpXpXpXpXpXpXpXpXpXpXpXpXpXpXpXpXpXpXpXpXpXpXpXpXpXpXpXpXpXpXpXpXpXpXpXpXpXpXpXpXpXpXpXpXpXpXpXpXpXpXpXpXpXpXpXpXpXpXpXpXpXpXpXpXpXpXpXpXpX",
"pXpXpXpXpXpXpXpXpXpXpXpXpXpXpXpXpXpXpXpXpXpXpXpXpXpXpXpXpXpXpXpXpXpXpXpXpXpXpXpXGXz.b t %   . nXhX1 @ @ X @ # # # @ # # # # , $ $ $ $ 9 9 < 9 0 X.1 < < 1 < , # O . . . . . . . # pXpXpXpXpXpXpXpXpXpXpXpXpXpXpXpXpXpXpXpXpXpXpXpXpXpXpXpXpXpXpXpXpXpXpXpXpXpXpXpXpXpXpXpXpXpXz.y e * o   kXhX$ @ @ O @ @ # # # @ @ # # $ # $ # , 0 , < 9 8 @.8 2 2 , - , @ X . . . X X . . # pXpXpXpXpXpXpXpXpXpXpXpXpXpXpXpXpXpXpXpXpXpXpXpXpXpXpXpXpXpXpXpXpXpXpXpXpXpXpXpXpXpXpXpXpXpXpXpXpXpXpXpXpXpXpXpXpXpXpXpXpXpXpXpXpXpXpXpXpXpXpXpXpXpXpXpXpXpXpXpXpXpXpXpXpXpXpXpXpXpXpXpXpXpXpXpXpXpXpXpXpXpXpXpXpXpX",
"pXpXpXpXpXpXpXpXpXpXpXpXpXpXpXpXpXpXpXpXpXpXpXpXpXpXpXpXpXpXpXpXpXpXpXpXpXpXpXpXn.q.z.v e o   kXhX2 @ @ @ X X # # # # - , # # , # $ , , 2 0 < L 0 1 , < 2 1 1 - $ X     .   . . . @ pXpXpXpXpXpXpXpXpXpXpXpXpXpXpXpXpXpXpXpXpXpXpXpXpXpXpXpXpXpXpXpXpXpXpXpXpXpXpXpXpXpXpXpXGXz.b t %   . nXhX2 @ @ X O # # # @ # # # # , $ $ $ $ 8 8 < 9 0 X.1 < < < < , @ @ . . . . . . . # pXpXpXpXpXpXpXpXpXpXpXpXpXpXpXpXpXpXpXpXpXpXpXpXpXpXpXpXpXpXpXpXpXpXpXpXpXpXpXpXpXpXpXpXpXpXpXpXpXpXpXpXpXpXpXpXpXpXpXpXpXpXpXpXpXpXpXpXpXpXpXpXpXpXpXpXpXpXpXpXpXpXpXpXpXpXpXpXpXpXpXpXpXpXpXpXpXpXpXpXpXpXpXpXpXpX",
"pXpXpXpXpXpXpXpXpXpXpXpXpXpXpXpXpXpXpXpXpXpXpXpXpXpXpXpXpXpXpXpXpXpXpXpXpXpXpXpXU.z.z.a r &   hXhX8 @ @ @ X X # # @ # @ # # # $ # , $ < # 2 g 0 Y 2 , < < 1 < 1 $ @ X .   . X   . @ pXpXpXpXpXpXpXpXpXpXpXpXpXpXpXpXpXpXpXpXpXpXpXpXpXpXpXpXpXpXpXpXpXpXpXpXpXpXpXpXpXpXpXpXn.q.z.v e o   kXhX2 @ @ @ X X # @ @ # - , # # , # $ , , 2 0 < L 0 1 , < 2 1 < $ - X     .   . . . @ pXpXpXpXpXpXpXpXpXpXpXpXpXpXpXpXpXpXpXpXpXpXpXpXpXpXpXpXpXpXpXpXpXpXpXpXpXpXpXpXpXpXpXpXpXpXpXpXpXpXpXpXpXpXpXpXpXpXpXpXpXpXpXpXpXpXpXpXpXpXpXpXpXpXpXpXpXpXpXpXpXpXpXpXpXpXpXpXpXpXpXpXpXpXpXpXpXpXpXpXpXpXpXpXpX",
"pXpXpXpXpXpXpXpXpXpXpXpXpXpXpXpXpXpXpXpXpXpXpXpXpXpXpXpXpXpXpXpXpXpXpXpXpXpXpXpXbXI.q.p r %   O.kXI # @ X @ X X # # # # # $ $ # $ $ $ - 8 2 8 ! 8 < , , < < < , # X @ < . . . @ @ @ 8 pXpXpXpXpXpXpXpXpXpXpXpXpXpXpXpXpXpXpXpXpXpXpXpXpXpXpXpXpXpXpXpXpXpXpXpXpXpXpXpXpXpXpXU.z.z.a r &   hXhX8 @ @ O X X # # @ # @ # # # $ # , $ < # 2 g 0 Y 2 , < < 1 < 1 - @ X .   . X   . @ pXpXpXpXpXpXpXpXpXpXpXpXpXpXpXpXpXpXpXpXpXpXpXpXpXpXpXpXpXpXpXpXpXpXpXpXpXpXpXpXpXpXpXpXpXpXpXpXpXpXpXpXpXpXpXpXpXpXpXpXpXpXpXpXpXpXpXpXpXpXpXpXpXpXpXpXpXpXpXpXpXpXpXpXpXpXpXpXpXpXpXpXpXpXpXpXpXpXpXpXpXpXpXpXpX",
"pXpXpXpXpXpXpXpXpXpXpXpXpXpXpXpXpXpXpXpXpXpXpXpXpXpXpXpXpXpXpXpXpXpXpXpXpXpXpXpXpXI.p a r %   ! kXW # # @ @ X X @ # @ # # @ , @ # , < # 2 2 < 0 1 < , $ - - , 2 $ X X X @ 8 . X . . . . X pXpXpXpXpXpXpXpXpXpXpXpXpXpXpXpXpXpXpXpXpXpXpXpXpXpXpXpXpXpXpXpXpXpXpXpXpXpXpXpXpXbXI.q.p r %   O.kXI @ @ X @ X X @ # # # # $ $ # - $ $ $ 8 4 8 ! 8 < , , < < < , # X @ , .   . @ @ @ 8 pXpXpXpXpXpXpXpXpXpXpXpXpXpXpXpXpXpXpXpXpXpXpXpXpXpXpXpXpXpXpXpXpXpXpXpXpXpXpXpXpXpXpXpXpXpXpXpXpXpXpXpXpXpXpXpXpXpXpXpXpXpXpXpXpXpXpXpXpXpXpXpXpXpXpXpXpXpXpXpXpXpXpXpXpXpXpXpXpXpXpXpXpXpXpXpXpXpXpXpXpXpXpXpX",
"pXpXpXpXpXpXpXpXpXpXpXpXpXpXpXpXpXpXpXpXpXpXpXpXpXpXpXpXpXpXpXpXpXpXpXpXpXpXpXpXpXH.a a r %   o.kXL # # @ O O X X @ - # # # # , - $ - 8 $ < I 2 , , # $ # , - $ # @ X . . . @ X .     . . . pXpXpXpXpXpXpXpXpXpXpXpXpXpXpXpXpXpXpXpXpXpXpXpXpXpXpXpXpXpXpXpXpXpXpXpXpXpXpXpXpXI.p a r %   ! kXW @ @ @ @ X X O @ @ # # @ , @ # , < # 2 2 < 0 1 < , $ $ - , 2 $ X X X @ 8 . X . . . . X pXpXpXpXpXpXpXpXpXpXpXpXpXpXpXpXpXpXpXpXpXpXpXpXpXpXpXpXpXpXpXpXpXpXpXpXpXpXpXpXpXpXpXpXpXpXpXpXpXpXpXpXpXpXpXpXpXpXpXpXpXpXpXpXpXpXpXpXpXpXpXpXpXpXpXpXpXpXpXpXpXpXpXpXpXpXpXpXpXpXpXpXpXpXpXpXpXpXpXpXpXpX",
"pXpXpXpXpXpXpXpXpXpXpXpXpXpXpXpXpXpXpXpXpXpXpXpXpXpXpXpXpXpXpXpXpXpXpXpXpXpXpXpXpXpXq.a r o   ) nXW < @ @ @ O X @ @ # - # # # $ , , $ , - , 1 0 $ # , # $ $ - # @ @ @ O . . X X 8 .   . . . . pXpXpXpXpXpXpXpXpXpXpXpXpXpXpXpXpXpXpXpXpXpXpXpXpXpXpXpXpXpXpXpXpXpXpXpXpXpXpXpXH.a a r %   o.kXL # # @ @ @ X X @ - # # # # , - $ - 9 $ < I 2 , , # $ # , - $ # @ X . . . @ X . . . . . . pXpXpXpXpXpXpXpXpXpXpXpXpXpXpXpXpXpXpXpXpXpXpXpXpXpXpXpXpXpXpXpXpXpXpXpXpXpXpXpXpXpXpXpXpXpXpXpXpXpXpXpXpXpXpXpXpXpXpXpXpXpXpXpXpXpXpXpXpXpXpXpXpXpXpXpXpXpXpXpXpXpXpXpXpXpXpXpXpXpXpXpXpXpXpXpXpXpXpXpXpX",
"pXpXpXpXpXpXpXpXpXpXpXpXpXpXpXpXpXpXpXpXpXpXpXpXpXpXpXpXpXpXpXpXpXpXpXpXpXpXpXpXqXqXpXn r *   ..kX! 1 @ # @ @ O @ @ @ - # # # $ # - $ $ $ < , $ # $ - $ # - - # @ @ @ @ X . . . X @ .   . . . X X pXpXpXpXpXpXpXpXpXpXpXpXpXpXpXpXpXpXpXpXpXpXpXpXpXpXpXpXpXpXpXpXpXpXpXpXpXpXpXq.a r o   / nXW < @ @ @ @ X O @ # - # # # $ , , $ , $ , 1 0 $ # , # $ $ - # @ @ @ X . . X X 8 .   . . . . pXpXpXpXpXpXpXpXpXpXpXpXpXpXpXpXpXpXpXpXpXpXpXpXpXpXpXpXpXpXpXpXpXpXpXpXpXpXpXpXpXpXpXpXpXpXpXpXpXpXpXpXpXpXpXpXpXpXpXpXpXpXpXpXpXpXpXpXpXpXpXpXpXpXpXpXpXpXpXpXpXpXpXpXpXpXpXpXpXpXpXpXpXpXpXpXpXpXpXpX",
"pXpXpXpXpXpXpXpXpXpXpXpXpXpXpXpXpXpXpXpXpXpXpXpXpXpXpXpXpXpXpXpXpXpXpXpXpXpXpXpXpXpXpXT e o   Q nXX.1 @ @ @ @ @ X X @ @ @ 2 # # , # < $ , , < , $ # # # $ - $ $ @ @ @ @ O X . . X . @ . . . . . .   pXpXpXpXpXpXpXpXpXpXpXpXpXpXpXpXpXpXpXpXpXpXpXpXpXpXpXpXpXpXpXpXpXpXpXpXpXpXpXn r *   ..kX! 1 @ @ @ @ @ O O @ - # # # $ # - - - $ < , $ # $ - $ # - - # @ @ @ @ X . . . X @     . . . X X pXpXpXpXpXpXpXpXpXpXpXpXpXpXpXpXpXpXpXpXpXpXpXpXpXpXpXpXpXpXpXpXpXpXpXpXpXpXpXpXpXpXpXpXpXpXpXpXpXpXpXpXpXpXpXpXpXpXpXpXpXpXpXpXpXpXpXpXpXpXpXpXpXpXpXpXpXpXpXpXpXpXpXpXpXpXpXpXpXpXpXpXpXpXpXpXpXpX",
"pXpXpXpXpXpXpXpXpXpXpXpXpXpXpXpXpXpXpXpXpXpXpXpXpXpXpXpXpXpXpXpXpXpXpXpXpXpXpXpXpXpXb.a e &   Y hXQ 1 @ @ @ O @ X X @ @ # # < $ < 2 $ # , 2 # # # # # $ # # , $ # # @ @ # @ X . . . . . . . . . @ @ # @ pXpXpXpXpXpXpXpXpXpXpXpXpXpXpXpXpXpXpXpXpXpXpXpXpXpXpXpXpXpXpXpXpXpXpXpXpXT e o   Q nXX.1 @ # @ @ @ X X @ @ # 2 # # , # < $ , , < , $ # # # $ - $ $ @ @ @ @ @ X . . X . @ .     . . .   pXpXpXpXpXpXpXpXpXpXpXpXpXpXpXpXpXpXpXpXpXpXpXpXpXpXpXpXpXpXpXpXpXpXpXpXpXpXpXpXpXpXpXpXpXpXpXpXpXpXpXpXpXpXpXpXpXpXpXpXpXpXpXpXpXpXpXpXpXpXpXpXpXpXpXpXpXpXpXpXpXpXpXpXpXpXpXpXpXpXpXpXpXpXpXpXpX",
"pXpXpXpXpXpXpXpXpXpXpXpXpXpXpXpXpXpXpXpXpXpXpXpXpXpXpXpXpXpXpXpXpXpXpXpXpXpXpXpXpXpXx.0.i * . L hXo.1 @ X @ @ @ @ @ @ @ @ # # < # < < , - $ # # @ @ # # # # $ < , $ @ @ @ @ @ . . . . . . @   . @ @ X @ @ pXpXpXpXpXpXpXpXpXpXpXpXpXpXpXpXpXpXpXpXpXpXpXpXpXpXpXpXpXpXpXpXpXpXpXb.a e &   Y hXQ 1 @ @ @ @ @ X X @ # # # < $ < 2 - # , 2 # # # # # $ # # , $ # # @ @ # @ X . . . . . .     . @ @ # @ pXpXpXpXpXpXpXpXpXpXpXpXpXpXpXpXpXpXpXpXpXpXpXpXpXpXpXpXpXpXpXpXpXpXpXpXpXpXpXpXpXpXpXpXpXpXpXpXpXpXpXpXpXpXpXpXpXpXpXpXpXpXpXpXpXpXpXpXpXpXpXpXpXpXpXpXpXpXpXpXpXpXpXpXpXpXpXpXpXpXpXpXpXpXpX",
"pXpXpXpXpXpXpXpXpXpXpXpXpXpXpXpXpXpXpXpXpXpXpXpXpXpXpXpXpXpXpXpXpXpXpXpXpXpXpXpXpXpXz.k.a *   0 kXX.0 @ X @ @ @ @ @ X @ O < @ @ , $ $ < $ @ # @ @ @ @ @ @ # $ $ 1 < , $ $ @ $ # @ O . . . . . . . # X X X @ pXpXpXpXpXpXpXpXpXpXpXpXpXpXpXpXpXpXpXpXpXpXpXpXpXpXpXpXpXpXpXpXpXpXx.0.i * . L hXo.1 @ O @ @ @ @ @ @ @ # # # < # < < , - $ # # @ @ # # # # $ < , $ @ @ @ @ @ . . . . . . @     @ @ X @ @ pXpXpXpXpXpXpXpXpXpXpXpXpXpXpXpXpXpXpXpXpXpXpXpXpXpXpXpXpXpXpXpXpXpXpXpXpXpXpXpXpXpXpXpXpXpXpXpXpXpXpXpXpXpXpXpXpXpXpXpXpXpXpXpXpXpXpXpXpXpXpXpXpXpXpXpXpXpXpXpXpXpXpXpXpXpXpXpXpXpXpXpXpXpX",
"pXpXpXpXpXpXpXpXpXpXpXpXpXpXpXpXpXpXpXpXpXpXpXpXpXpXpXpXpXpXpXpXpXpXpXpXpXpXpXpXpXpXx.q.n t   0 hXX.8 @ X @ # @ @ X @ O X @ @ # # - < 2 @ @ @ @ @ @ @ @ @ @ @ # , 1 , < $ # , 0 1 X . . .       X @ $ @ X @ pXpXpXpXpXpXpXpXpXpXpXpXpXpXpXpXpXpXpXpXpXpXpXpXpXpXpXpXpXpXpXpXpXpXz.k.a * . 0 kXX.0 @ O @ @ @ @ @ X @ O < @ @ , $ $ < $ @ # @ @ @ @ @ @ @ $ $ 1 < , $ $ @ $ # @ O . . . . . X . # X X X @ pXpXpXpXpXpXpXpXpXpXpXpXpXpXpXpXpXpXpXpXpXpXpXpXpXpXpXpXpXpXpXpXpXpXpXpXpXpXpXpXpXpXpXpXpXpXpXpXpXpXpXpXpXpXpXpXpXpXpXpXpXpXpXpXpXpXpXpXpXpXpXpXpXpXpXpXpXpXpXpXpXpXpXpXpXpXpXpXpXpXpXpXpX",
"pXpXpXpXpXpXpXpXpXpXpXpXpXpXpXpXpXpXpXpXpXpXpXpXpXpXpXpXpXpXpXpXpXpXpXpXpXpXpXpXpXpXmXx.z.i   8 b.o.2 @ X O # @ @ @ @ X O @ @ # $ - , # @ @ @ @ @ X O X @ @ @ @ # $ , < $ # # , 2 # @ . .     . . . # # X X @ pXpXpXpXpXpXpXpXpXpXpXpXpXpXpXpXpXpXpXpXpXpXpXpXpXpXpXpXpXpXpXpXpXx.q.n t   0 kXX.8 @ X @ # @ @ X @ @ O @ @ # # $ < 1 @ @ @ @ @ @ @ @ @ @ @ # , 1 , < $ # , 0 1 O . . .       X @ $ @ X @ pXpXpXpXpXpXpXpXpXpXpXpXpXpXpXpXpXpXpXpXpXpXpXpXpXpXpXpXpXpXpXpXpXpXpXpXpXpXpXpXpXpXpXpXpXpXpXpXpXpXpXpXpXpXpXpXpXpXpXpXpXpXpXpXpXpXpXpXpXpXpXpXpXpXpXpXpXpXpXpXpXpXpXpXpXpXpXpXpXpXpXpXpX",
"pXpXpXpXpXpXpXpXpXpXpXpXpXpXpXpXpXpXpXpXpXpXpXpXpXpXpXpXpXpXpXpXpXpXpXpXpXpXpXpXpXpXpXpXU.z.> 8 gXX.8 # @ X @ # @ @ @ @ @ @ @ @ @ $ @ @ @ @ @ @ X O @ X @ @ @ @ @ @ $ , < # @ # # @ @ X X @ . . X X X X . . @ pXpXpXpXpXpXpXpXpXpXpXpXpXpXpXpXpXpXpXpXpXpXpXpXpXpXpXpXpXpXpXpXpXmXx.z.i   8 OXo.2 @ X O # @ @ @ @ X O O @ # $ $ , @ @ @ @ @ @ @ @ @ @ @ @ @ # $ , < $ # # , 4 # @ . .     . . . # # . . @ pXpXpXpXpXpXpXpXpXpXpXpXpXpXpXpXpXpXpXpXpXpXpXpXpXpXpXpXpXpXpXpXpXpXpXpXpXpXpXpXpXpXpXpXpXpXpXpXpXpXpXpXpXpXpXpXpXpXpXpXpXpXpXpXpXpXpXpXpXpXpXpXpXpXpXpXpXpXpXpXpXpXpXpXpXpXpXpXpXpXpXpX",
"pXpXpXpXpXpXpXpXpXpXpXpXpXpXpXpXpXpXpXpXpXpXpXpXpXpXpXpXpXpXpXpXpXpXpXpXpXpXpXpXpXpXpXpXAXJX# 2 @.X.0 # @ X O # # @ @ @ @ @ X @ @ @ @ @ X @ @ @ @ O @ @ @ @ @ @ @ @ @ # # @ # @ @ @ @ @ 2 # X . # , < $ X X @ pXpXpXpXpXpXpXpXpXpXpXpXpXpXpXpXpXpXpXpXpXpXpXpXpXpXpXpXpXpXpXpXpXpXpXU.z.> 8 gXX.9 # @ X @ # @ @ @ @ @ @ @ @ @ $ @ @ @ @ @ @ @ @ @ X @ @ @ @ @ @ $ , < # @ # $ @ @ X X @ . . X X X X . . @ pXpXpXpXpXpXpXpXpXpXpXpXpXpXpXpXpXpXpXpXpXpXpXpXpXpXpXpXpXpXpXpXpXpXpXpXpXpXpXpXpXpXpXpXpXpXpXpXpXpXpXpXpXpXpXpXpXpXpXpXpXpXpXpXpXpXpXpXpXpXpXpXpXpXpXpXpXpXpXpXpXpXpXpXpXpXpXpXpXpXpXpX",
"pXpXpXpXpXpXpXpXpXpXpXpXpXpXpXpXpXpXpXpXpXpXpXpXpXpXpXpXpXpXpXpXpXpXpXpXpXpXpXpXpXpXpXpXxXLX@ 4 gXX.8 @ @ X @ # @ @ @ @ @ @ X @ @ @ @ @ @ @ O X @ @ @ @ @ @ @ @ @ @ # @ # # # # $ @ X @ # , @ @ < @ # $ @ @ # pXpXpXpXpXpXpXpXpXpXpXpXpXpXpXpXpXpXpXpXpXpXpXpXpXpXpXpXpXpXpXpXpXpXpXAXJX@ 2 @.X.0 @ @ X O # @ @ @ O X X X @ @ @ @ @ X @ @ @ @ @ @ @ X @ @ @ @ @ @ # # # # @ # @ @ @ 2 # X . # , < $ X X @ pXpXpXpXpXpXpXpXpXpXpXpXpXpXpXpXpXpXpXpXpXpXpXpXpXpXpXpXpXpXpXpXpXpXpXpXpXpXpXpXpXpXpXpXpXpXpXpXpXpXpXpXpXpXpXpXpXpXpXpXpXpXpXpXpXpXpXpXpXpXpXpXpXpXpXpXpXpXpXpXpXpXpXpXpXpXpXpXpXpXpXpX",
"pXpXpXpXpXpXpXpXpXpXpXpXpXpXpXpXpXpXpXpXpXpXpXpXpXpXpXpXpXpXpXpXpXpXpXpXpXpXpXpXpXpXpXpXL.LX@ < @.o.8 # X X @ $ @ @ @ @ @ @ @ X X @ @ X X X X @ @ @ X @ O @ @ @ @ # # # # $ # # # @ X O X . . . . @ @ # X X , @ pXpXpXpXpXpXpXpXpXpXpXpXpXpXpXpXpXpXpXpXpXpXpXpXpXpXpXpXpXpXpXpXpXpXxXLX@ 4 gXX.8 @ @ O @ # @ @ @ @ X X X @ @ @ @ @ @ @ @ O @ @ @ @ X @ @ @ @ @ @ @ # # # # $ @ X @ # , @ @ < @ # $ @ @ # pXpXpXpXpXpXpXpXpXpXpXpXpXpXpXpXpXpXpXpXpXpXpXpXpXpXpXpXpXpXpXpXpXpXpXpXpXpXpXpXpXpXpXpXpXpXpXpXpXpXpXpXpXpXpXpXpXpXpXpXpXpXpXpXpXpXpXpXpXpXpXpXpXpXpXpXpXpXpXpXpXpXpXpXpXpXpXpXpXpXpXpX",
"pXpXpXpXpXpXpXpXpXpXpXpXpXpXpXpXpXpXpXpXpXpXpXpXpXpXpXpXpXpXpXpXpXpXpXpXpXpXpXpXpXpXpXpXJ.LX# , gXX.0 # X X @ $ # @ @ @ @ @ @ @ X X X @ @ @ X X @ X O X X X @ @ @ @ $ , $ , < $ # @ X X X . . . . X @ @ O O $ # pXpXpXpXpXpXpXpXpXpXpXpXpXpXpXpXpXpXpXpXpXpXpXpXpXpXpXpXpXpXpXpXpXpXL.LX@ < @.o.8 # O X @ $ @ @ @ @ X X @ X @ @ @ X X X @ @ @ @ X O O @ @ @ @ # # # # $ # # # @ X X X . . . . O # # X O , # pXpXpXpXpXpXpXpXpXpXpXpXpXpXpXpXpXpXpXpXpXpXpXpXpXpXpXpXpXpXpXpXpXpXpXpXpXpXpXpXpXpXpXpXpXpXpXpXpXpXpXpXpXpXpXpXpXpXpXpXpXpXpXpXpXpXpXpXpXpXpXpXpXpXpXpXpXpXpXpXpXpXpXpXpXpXpXpXpXpXpX",
"pXpXpXpXpXpXpXpXpXpXpXpXpXpXpXpXpXpXpXpXpXpXpXpXpXpXpXpXpXpXpXpXpXpXpXpXpXpXpXpXpXpXpXpXv.LX< , @.o.0 @ @ X @ @ $ @ @ @ @ @ @ @ X X @ @ @ X X X @ X X X X @ @ @ @ @ @ # # # # # $ @ X X . .   . . . X X X @ # @ # pXpXpXpXpXpXpXpXpXpXpXpXpXpXpXpXpXpXpXpXpXpXpXpXpXpXpXpXpXpXpXpXpXK.LX# , gXX.0 # O X @ $ # @ @ @ @ @ @ @ @ @ X X X X X X @ X @ X X X @ @ @ @ $ , $ , < $ # @ X X X . . .   X @ @ O O $ # pXpXpXpXpXpXpXpXpXpXpXpXpXpXpXpXpXpXpXpXpXpXpXpXpXpXpXpXpXpXpXpXpXpXpXpXpXpXpXpXpXpXpXpXpXpXpXpXpXpXpXpXpXpXpXpXpXpXpXpXpXpXpXpXpXpXpXpXpXpXpXpXpXpXpXpXpXpXpXpXpXpXpXpXpXpXpXpXpXpXpX",
"pXpXpXpXpXpXpXpXpXpXpXpXpXpXpXpXpXpXpXpXpXpXpXpXpXpXpXpXpXpXpXpXpXpXpXpXpXpXpXpXpXpXpXpX+.AXl $ X.X.L @ @ X X , , @ @ @ @ @ @ @ X O X X @ X X X X X @ X X @ @ @ @ @ @ # # @ @ # # @ X X . . . . . X X X . . X X @ pXpXpXpXpXpXpXpXpXpXpXpXpXpXpXpXpXpXpXpXpXpXpXpXpXpXpXpXpXpXpXpXpXv.LX< , @.o.0 @ @ X @ @ , @ @ @ @ @ @ @ X X @ @ @ X X X @ X X X X @ @ @ @ @ @ # # # # # $ @ X X . .   . . . X X X @ # @ # pXpXpXpXpXpXpXpXpXpXpXpXpXpXpXpXpXpXpXpXpXpXpXpXpXpXpXpXpXpXpXpXpXpXpXpXpXpXpXpXpXpXpXpXpXpXpXpXpXpXpXpXpXpXpXpXpXpXpXpXpXpXpXpXpXpXpXpXpXpXpXpXpXpXpXpXpXpXpXpXpXpXpXpXpXpXpXpXpXpX",
"pXpXpXpXpXpXpXpXpXpXpXpXpXpXpXpXpXpXpXpXpXpXpXpXpXpXpXpXpXpXpXpXpXpXpXpXpXpXpXpXpXpXpXpXo.xX_ , X...I @ @ X @ # $ @ @ @ @ @ @ @ X @ X O X X X @ @ @ X @ @ @ @ @ @ @ @ @ # @ @ @ @ X X X . . . .   . . X . . . . X pXpXpXpXpXpXpXpXpXpXpXpXpXpXpXpXpXpXpXpXpXpXpXpXpXpXpXpXpXpXpXpXpX+.AXl - X.X.L @ @ X X , , @ @ # @ @ @ @ X @ X X @ X X X X X @ X X @ @ @ @ @ @ # # # @ # # @ X X . . . . . X X X X . X X @ pXpXpXpXpXpXpXpXpXpXpXpXpXpXpXpXpXpXpXpXpXpXpXpXpXpXpXpXpXpXpXpXpXpXpXpXpXpXpXpXpXpXpXpXpXpXpXpXpXpXpXpXpXpXpXpXpXpXpXpXpXpXpXpXpXpXpXpXpXpXpXpXpXpXpXpXpXpXpXpXpXpXpXpXpXpXpXpXpXpX",
"pXpXpXpXpXpXpXpXpXpXpXpXpXpXpXpXpXpXpXpXpXpXpXpXpXpXpXpXpXpXpXpXpXpXpXpXpXpXpXpXpXpXpXpXpXpXpXpXpXpXpXpXpXpXpXpXpXpXpXpXpXpXpXpXpXpXpXpXpXpXpXpXpXpXpXpXpXpXpXpXpXpXpXpXpXpXpXpXpXpXpXpXpXpXpXpXpXpXpXpXpXpXpXpXpXpXpXpXpXpXpXpXpXpXpXpXpXpXpXpXpXpXpXpXpXpXpXpXpXpXpXpXpXpXpXpXpXpXo.xX_ , X...I @ @ X @ # $ @ # @ @ @ @ @ X @ X @ X X X @ @ @ X @ @ @ @ @ @ @ @ @ # # # # # O X . . . . .   X X X . . . . X pXpXpXpXpXpXpXpXpXpXpXpXpXpXpXpXpXpXpXpXpXpXpXpXpXpXpXpXpXpXpXpXpXpXpXpXpXpXpXpXpXpXpXpXpXpXpXpXpXpXpXpXpXpXpXpXpXpXpXpXpXpXpXpXpXpXpXpXpXpXpXpXpXpXpXpXpXpXpXpXpXpXpXpXpXpXpXpXpXpX",
"pXpXpXpXpXpXpXpXpXpXpXpXpXpXpXpXpXpXpXpXpXpXpXpXpXpXpXpXpXpXpXpXpXpXpXpXpXpXpXpXpXpXpXpXpXpXpXpXpXpXpXpXpXpXpXpXpXpXpXpXpXpXpXpXpXpXpXpXpXpXpXpXpXpXpXpXpXpXpXpXpXpXpXpXpXpXpXpXpXpXpXpXpXpXpXpXpXpXpXpXpXpXpXpXpXpXpXpXpXpXpXpXpXpXpXpXpXpXpXpXpXpXpXpXpXpXpXpXpXpXpXpXpXpXpXpXpXpXpXpXpXpXpXpXpXpXpXpXpXpXpXpXpXpXpXpXpXpXpXpXpXpXpXpXpXpXpXpXpXpXpXpXpXpXpXpXpXpXpXpXpXpXpXpXpXpXpXpXpXpXpXpXpXpXpXpXpXpXpXpXpXpXpXpXpXpXpXpXpXpXpXpXpXpXpXpXpXpXpXpXpXpXpXpXpXpXpXpXpXpXpXpXpXpXpXpXpXpXpXpXpXpXpXpXpXpXpXpXpXpXpXpXpXpXpXpXpXpXpXpXpXpXpXpXpXpXpXpXpXpXpXpXpXpXpXpXpXpXpXpXpXpXpXpXpXpXpXpXpX",
"pXpXpXpXpXpXpXpXpXpXpXpXpXpXpXpXpXpXpXpXpXpXpXpXpXpXpXpXpXpXpXpXpXpXpXpXpXpXpXpXpXpXpXpXpXpXpXpXpXpXpXpXpXpXpXpXpXpXpXpXpXpXpXpXpXpXpXpXpXpXpXpXpXpXpXpXpXpXpXpXpXpXpXpXpXpXpXpXpXpXpXpXpXpXpXpXpXpXpXpXpXpXpXpXpXpXpXpXpXpXpXpXpXpXpXpXpXpXpXpXpXpXpXpXpXpXpXpXpXpXpXpXpXpXpXpXpXpXpXpXpXpXpXpXpXpXpXpXpXpXpXpXpXpXpXpXpXpXpXpXpXpXpXpXpXpXpXpXpXpXpXpXpXpXpXpXpXpXpXpXpXpXpXpXpXpXpXpXpXpXpXpXpXpXpXpXpXpXpXpXpXpXpXpXpXpXpXpXpXpXpXpXpXpXpXpXpXpXpXpXpXpXpXpXpXpXpXpXpXpXpXpXpXpXpXpXpXpXpXpXpXpXpXpXpXpXpXpXpXpXpXpXpXpXpXpXpXpXpXpXpXpXpXpXpXpXpXpXpXpXpXpXpXpXpXpXpXpXpXpXpXpXpXpXpXpXpXpXpX",
"pXpXpXpXpXpXpXpXpXpXpXpXpXpXpXpXpXpXpXpXpXpXpXpXpXpXpXpXpXpXpXpXpXpXpXpXpXpXpXpXpXpXpXpXpXpXpXpXpXpXpXpXpXpXpXpXpXpXpXpXpXpXpXpXpXpXpXpXpXpXpXpXpXpXpXpXpXpXpXpXpXpXpXpXpXpXpXpXpXpXpXpXpXpXpXpXpXpXpXpXpXpXpXpXpXpXpXpXpXpXpXpXpXpXpXpXpXpXpXpXpXpXpXpXpXpXpXpXpXpXpXpXpXpXpXpXpXpXpXpXpXpXpXpXpXpXpXpXpXpXpXpXpXpXpXpXpXpXpXpXpXpXpXpXpXpXpXpXpXpXpXpXpXpXpXpXpXpXpXpXpXpXpXpXpXpXpXpXpXpXpXpXpXpXpXpXpXpXpXpXpXpXpXpXpXpXpXpXpXpXpXpXpXpXpXpXpXpXpXpXpXpXpXpXpXpXpXpXpXpXpXpXpXpXpXpXpXpXpXpXpXpXpXpXpXpXpXpXpXpXpXpXpXpXpXpXpXpXpXpXpXpXpXpXpXpXpXpXpXpXpXpXpXpXpXpXpXpXpXpXpXpXpXpXpXpXpXpXpX",
"pXpXpXpXpXpXpXpXpXpXpXpXpXpXpXpXpXpXpXpXpXpXpXpXpXpXpXpXpXpXpXpXpXpXpXpXpXpXpXpXpXpXpXpXpXpXpXpXpXpXpXpXpXpXpXpXpXpXpXpXpXpXpXpXpXpXpXpXpXpXpXpXpXpXpXpXpXpXpXpXpXpXpXpXpXpXpXpXpXpXpXpXpXpXpXpXpXpXpXpXpXpXpXpXpXpXpXpXpXpXpXpXpXpXpXpXpXpXpXpXpXpXpXpXpXpXpXpXpXpXpXpXpXpXpXpXpXpXpXpXpXpXpXpXpXpXpXpXpXpXpXpXpXpXpXpXpXpXpXpXpXpXpXpXpXpXpXpXpXpXpXpXpXpXpXpXpXpXpXpXpXpXpXpXpXpXpXpXpXpXpXpXpXpXpXpXpXpXpXpXpXpXpXpXpXpXpXpXpXpXpXpXpXpXpXpXpXpXpXpXpXpXpXpXpXpXpXpXpXpXpXpXpXpXpXpXpXpXpXpXpXpXpXpXpXpXpXpXpXpXpXpXpXpXpXpXpXpXpXpXpXpXpXpXpXpXpXpXpXpXpXpXpXpXpXpXpXpXpXpXpXpXpXpXpXpXpXpXpX",
"pXpXpXpXpXpXpXpXpXpXpXpXpXpXpXpXpXpXpXpXpXpXpXpXpXpXpXpXpXpXpXpXpXpXpXpXpXpXpXpXpXpXpXpXpXpXpXpXpXpXpXpXpXpXpXpXpXpXpXpXpXpXpXpXpXpXpXpXpXpXpXpXpXpXpXpXpXpXpXpXpXpXpXpXpXpXpXpXpXpXpXpXpXpXpXpXpXpXpXpXpXpXpXpXpXpXpXpXpXpXpXpXpXpXpXpXpXpXpXpXpXpXpXpXpXpXpXpXpXpXpXpXpXpXpXpXpXpXpXpXpXpXpXpXpXpXpXpXpXpXpXpXpXpXpXpXpXpXpXpXpXpXpXpXpXpXpXpXpXpXpXpXpXpXpXpXpXpXpXpXpXpXpXpXpXpXpXpXpXpXpXpXpXpXpXpXpXpXpXpXpXpXpXpXpXpXpXpXpXpXpXpXpXpXpXpXpXpXpXpXpXpXpXpXpXpXpXpXpXpXpXpXpXpXpXpXpXpXpXpXpXpXpXpXpXpXpXpXpXpXpXpXpXpXpXpXpXpXpXpXpXpXpXpXpXpXpXpXpXpXpXpXpXpXpXpXpXpXpXpXpXpXpXpXpXpXpXpXpX",
"pXpXpXpXpXpXpXpXpXpXpXpXpXpXpXpXpXpXpXpXpXpXpXpXpXpXpXpXpXpXpXpXpXpXpXpXpXpXpXpXpXpXpXpXpXpXpXpXpXpXpXpXpXpXpXpXpXpXpXpXpXpXpXpXpXpXpXpXpXpXpXpXpXpXpXpXpXpXpXpXpXpXpXpXpXpXpXpXpXpXpXpXpXpXpXpXpXpXpXpXpXpXpXpXpXpXpXpXpXpXpXpXpXpXpXpXpXpXpXpXpXpXpXpXpXpXpXpXpXpXpXpXpXpXpXpXpXpXpXpXpXpXpXpXpXpXpXpXpXpXpXpXpXpXpXpXpXpXpXpXpXpXpXpXpXpXpXpXpXpXpXpXpXpXpXpXpXpXpXpXpXpXpXpXpXpXpXpXpXpXpXpXpXpXpXpXpXpXpXpXpXpXpXpXpXpXpXpXpXpXpXpXpXpXpXpXpXpXpXpXpXpXpXpXpXpXpXpXpXpXpXpXpXpXpXpXpXpXpXpXpXpXpXpXpXpXpXpXpXpXpXpXpXpXpXpXpXpXpXpXpXpXpXpXpXpXpXpXpXpXpXpXpXpXpXpXpXpXpXpXpXpXpXpXpXpXpXpXpX",
"pXpXpXpXpXpXpXpXpXpXpXpXpXpXpXpXpXpXpXpXpXpXpXpXpXpXpXpXpXpXpXpXpXpXpXpXpXpXpXpXpXpXpXpXpXpXpXpXpXpXpXpXpXpXpXpXpXpXpXpXpXpXpXpXpXpXpXpXpXpXpXpXpXpXpXpXpXpXpXpXpXpXpXpXpXpXpXpXpXpXpXpXpXpXpXpXpXpXpXpXpXpXpXpXpXpXpXpXpXpXpXpXpXpXpXpXpXpXpXpXpXpXpXpXpXpXpXpXpXpXpXpXpXpXpXpXpXpXpXpXpXpXpXpXpXpXpXpXpXpXpXpXpXpXpXpXpXpXpXpXpXpXpXpXpXpXpXpXpXpXpXpXpXpXpXpXpXpXpXpXpXpXpXpXpXpXpXpXpXpXpXpXpXpXpXpXpXpXpXpXpXpXpXpXpXpXpXpXpXpXpXpXpXpXpXpXpXpXpXpXpXpXpXpXpXpXpXpXpXpXpXpXpXpXpXpXpXpXpXpXpXpXpXpXpXpXpXpXpXpXpXpXpXpXpXpXpXpXpXpXpXpXpXpXpXpXpXpXpXpXpXpXpXpXpXpXpXpXpXpXpXpXpXpXpXpXpXpXpX",
"pXpXpXpXpXpXpXpXpXpXpXpXpXpXpXpXpXpXpXpXpXpXpXpXpXpXpXpXpXpXpXpXpXpXpXpXpXpXpXpXpXpXpXpXpXpXpXpXpXpXpXpXpXpXpXpXpXpXpXpXpXpXpXpXpXpXpXpXpXpXpXpXpXpXpXpXpXpXpXpXpXpXpXpXpXpXpXpXpXpXpXpXpXpXpXpXpXpXpXpXpXpXpXpXpXpXpXpXpXpXpXpXpXpXpXpXpXpXpXpXpXpXpXpXpXpXpXpXpXpXpXpXpXpXpXpXpXpXpXpXpXpXpXpXpXpXpXpXpXpXpXpXpXpXpXpXpXpXpXpXpXpXpXpXpXpXpXpXpXpXpXpXpXpXpXpXpXpXpXpXpXpXpXpXpXpXpXpXpXpXpXpXpXpXpXpXpXpXpXpXpXpXpXpXpXpXpXpXpXpXpXpXpXpXpXpXpXpXpXpXpXpXpXpXpXpXpXpXpXpXpXpXpXpXpXpXpXpXpXpXpXpXpXpXpXpXpXpXpXpXpXpXpXpXpXpXpXpXpXpXpXpXpXpXpXpXpXpXpXpXpXpXpXpXpXpXpXpXpXpXpXpXpXpXpXpXpXpXpX",
"pXpXpXpXpXpXpXpXpXpXpXpXpXpXpXpXpXpXpXpXpXpXpXpXpXpXpXpXpXpXpXpXpXpXpXpXpXpXpXpXpXpXpXpXpXpXpXpXpXpXpXpXpXpXpXpXpXpXpXpXpXpXpXpXpXpXpXpXpXpXpXpXpXpXpXpXpXpXpXpXpXpXpXpXpXpXpXpXpXpXpXpXpXpXpXpXpXpXpXpXpXpXpXpXpXpXpXpXpXpXpXpXpXpXpXpXpXpXpXpXpXpXpXpXpXpXpXpXpXpXpXpXpXpXpXpXpXpXpXpXpXpXpXpXpXpXpXpXpXpXpXpXpXpXpXpXpXpXpXpXpXpXpXpXpXpXpXpXpXpXpXpXpXpXpXpXpXpXpXpXpXpXpXpXpXpXpXpXpXpXpXpXpXpXpXpXpXpXpXpXpXpXpXpXpXpXpXpXpXpXpXpXpXpXpXpXpXpXpXpXpXpXpXpXpXpXpXpXpXpXpXpXpXpXpXpXpXpXpXpXpXpXpXpXpXpXpXpXpXpXpXpXpXpXpXpXpXpXpXpXpXpXpXpXpXpXpXpXpXpXpXpXpXpXpXpXpXpXpXpXpXpXpXpXpXpXpXpXpX",
"pXpXpXpXpXpXpXpXpXpXpXpXpXpXpXpXpXpXpXpXpXpXpXpXpXpXpXpXpXpXpXpXpXpXpXpXpXpXpXpXpXpXpXpXpXpXpXpXpXpXpXpXpXpXpXpXpXpXpXpXpXpXpXpXpXpXpXpXpXpXpXpXpXpXpXpXpXpXpXpXpXpXpXpXpXpXpXpXpXpXpXpXpXpXpXpXpXpXpXpXpXpXpXpXpXpXpXpXpXpXpXpXpXpXpXpXpXpXpXpXpXpXpXpXpXpXpXpXpXpXpXpXpXpXpXpXpXpXpXpXpXpXpXpXpXpXpXpXpXpXpXpXpXpXpXpXpXpXpXpXpXpXpXpXpXpXpXpXpXpXpXpXpXpXpXpXpXpXpXpXpXpXpXpXpXpXpXpXpXpXpXpXpXpXpXpXpXpXpXpXpXpXpXpXpXpXpXpXpXpXpXpXpXpXpXpXpXpXpXpXpXpXpXpXpXpXpXpXpXpXpXpXpXpXpXpXpXpXpXpXpXpXpXpXpXpXpXpXpXpXpXpXpXpXpXpXpXpXpXpXpXpXpXpXpXpXpXpXpXpXpXpXpXpXpXpXpXpXpXpXpXpXpXpXpXpXpXpXpX",
"pXpXpXpXpXpXpXpXpXpXpXpXpXpXpXpXpXpXpXpXpXpXpXpXpXpXpXpXpXpXpXpXpXpXpXpXpXpXpXpXpXpXpXpXpXpXpXpXpXpXpXpXpXpXpXpXpXpXpXpXpXpXpXpXpXpXpXpXpXpXpXpXpXpXpXpXpXpXpXpXpXpXpXpXpXpXpXpXpXpXpXpXpXpXpXpXpXpXpXpXpXpXpXpXpXpXpXpXpXpXpXpXpXpXpXpXpXpXpXpXpXpXpXpXpXpXpXpXpXpXpXpXpXpXpXpXpXpXpXpXpXpXpXpXpXpXpXpXpXpXpXpXpXpXpXpXpXpXpXpXpXpXpXpXpXpXpXpXpXpXpXpXpXpXpXpXpXpXpXpXpXpXpXpXpXpXpXpXpXpXpXpXpXpXpXpXpXpXpXpXpXpXpXpXpXpXpXpXpXpXpXpXpXpXpXpXpXpXpXpXpXpXpXpXpXpXpXpXpXpXpXpXpXpXpXpXpXpXpXpXpXpXpXpXpXpXpXpXpXpXpXpXpXpXpXpXpXpXpXpXpXpXpXpXpXpXpXpXpXpXpXpXpXpXpXpXpXpXpXpXpXpXpXpXpXpXpXpXpX",
"pXpXpXpXpXpXpXpXpXpXpXpXpXpXpXpXpXpXpXpXpXpXpXpXpXpXpXpXpXpXpXpXpXpXpXpXpXpXpXpXpXpXpXpXpXpXpXpXpXpXpXpXpXpXpXpXpXpXpXpXpXpXpXpXpXpXpXpXpXpXpXpXpXpXpXpXpXpXpXpXpXpXpXpXpXpXpXpXpXpXpXpXpXpXpXpXpXpXpXpXpXpXpXpXpXpXpXpXpXpXpXpXpXpXpXpXpXpXpXpXpXpXpXpXpXpXpXpXpXpXpXpXpXpXpXpXpXpXpXpXpXpXpXpXpXpXpXpXpXpXpXpXpXpXpXpXpXpXpXpXpXpXpXpXpXpXpXpXpXpXpXpXpXpXpXpXpXpXpXpXpXpXpXpXpXpXpXpXpXpXpXpXpXpXpXpXpXpXpXpXpXpXpXpXpXpXpXpXpXpXpXpXpXpXpXpXpXpXpXpXpXpXpXpXpXpXpXpXpXpXpXpXpXpXpXpXpXpXpXpXpXpXpXpXpXpXpXpXpXpXpXpXpXpXpXpXpXpXpXpXpXpXpXpXpXpXpXpXpXpXpXpXpXpXpXpXpXpXpXpXpXpXpXpXpXpXpXpXpX",
"pXpXpXpXpXpXpXpXpXpXpXpXpXpXpXpXpXpXpXpXpXpXpXpXpXpXpXpXpXpXpXpXpXpXpXpXpXpXpXpXpXpXpXpXpXpXpXpXpXpXpXpXpXpXpXpXpXpXpXpXpXpXpXpXpXpXpXpXpXpXpXpXpXpXpXpXpXpXpXpXpXpXpXpXpXpXpXpXpXpXpXpXpXpXpXpXpXpXpXpXpXpXpXpXpXpXpXpXpXpXpXpXpXpXpXpXpXpXpXpXpXpXpXpXpXpXpXpXpXpXpXpXpXpXpXpXpXpXpXpXpXpXpXpXpXpXpXpXpXpXpXpXpXpXpXpXpXpXpXpXpXpXpXpXpXpXpXpXpXpXpXpXpXpXpXpXpXpXpXpXpXpXpXpXpXpXpXpXpXpXpXpXpXpXpXpXpXpXpXpXpXpXpXpXpXpXpXpXpXpXpXpXpXpXpXpXpXpXpXpXpXpXpXpXpXpXpXpXpXpXpXpXpXpXpXpXpXpXpXpXpXpXpXpXpXpXpXpXpXpXpXpXpXpXpXpXpXpXpXpXpXpXpXpXpXpXpXpXpXpXpXpXpXpXpXpXpXpXpXpXpXpXpXpXpXpXpXpXpX",
"pXpXpXpXpXpXpXpXpXpXpXpXpXpXpXpXpXpXpXpXpXpXpXpXpXpXpXpXpXpXpXpXpXpXpXpXpXpXpXpXpXpXpXpXpXpXpXpXpXpXpXpXpXpXpXpXpXpXpXpXpXpXpXpXpXpXpXpXpXpXpXpXpXpXpXpXpXpXpXpXpXpXpXpXpXpXpXpXpXpXpXpXpXpXpXpXpXpXpXpXpXpXpXpXpXpXpXpXpXpXpXpXpXpXpXpXpXpXpXpXpXpXpXpXpXpXpXpXpXpXpXpXpXpXpXpXpXpXpXpXpXpXpXpXpXpXpXpXpXpXpXpXpXpXpXpXpXpXpXpXpXpXpXpXpXpXpXpXpXpXpXpXpXpXpXpXpXpXpXpXpXpXpXpXpXpXpXpXpXpXpXpXpXpXpXpXpXpXpXpXpXpXpXpXpXpXpXpXpXpXpXpXpXpXpXpXpXpXpXpXpXpXpXpXpXpXpXpXpXpXpXpXpXpXpXpXpXpXpXpXpXpXpXpXpXpXpXpXpXpXpXpXpXpXpXpXpXpXpXpXpXpXpXpXpXpXpXpXpXpXpXpXpXpXpXpXpXpXpXpXpXpXpXpXpXpXpXpXpX",
"pXpXpXpXpXpXpXpXpXpXpXpXpXpXpXpXpXpXpXpXpXpXpXpXpXpXpXpXpXpXpXpXpXpXpXpXpXpXpXpXpXpXpXpXpXpXpXpXpXpXpXpXpXpXpXpXpXpXpXpXpXpXpXpXpXpXpXpXpXpXpXpXpXpXpXpXpXpXpXpXpXpXpXpXpXpXpXpXpXpXpXpXpXpXpXpXpXpXpXpXpXpXpXpXpXpXpXpXpXpXpXpXpXpXpXpXpXpXpXpXpXpXpXpXpXpXpXpXpXpXpXpXpXpXpXpXpXpXpXpXpXpXpXpXpXpXpXpXpXpXpXpXpXpXpXpXpXpXpXpXpXpXpXpXpXpXpXpXpXpXpXpXpXpXpXpXpXpXpXpXpXpXpXpXpXpXpXpXpXpXpXpXpXpXpXpXpXpXpXpXpXpXpXpXpXpXpXpXpXpXpXpXpXpXpXpXpXpXpXpXpXpXpXpXpXpXpXpXpXpXpXpXpXpXpXpXpXpXpXpXpXpXpXpXpXpXpXpXpXpXpXpXpXpXpXpXpXpXpXpXpXpXpXpXpXpXpXpXpXpXpXpXpXpXpXpXpXpXpXpXpXpXpXpXpXpXpXpXpX",
"pXpXpXpXpXpXpXpXpXpXpXpXpXpXpXpXpXpXpXpXpXpXpXpXpXpXpXpXpXpXpXpXpXpXpXpXpXpXpXpXpXpXpXpXpXpXpXpXpXpXpXpXpXpXpXpXpXpXpXpXpXpXpXqXpXqXqXpXpXpXpXpXpXpXpXpXpXpXpXpXpXpXpXpXpXpXpXpXpXpXpXpXpXpXpXpXpXpXpXpXpXpXpXpXpXpXpXpXpXpXpXpXpXpXpXpXpXpXpXpXpXpXpXpXpXpXpXpXpXpXpXpXpXpXpXpXpXpXpXpXpXpXpXpXpXpXpXpXpXpXpXpXpXpXpXpXpXpXpXpXpXpXpXpXpXpXpXpXpXpXpXpXpXpXpXpXpXpXpXpXpXpXpXpXpXpXpXpXpXpXpXpXpXpXpXpXpXpXpXpXpXpXpXpXpXpXpXpXpXpXpXpXpXpXpXpXpXpXpXpXpXpXpXpXpXpXpXpXpXpXpXpXpXpXpXpXpXpXpXpXpXpXpXpXpXpXpXpXpXpXpXpXpXpXpXpXpXpXpXpXpXpXpXpXpXpXpXpXpXpXpXpXpXpXpXpXpXpXpXpXpXpXpXpXpXpXpXpXpX",
"pXpXpXpXpXpXpXpXpXpXpXpXpXpXpXpXpXpXpXpXpXpXpXpXpXpXpXpXpXpXpXpXpXpXpXpXpXpXpXpXpXpXpXpXpXpXpXpXpXpXpXpXpXpXpXpXpXpXpXpXqXpXqXpXpXqXqXqXpXpXqXpXpXpXpXpXpXpXpXpXpXpXpXpXpXpXpXpXpXpXpXpXpXpXpXpXpXpXpXpXpXpXpXpXpXpXpXpXpXpXpXpXpXpXpXpXpXpXpXpXpXpXpXpXpXpXpXpXpXpXpXpXpXpXpXpXpXpXpXpXpXpXpXpXpXpXpXpXpXpXpXpXpXpXpXpXpXpXpXpXpXpXpXpXpXpXpXpXpXpXpXpXpXpXpXpXpXpXpXpXpXpXpXpXpXpXpXpXpXpXpXpXpXpXpXpXpXpXpXpXpXpXpXpXpXpXpXpXpXpXpXpXpXpXpXpXpXpXpXpXpXpXpXpXpXpXpXpXpXpXpXpXpXpXpXpXpXpXpXpXpXpXpXpXpXpXpXpXpXpXpXpXpXpXpXpXpXpXpXpXpXpXpXpXpXpXpXpXpXpXpXpXpXpXpXpXpXpXpXpXpXpXpXpXpXpXpXpXpX",
"pXpXpXpXpXpXpXpXpXpXpXpXpXpXpXpXpXpXpXpXpXpXpXpXpXpXpXpXpXpXpXpXpXpXpXpXpXpXpXpXpXpXpXpXpXpXpXpXqXpXpXqXqXpXpXpXpXqXpXpXpXqXqXqXqXqXqXqXqXqXpXqXpXpXpXpXpXpXpXpXpXpXpXpXpXpXpXpXpXpXpXpXpXpXpXpXpXpXpXpXpXpXpXpXpXpXpXpXpXpXpXpXpXpXpXpXpXpXpXpXpXpXpXpXpXpXpXpXpXpXpXpXpXpXpXpXpXpXpXpXpXpXpXpXpXpXpXpXpXpXpXpXpXpXpXpXpXpXpXpXpXpXpXpXpXpXpXpXpXpXpXpXpXpXpXpXpXpXpXpXpXpXpXpXpXpXpXpXpXpXpXpXpXpXpXpXpXpXpXpXpXpXpXpXpXpXpXpXpXpXpXpXpXpXpXpXpXpXpXpXpXpXpXpXpXpXpXpXpXpXpXpXpXpXpXpXpXpXpXpXpXpXpXpXpXpXpXpXpXpXpXpXpXpXpXpXpXpXpXpXpXpXpXpXpXpXpXpXpXpXpXpXpXpXpXpXpXpXpXpXpXpXpXpXpXpXpXpXpX",
"pXpXpXpXpXpXpXpXpXpXpXpXpXpXpXpXpXpXpXpXpXpXpXpXpXpXpXpXpXpXpXpXpXpXpXpXpXpXpXpXpXpXpXpXpXpXpXpXpXqXqXpXpXpX0XqXqXpXpXpXqXpXpXqXqX0XqXpXqXpXqXqXqXpXpXpXpXpXpXpXpXpXpXpXpXpXpXpXpXpXpXpXpXpXpXpXpXpXpXpXpXpXpXpXpXpXpXpXpXpXpXpXpXpXpXpXpXpXpXpXpXpXpXpXpXpXpXpXpXpXpXpXpXpXpXpXpXpXpXpXpXpXpXpXpXpXpXpXpXpXpXpXpXpXpXpXpXpXpXpXpXpXpXpXpXpXpXpXpXpXpXpXpXpXpXpXpXpXpXpXpXpXpXpXpXpXpXpXpXpXpXpXpXpXpXpXpXpXpXpXpXpXpXpXpXpXpXpXpXpXpXpXpXpXpXpXpXpXpXpXpXpXpXpXpXpXpXpXpXpXpXpXpXpXpXpXpXpXpXpXpXpXpXpXpXpXpXpXpXpXpXpXpXpXpXpXpXpXpXpXpXpXpXpXpXpXpXpXpXpXpXpXpXpXpXpXpXpXpXpXpXpXpXpXpXpXpXpXpX",
"pXpXpXpXpXpXpXpXpXpXpXpXpXpXpXpXpXpXpXpXpXpXpXpXpXpXpXpXpXpXpXpXpXpXpXpXpXpXpXpXpXpXpXpXpXpXqXqXqX0X0XpXqX8X8XpXpX9XpXpXpX0XqX0XpXpX0XqXpXpXpXpXqXqXpXpXpXpXpXpXpXpXpXpXpXpXpXpXpXpXpXpXpXpXpXpXpXpXpXpXpXpXpXpXpXpXpXpXpXpXpXpXpXpXpXpXpXpXpXpXpXpXpXpXpXpXpXpXpXpXpXpXpXpXpXpXpXpXpXpXpXpXpXpXpXpXpXpXpXpXpXpXpXpXpXpXpXpXpXpXpXpXpXpXpXpXpXpXpXpXpXpXpXpXpXpXpXpXpXpXpXpXpXpXpXpXpXpXpXpXpXpXpXpXpXpXpXpXpXpXpXpXpXpXpXpXpXpXpXpXpXpXpXpXpXpXpXpXpXpXpXpXpXpXpXpXpXpXpXpXpXpXpXpXpXpXpXpXpXpXpXpXpXpXpXpXpXpXpXpXpXpXpXpXpXpXpXpXpXpXpXpXpXpXpXpXpXpXpXpXpXpXpXpXpXpXpXpXpXpXpXpXpXpXpXpXpXpXpX",
"pXpXpXpXpXpXpXpXpXpXpXpXpXpXpXpXpXpXpXpXpXpXpXpXpXpXpXpXpXpXpXpXpXpXpXpXpXpXpXpXpXpXpXpXpXpXpXpXpXpXpX0XeX0XqXpXpXeXqXqX8X9XpX0XpX0X9X8XpX0X0XqXpXpXpXqXpXpXpXpXpXpXpXpXpXpXpXpXpXpXpXpXpXpXpXpXpXpXpXpXpXpXpXpXpXpXpXpXpXpXpXpXpXpXpXpXpXpXpXpXpXpXpXpXpXpXpXpXpXpXpXpXpXpXpXpXpXpXpXpXpXpXpXpXpXpXpXpXpXpXpXpXpXpXpXpXpXpXpXpXpXpXpXpXpXpXpXpXpXpXpXpXpXpXpXpXpXpXpXpXpXpXpXpXpXpXpXpXpXpXpXpXpXpXpXpXpXpXpXpXpXpXpXpXpXpXpXpXpXpXpXpXpXpXpXpXpXpXpXpXpXpXpXpXpXpXpXpXpXpXpXpXpXpXpXpXpXpXpXpXpXpXpXpXpXpXpXpXpXpXpXpXpXpXpXpXpXpXpXpXpXpXpXpXpXpXpXpXpXpXpXpXpXpXpXpXpXpXpXpXpXpXpXpXpXpXpXpXpX",
"pXpXpXpXpXpXpXpXpXpXpXpXpXpXpXpXpXpXpXpXpXpXpXpXpXpXpXpXpXpXpXpXpXpXpXpXpXpXpXpXpXpXpXpXpXpXpXqXqXpX8XqXqXeXqXqX3X<X<XqXeX8X8X0XqX0X8XqX0XqXpX0XqXqXqXpXpXqXpXpXpXpXpXpXpXpXpXpXpXpXpXpXpXpXpXpXpXpXpXpXpXpXpXpXpXpXpXpXpXpXpXpXpXpXpXpXpXpXpXpXpXpXpXpXpXpXpXpXpXpXpXpXpXpXpXpXpXpXpXpXpXpXpXpXpXpXpXpXpXpXpXpXpXpXpXpXpXpXpXpXpXpXpXpXpXpXpXpXpXpXpXpXpXpXpXpXpXpXpXpXpXpXpXpXpXpXpXpXpXpXpXpXpXpXpXpXpXpXpXpXpXpXpXpXpXpXpXpXpXpXpXpXpXpXpXpXpXpXpXpXpXpXpXpXpXpXpXpXpXpXpXpXpXpXpXpXpXpXpXpXpXpXpXpXpXpXpXpXpXpXpXpXpXpXpXpXpXpXpXpXpXpXpXpXpXpXpXpXpXpXpXpXpXpXpXpXpXpXpXpXpXpXpXpXpXpXpXpXpX",
"pXpXpXpXpXpXpXpXpXpXpXpXpXpXpXpXpXpXpXpXpXpXpXpXpXpXpXpXpXpXpXpXpXpXpXpXpXpXpXpXpXpXpXpXpXpXpXqXpXpXpXeXrXqXqXqXqXqXrXqXqX2X9X8XpXqX8XpX8X0X0XpXpXpXpXqXqXpXqXpXpXpXpXpXpXpXpXpXpXpXpXpXpXpXpXpXpXpXpXpXpXpXpXpXpXpXpXpXpXpXpXpXpXpXpXpXpXpXpXpXpXpXpXpXpXpXpXpXpXpXpXpXpXpXpXpXpXpXpXpXpXpXpXpXpXpXpXpXpXpXpXpXpXpXpXpXpXpXpXpXpXpXpXpXpXpXpXpXpXpXpXpXpXpXpXpXpXpXpXpXpXpXpXpXpXpXpXpXpXpXpXpXpXpXpXpXpXpXpXpXpXpXpXpXpXpXpXpXpXpXpXpXpXpXpXpXpXpXpXpXpXpXpXpXpXpXpXpXpXpXpXpXpXpXpXpXpXpXpXpXpXpXpXpXpXpXpXpXpXpXpXpXpXpXpXpXpXpXpXpXpXpXpXpXpXpXpXpXpXpXpXpXpXpXpXpXpXpXpXpXpXpXpXpXpXpXpXpXpX",
"pXpXpXpXpXpXpXpXpXpXpXpXpXpXpXpXpXpXpXpXpXpXpXpXpXpXpXpXpXpXpXpXpXpXpXpXpXpXpXpXpXpXpXqXpXpXpXqXpXpXpX:XuXuX*X0X8XrX#X<X<X8XpX6X0X0XpX8XqX8XpXpX0XqXpX0X0XqXqXpXpXpXpXpXpXpXpXpXpXpXpXpXpXpXpXpXpXpXpXpXpXpXpXpXpXpXpXpXpXpXpXpXpXpXpXpXpXpXpXpXpXpXpXpXpXpXpXpXpXpXpXpXpXpXpXpXpXpXpXpXpXpXpXpXpXpXpXpXpXpXpXpXpXpXpXpXpXpXpXpXpXpXpXpXpXpXpXpXpXpXpXpXpXpXpXpXpXpXpXpXpXpXpXpXpXpXpXpXpXpXpXpXpXpXpXpXpXpXpXpXpXpXpXpXpXpXpXpXpXpXpXpXpXpXpXpXpXpXpXpXpXpXpXpXpXpXpXpXpXpXpXpXpXpXpXpXpXpXpXpXpXpXpXpXpXpXpXpXpXpXpXpXpXpXpXpXpXpXpXpXpXpXpXpXpXpXpXpXpXpXpXpXpXpXpXpXpXpXpXpXpXpXpXpXpXpXpXpXpX",
"pXpXpXpXpXpXpXpXpXpXpXpXpXpXpXpXpXpXpXpXpXpXpXpXpXpXpXpXpXpXpXpXpXpXpXpXpXpXpXpXqXpXpXqXqXqXpXqXpXqXeXqX2X*X2XeX*X=X.X:XeX2X<XpXpX8XpX0X0XpXqXpXpXqXpX0XqX0XqXpXqXpXqXpXpXpXpXpXpXpXpXpXpXpXpXpXpXpXpXpXpXpXpXpXpXpXpXpXpXpXpXpXpXpXpXpXpXpXpXpXpXpXpXpXpXpXpXpXpXpXpXpXpXpXpXpXpXpXpXpXpXpXpXpXpXpXpXpXpXpXpXpXpXpXpXpXpXpXpXpXpXpXpXqXpXpXpXpXpXpXpXpXpXpXpXpXpXpXpXpXpXpXpXpXpXpXpXpXpXpXpXpXpXpXpXpXpXpXpXpXpXpXpXpXpXpXpXpXpXpXpXpXpXpXpXpXqXqXpXqXqXpXqXpXqXpXpXpXpXpXpXpXpXpXpXpXpXpXpXpXpXpXpXpXpXpXpXpXpXpXpXpXpXpXpXpXpXpXpXpXpXpXpXpXpXpXpXpXpXpXpXpXpXpXpXpXpXpXpXpXpXpXpXpXpXpXpXpXpX",
"pXpXpXpXpXpXpXpXpXpXpXpXpXpXpXpXpXpXpXpXpXpXpXpXpXpXpXpXpXpXpXpXpXpXpXpXpXpXpXpXqXpXpXqXpXpXpXpXpX8X0X8X0XeXrX@XeX#X{ rX3X0XqX0XqX9XqX8X8X8X0XqXqXqXpX0XpXqXpXpXqXqXqXpXpXpXpXpXpXpXpXpXpXpXpXpXpXpXpXpXpXpXpXpXpXpXpXpXpXpXpXpXpXpXpXpXpXpXpXpXpXpXpXpXpXpXpXpXpXpXpXpXpXpXpXpXpXpXpXpXpXpXpXpXpXpXpXpXpXpXpXpXpXpXpXpXpXpXpXpXqXpX0XpXpX8XpX9X0XpXqXpXpXpXpXpXpXpXpXpXpXpXpXpXpXpXqXqXpXqXqXpXpXpXpXqXqXqXpXpXpXpXpXpXpXpXpXpXpXpXpXpXpXqXpXpXqXpX8X8XpXpXqX8X8XpXpXqXpXpXpXpXpXpXpXpXpXpXpXpXpXpXpXpXpXpXpXpXpXpXpXpXpXpXpXpXpXpXpXpXpXpXpXpXpXpXpXpXpXpXpXpXpXpXpXpXpXpXpXpXpXpXpXpXpXpXpXpXpX",
"pXpXpXpXpXpXpXpXpXpXpXpXpXpXpXpXpXpXpXpXpXpXpXpXpXpXpXpXpXpXpXpXpXpXpXpXpXpXpXpXqXpX0XpXpXqXpXqXqXpX0X2X<X3X.X<X;X} 1X} @XeX;X;XpXpX6X0XpX8X8X9X9XqX0X0XqX8X0XpX0XpXpXpXqXqXpXpXpXpXpXpXpXpXpXpXpXpXpXpXpXpXpXpXpXpXpXpXpXpXpXpXpXpXpXpXpXpXpXpXpXpXpXpXpXpXpXpXpXpXpXpXpXpXpXpXpXpXpXpXpXpXpXpXpXpXpXpXpXpXpXpXpXpXpXpXpXpXpXpXpXpX6X<X6XpXpX9X8XpXpXpXpXpXpXpXpXpXpXpXpXpXpXpXqXpXpXpXpX8XpXpXqXpXqXqXqXpXpXpXpXpXpXpXpXpXpXpXpXpXpXpXqX0X0XpXpXpX9X2X6X6X<X0XpXpXpXpXpXpXpXpXpXpXpXpXpXpXpXpXpXpXpXpXpXpXpXpXpXpXpXpXpXpXpXpXpXpXpXpXpXpXpXpXpXpXpXpXpXpXpXpXpXpXpXpXpXpXpXpXpXpXpXpXpXpXpXpXpX",
"pXpXpXpXpXpXpXpXpXpXpXpXpXpXpXpXpXpXpXpXpXpXpXpXpXpXpXpXpXpXpXpXpXpXpXpXpXpXpXpXpXpXqX0XqXpXpXqXqXpXpX8XqX-X%X<X-X{ oX#X-X2X0X2X:XqXqXpXqX6XqXpX9XqX0X0XqXqXpXpXpX0XpX0XpXqXpXpXpXpXpXpXpXpXpXpXpXpXpXpXpXpXpXpXpXpXpXpXpXpXpXpXpXpXpXpXpXpXpXpXpXpXpXpXpXpXpXpXpXpXpXpXpXpXpXpXpXpXpXpXpXpXpXpXpXpXpXpXpXpXpXpXpXpXpXpXpXpXpXqXpXpXpX:X6X<X0X8X8X9X0XpXpXpXpXpXpXpXpXpXpXpXpXpXpXpXpXpXpXpX3XpX9X0XpXpXpXqXqXqXpXpXpXpXpXpXpXpXpXpXpXpXqX9XpXpX:XqX8XpX6XpXpX6X2X<X3XpXpXpXpXpXpXpXpXpXpXpXpXpXpXpXpXpXpXpXpXpXpXpXpXpXpXpXpXpXpXpXpXpXpXpXpXpXpXpXpXpXpXpXpXpXpXpXpXpXpXpXpXpXpXpXpXpXpXpXpXpXpX",
"pXpXpXpXpXpXpXpXpXpXpXpXpXpXpXpXpXpXpXpXpXpXpXpXpXpXpXpXpXpXpXpXpXpXpXpXpXpXpXqXpXpXpX0X0XqXpXqXqX9X9X0XeX=X1X}.@X|.XX| } -X$X<XqX0XqXpXqXqXeXpX9X9XpXpXqX0X8X8XpXpXpXpX0XpXqXpXpXpXpXpXpXpXpXpXpXpXpXpXpXpXpXpXpXpXpXpXpXpXpXpXpXpXpXpXpXpXpXpXpXpXpXpXpXpXpXpXpXpXpXpXpXpXpXpXpXpXpXpXpXpXpXpXpXpXpXpXpXpXpXpXpXpXpXpXpXpXpXpX6XqX0X1X%XuX0X<X0XeXqXqXqXpXpXpXpXpXpXpXpXpXpXqXpX2XpX*X0XrX8X8XpXpX0XqX0XqXpXpXpXpXpXqXpXpXpXpXpXpXpXpXpX8X<XeX-X@XrX;X<XqX3X1X.X<XpX8XqXpXpXpXpXpXpXpXpXpXpXpXpXpXpXpXpXpXpXpXpXpXpXpXpXpXpXpXpXpXpXpXpXpXpXpXpXpXpXpXpXpXpXpXpXpXpXpXpXpXpXpXpXpXpXpXpXpXpXpXpX",
"pXpXpXpXpXpXpXpXpXpXpXpXpXpXpXpXpXpXpXpXpXpXpXpXpXpXpXpXpXpXpXpXpXpXpXpXpXpXqXpXqXpXpXqX0XqXpXqXpX8X0X2X*X%X1X}  .} S XXC H =X*XeX$X0X*XqX0X8X8XpXqX0XqXqXqXpXqXpXpXpX8XqXpXpXqXpXqXpXpXpXpXpXpXpXpXpXpXpXpXpXpXpXpXpXpXpXpXpXpXpXpXpXpXpXpXpXpXpXpXpXpXpXpXpXpXpXpXpXpXpXpXpXpXpXpXpXpXpXpXpXpXpXpXpXpXpXpXpXpXpXpXpXpXpXpXpX0XpX2X1XoX&X>XrXeX-XrXpXpXqXpXpXpXpXpXpXpXpXpXpXpX6XpXqX3X4XrXqX6X0X6XpXeXuXqX0XpXpXpXqXpXpX0XpXqXpXpXpXpXpX8X8X:X#XG %XuXpX*X>X| >XuX0XpXpXpXpXpXpXpXpXpXpXpXpXpXpXpXpXpXpXpXpXpXpXpXpXpXpXpXpXpXpXpXpXpXpXpXpXpXpXpXpXpXpXpXpXpXpXpXpXpXpXpXpXpXpXpXpXpXpXpXpXpXpX",
"pXpXpXpXpXpXpXpXpXpXpXpXpXpXpXpXpXpXpXpXpXpXpXpXpXpXpXpXpXpXpXqXqXpXpXpXqXqXqXqXpXqX0X0XqXqXpXpX0X0XpX0X$X3X@XH A  .H 4.B B  .2X X0XuXeXqXqXqX8XqX8XpX0XpXpX6XqXqXqX0XqXqX9XqX0X0XpXpXpXpXqXqXqXqXqXpXpXpXpXpXpXpXpXpXpXpXpXpXpXpXpXpXpXpXpXpXpXpXpXpXpXpXpXpXpXpXpXpXpXpXpXpXpXpXpXpXpXpXpXpXpXpXpXpXpXpXpXpXpXpXpXpXpXpXpXpXqXpX<XqXrX3X:XqXqX<XeXpXqXqXpXpXpXpXpXpXpXpXpXpXpX8X6X0X-XS  . X$X8XqX6XqXqXpXpXpX8XpX2X8X8X6X8XpXqXpXpXpXpX0XpX<X%X>X:XqXpXqXeX1XtX0X<X8XqXpXpXpXpXpXpXpXpXpXpXpXpXpXpXpXpXpXpXpXpXpXpXpXpXpXpXpXpXpXpXpXpXpXpXpXpXpXpXpXpXpXpXpXpXpXpXpXpXpXpXpXpXpXpXpXpXpXpXpXpX",
"pXpXpXpXpXpXpXpXpXpXpXpXpXpXpXpXpXpXpXpXpXpXpXpXpXpXpXpXpXpXpXpXqX0X0XpXqX0XpXqXpX0XpXpXpX3XpXpX6X6XpX<X#X$X-X#XH | H 2.s.f.s.%X.X$X0XeX$X<X;X<X0XqX8XpXqXpXqXqXeXqX2XrX8XeXeXqX6X8X0XpXpX0XpX8X9XpXqXpXpXpXpXpXpXpXpXpXpXpXpXpXpXpXpXpXpXpXpXpXpXpXpXpXpXpXpXpXpXpXpXpXpXpXpXpXpXpXpXpXpXpXpXpXpXpXpXpXpXpXpXpXpXpXpXpXpXpXpXqXpXpXpXqX$X*X9XpX3XpXpXpXpXpXpXpXpXpXpXpXpXpXpXpXpX6XqX3XXX@X*X<X8X0XpXqXpXpXpX8X6X9XeX<XqXpX2XpXpXpXpXpXqXpX8XqX:X0X0X;X8X<XqX0X<X0XpX9XqXpXpXpXpXpXpXpXpXpXpXpXpXpXpXpXpXpXpXpXpXpXpXpXpXpXpXpXpXpXpXpXpXpXpXpXpXpXpXpXpXpXpXpXpXpXpXpXpXpXpXpXpXpXpXpXpXpXpXpXpX",
"pXpXpXpXpXpXpXpXpXpXpXpXpXpXpXpXpXpXpXpXpXpXpXpXpXpXpXpXpXqXqX0X0XqXqX8XqX8XqX8XpXpXpXpX<X:XqXpX6XpXpXpX.X .H .XG 2.s.B 4.2.s.} @X.XeXrXeXeXeX0XqXqXpX0XpX0XqX2X2XrX3XeXqXqX<XpXpXpX8XpX<XqX6XqX6XpXpXqXpXpXpXpXpXpXpXpXpXpXpXpXpXpXpXpXpXpXpXpXpXpXpXpXpXpXpXpXpXpXpXpXpXpXpXpXpXpXpXpXpXpXpXpXpXpXpXpXpXpXpXpXpXpXpXpXpXpXpXqXpXpX6X<X;X:XqX8XqX6XpXpXpXpXpXpXpXpXpXpXpXpXpXpX<XqXpX3X&X|.<X4X*X0X2XqXpX0XqXqXpX*X2X.X<X8XpXpX0XpXpXpXpX0XpXpXpX6XpX<X0X<XqX2X0X6XpX0XpXpXpXpXpXpXpXpXpXpXpXpXpXpXpXpXpXpXpXpXpXpXpXpXpXpXpXpXpXpXpXpXpXpXpXpXpXpXpXpXpXpXpXpXpXpXpXpXpXpXpXpXpXpXpXpXpXpXpXpXpX",
"pXpXpXpXpXpXpXpXpXpXpXpXpXpXpXpXpXpXpXpXpXpXpXpXpXpXpXpXpXpXqXqX0X8X6XpXeX2X2X6XpXqX6X<X:X<XqX8X0X;X0X0X%X.XS } 2.4.3.2.#.5.d.A V +X<X>XeX$XrXpX2XqX2X0X0X;X8XrXqX*X3X*XrX8XqXqX6XpXpXpXqX<XpXpXpX8XpXqXpXpXpXpXpXpXpXpXpXpXpXpXpXpXpXpXpXpXpXpXpXpXpXpXpXpXpXpXpXpXpXpXpXpXpXpXpXpXpXpXpXpXpXpXpXpXpXpXpXpXpXpXpXpXpXpXpXpXpXqXpX6X:XpX*XtXqX;XpX6XqXpXpXpXpXpXpXpXpXpXqXqXpXpX2X;XeXXX| S .XG #XuX6X<XpX6X0XqX2X<X<X| } <X;XpXpXqXpXpXpXpXpX0XpXpX8X8XpX8X8X8XpXpXpXpXpXpXpXpXpXpXpXpXpXpXpXpXpXpXpXpXpXpXpXpXpXpXpXpXpXpXpXpXpXpXpXpXpXpXpXpXpXpXpXpXpXpXpXpXpXpXpXpXpXpXpXpXpXpXpXpXpXpXpXpXpX",
"pXpXpXpXpXpXpXpXpXpXpXpXpXpXpXpXpXpXpXpXpXpXpXpXpXpXpXpXpXpXqX0XpXqXqXpX<X0X;X<XqX;X*XqX.X&XrX%XtX=X8XeXeX#XF 2.A ,.3.,.%.%.<.f.s V .X} #X} <X$X1XqX2X*XqX*X2XeX;X<XrX<X$X2X*XqXeXoX-X<XqXeX>XoXuXpX8XqXpXpXpXpXpXpXpXpXpXpXpXpXpXpXpXpXpXpXpXpXpXpXpXpXpXpXpXpXpXpXpXpXpXpXpXpXpXpXpXpXpXpXpXpXpXpXpXpXpXpXpXpXpXpXpXpXpXpXpXpXqXpXpX8XrXXX%X:X0XqXqXpXpXpXpXpXpXqXqXqXpXpXpXpX6X2X$X3X&X-XXXXX.XrX6XpX<XqXpX8X*X0X$X.XoX<XqX2X0XpXqXpXpXpXpXpXpXpXpXpXqXqXpXqXpXpXpXpXpXpXpXpXpXpXpXpXpXpXpXpXpXpXpXpXpXpXpXpXpXpXpXpXpXpXpXpXpXpXpXpXpXpXpXpXpXpXpXpXpXpXpXpXpXpXpXpXpXpXpXpXpXpXpXpXpXpXpXpXpX",
"pXpXpXpXpXpXpXpXpXpXpXpXpXpXpXpXpXpXpXpXpXpXpXpXpXpXpXpXpXpXpXqXqX3X<XqXeXrXqX2X;XuXqX2X<X| =X*X3XeX8X3X3XH s.h.A #.#.%.%.-.-.,.2.4.B @X#X=X}.$X.X3X:XtX+X:XrX:X+XuX;X2X:X<XqX$X<X-X.X$XqXuX1X1XrXpXpXpXpXpXpXpXpXpXpXpXpXpXpXpXpXpXpXpXpXpXpXpXpXpXpXpXpXpXpXpXpXpXpXpXpXpXpXpXpXpXpXpXpXpXpXpXpXpXpXpXpXpXpXpXpXpXpXpXpXpXpXpXqXpXpXeX>X| oX$XqX2XpXpXpXpXqXqXpXpX8XpX<X;XpX8X2X6X$X:XeXeX0X3XeXpX2XqXpX0XpXqXeX=X8X2X<X0X8XpXpXpXpXpXpXpXpXpXpXpXpXpXpXpXpXpXpXpXpXpXpXpXpXpXpXpXpXpXpXpXpXpXpXpXpXpXpXpXpXpXpXpXpXpXpXpXpXpXpXpXpXpXpXpXpXpXpXpXpXpXpXpXpXpXpXpXpXpXpXpXpXpXpXpXpXpXpXpXpXpXpX",
"pXpXpXpXpXpXpXpXpXpXpXpXpXpXpXpXpXpXpXpXpXpXpXpXpXpXpXpXpXpXqXpXqXqXeXeX%X=X$X2X$XrX2X:X<X=X%X*XqX:XpX6X;X} 3.3.B =.#.-.&.%.-.%.=.3.2.S  . ..X@X.X<X@X1XrX#X3XrX2X$XeXeX<XrX2X0X8XrXqXpXqXqX;X*X6XpXqXqXpXpXpXpXpXpXpXpXpXpXpXpXpXpXpXpXpXpXpXpXpXpXpXpXpXpXpXpXpXpXpXpXpXpXpXpXpXpXpXpXpXpXpXpXpXpXqXqXqXpXqXpXpXpXpXpXpXpXpXpXqXpXpX2XuX.X.X0X6XpX6XpXqXpX9XqX2XpXqXpX0X$XqX<X@X*X8X8X<X;XpXqX<X;X8X*X*X0X$X{ F } 2X.X$X8XeXeXpX8XpXpXpXpXpXpXpXpXpXpXpXpXpXpXpXpXpXpXpXpXpXpXpXpXpXpXpXpXpXpXpXpXpXpXpXpXpXpXpXpXpXpXpXpXpXpXpXpXpXpXpXpXpXpXpXpXpXpXpXpXpXpXpXpXpXpXpXpXpXpXpXpXpXpXpXpXpXpXpX",
"pXpXpXpXpXpXpXpXpXpXpXpXpXpXpXpXpXpXpXpXpXpXpXpXpXpXpXpXpXpXqXpXeX<X2X<XtX3X$XrX}.=X<X}.<X.X{ 3X;XqX$X2X}.} 3.,.#.,.-.>.>.;.1.;.#.$.V A B B ] XXS F +XJ { oXF H } { <X.X%X3X2X<XqX3XqXqXqX<XpX8X2XpX9XqXpXpXpXpXpXpXpXpXpXpXpXpXpXpXpXpXpXpXpXpXpXpXpXpXpXpXpXpXpXpXpXpXpXpXpXpXpXpXpXpXpXpXpXpXpXpX0X8XpXpXpX0XqXpXpXpXpXpXpXpX0XpXpX0X2XeX;X+X2X6X2XpXqX0X8X0XpX0X*X0X6X$X{ %X .|.}.2X+X<XpX2X0X0XeX=XH eX+X<X} 1XtX*XeX:X9X:XeXqXqX6X0XpXpXpXpXpXpXpXpXpXpXpXqXqXpXpXpXpXpXpXqX0XpX9XpX0XqXqXpXpXpXpXpXpXpXpXpXpXpXpXpXpXpXpXpXpXpXpXpXpXpXpXpXpXpXpXpXpXpXpXpXpXpXpXpXpXpXpXpXpXpXpXpXpXpXpXpX",
"pXpXpXpXpXpXpXpXpXpXpXpXpXpXpXpXpXpXpXpXpXpXpXpXpXpXpXpXpXpXpX0X6X0XqX0XrXrXtX-X|.oX=X . .%X} H |.$X+X<X{ V ,.-.=.-.;.w.w.7.>.1.;.-.#.,.#.2.h.4.h.H { } V c.5. .} 1XeX$X3X$XeX;XeXqX8X:X3XqXqXqX0XpX0XqXpXpXpXpXpXpXpXpXpXpXpXpXpXpXpXpXpXpXpXpXpXpXpXpXpXpXpXpXpXpXpXpXpXpXpXpXpXpXpXpXpXpXpXpXpXpX8XpXpXqX2X6XpXqXpXpXqX0X9XqX8X2X<X6X;X<XrX%X+X2XpX8XpX8XpXqX$X.XeX6X:X[ } h.c.A .X X+X<X2X<X8X0X.XS d.%X$X|.=X;X.X3X<X:X2XuX$X2XpX0X0XpXpXpXpXpXpXpXpXqXpX0XpX0X0X0XqXpXpXqXpX8X8XpX6X8XpXpXpXpXpXpXpXpXpXpXpXpXpXpXpXpXpXpXpXpXpXpXpXpXpXpXpXpXpXpXpXpXpXpXpXpXpXpXpXpXpXpXpXpXpXpXpXpXpXpXpX",
"pXpXpXpXpXpXpXpXpXpXpXpXpXpXpXpXpXpXpXpXpXpXpXpXpXpXpXpXpXpXqX0XpX8XeXqX%X%X@X%X} S A A V A c.A B } 6XJ *XV 5.-.-.;.w.e.e.w.e.w.w.;.=.$.#.$.=.=.2.f.s 4.2.h.d.V  .|.J 3X<X*X<XqX<X2XqXeXrXqX0XqXqXpX0XpXpXpXpXpXpXpXpXpXpXpXpXpXpXpXpXpXpXpXpXpXpXpXpXpXpXpXpXpXpXpXpXpXpXpXpXpXpXpXpXpXpXpXpXpXpX0X8X6X<XrX0X0X0X0XpXpX8XpX<XpXpX8X<X3X;X>X] ] |.<X6XpXpX8XpX*X@X} G [ ;XG 3.,.f.d.} -X}. X2XpX$XeX-Xh.d.XXF  X+X|.eX] H %X2X .| =X*X<XpXpXpXpXpXpXpXpXqXpXpXqX6X0XpX8XpXpXqX0XpX6XpXqXqXqX0X0XqXpXpXpXpXpXpXpXpXpXpXpXpXpXpXpXpXpXpXpXpXpXpXpXpXpXpXpXpXpXpXpXpXpXpXpXpXpXpXpXpXpXpXpXpXpXpXpXpX",
"pXpXpXpXpXpXpXpXpXpXpXpXpXpXpXpXpXpXpXpXpXpXpXpXpXpXpXpXpXpXpXqX0X2XqXqX;XeX .3X%XF s.s.4.f.,.,.2.A F $XD V 5.;.;.w.7.e.y.y.r.w.e.1.1.6.-.#.#.,.%.2.4.,.,.4.,.V F S >X .{ #XeX+X:X2X;X:XqX0XqXeXqXpXqXpXqXpXpXpXqXqXpXqXpXpXpXpXpXpXpXpXpXpXpXpXpXpXpXpXpXpXpXpXpXpXpXpXpXpXpXpXpXpXpXpXpXpXpXpXqX0XpXpX4X.X;X:XpXpX9XqX<XqXeXeX2XpX<X0X;X} XX&X=X2X6X9X9XpXqXeX1Xh.h.{ #Xs.5.3.,.d.] A H +X$X<X0XeX@XF s.H } F .X:X-X] F  X}.4X&X>XqXqX8XpXpXpXpXpXpXpXpXpX8XpX:X0X0X2X0X0XqXpX6XeXeX>XtX6X6XpXqXpXpXpXpXpXpXpXpXpXpXpXpXpXpXpXpXpXpXpXpXpXpXpXpXpXpXpXpXpXpXpXpXpXpXpXpXpXpXpXpXpXpXpXpXpXpXpXpX",
"pXpXpXpXpXpXpXpXpXpXpXpXpXpXpXpXpXpXpXpXpXpXpXpXpXpXpXpXpXqX9X6XpXpX<XrX$X2X$X@XJ | s.f.3.,.2.3.,.2.s V s V <.w.e.e.w.e.Y.a.m.y.r.w.e.w.>.>.;.;.1.<.=.%.%.,.2.2.V } XX} H .X}.uX0X2XqX0X2XqX2X0XqX8X0X0XpXpX0XpX8XpXpX0XqXpXpXpXpXpXpXpXpXpXpXpXpXpXpXpXpXpXpXpXpXpXpXpXpXpXpXpXpXpXpXpXpXpXpXpXqX6XpX<X} &XrXqX8XpX6XpXqX*XqXrX<XqX*X<X-Xh.|  .+X2X<XpXpX6X*X*X.Xf.G >XH ] <.<.,.4.f.3.G } [ 8X8X@XF @XB S f.h.oX3X<XF >X;X X*XrXqXpX6X8XqXpXpXpXpXpXpX0X8X2X8XrXrX3X2XpX9XpXpX6X0XrXOX%X2X8XpXqXpXpXpXpXpXpXpXpXpXpXpXpXpXpXpXpXpXpXpXpXpXpXpXpXpXpXpXpXpXpXpXpXpXpXpXpXpXpXpXpXpXpXpXpXpXpXpXpX",
"pXpXpXpXpXpXpXpXpXpXpXpXpXpXpXpXpXpXpXpXpXpXpXpXpXpXpXpXqXpXpXpX8XpX:XqX9X@XrX>X} ] ,.3.,.#.#.%.%.#.#.s 4.$.=.w.e.r.e.x.Y.T.Y.a.y.r.y.e.e.w.7.e.e.:.-.3.%.#.#.2.A | } A #X.X{ %XuXrX0X:X<X:XqXqX<X2X6X0X0X9X8X9XpXpX8X9XpXqXpXpXpXpXpXpXpXpXpXpXpXpXpXpXpXpXpXpXpXpXpXpXpXpXpXpXpXpXpXpXpXpXpXpXpX8XpX9X#XeXqXqXpXpX6X2X<X;X=X&X=X3XeX*X*X.X>X$X*X<XqXpXqX8X9X3XrX#X#XJ :XH C G ] B } S c.d.h.#XH @Xh.S S h.h.S .X%X@XA H #X|.2X3X*X2X8XqX0X0XpXqXqXpXpX9XpXqX;X#X,X>XrX2XqXqXpX6X2X*X$XeX<X6XpXqXpXpXpXpXpXpXpXpXpXpXpXpXpXpXpXpXpXpXpXpXpXpXpXpXpXpXpXpXpXpXpXpXpXpXpXpXpXpXpXpXpXpXpXpXpXpXpXpX",
"pXpXpXpXpXpXpXpXpXpXpXpXpXpXpXpXpXpXpXpXpXpXpXpXpXpXpXpXqXpXpXpXuXqX2X2X<X<X<XeX|.S s.,.%.%.-.&.&.&.=.<.<.:.1.y.a.m.y.a.E.R.T.R.T.y.Y.m.m.y.r.y.w.e.w.<.;.<.-.#.4.5.d.B G XXH -X-X.X*X<XeX*XeXqX:X8XqXpX6XqXqXeX0XqX8XqX0XpXpXpXpXpXpXpXpXpXpXpXpXpXpXpXpXpXpXpXpXpXpXpXpXpXpXpXpXpXpXpXpXpXpXpXpXpXeXpX<X0XpX0XpXpX6X*X;X4XG S oX<X<X;XqXeX<XpX0X<X0X2X2X$X<X8X$X[ 3X;X X:X%X} oX X.XS h.g.d.A |.] <.f.2.,.h.A }. XS f.h.A %X$X<X:X2XpXpX0X0XpX6XpXpX8X3X6X<X$X#X} 1X0X0XqXpX0X8X6X2XqX8X6X8XpXpXpXpXpXpXpXpXpXpXpXpXpXpXpXpXpXpXpXpXpXpXpXpXpXpXpXpXpXpXpXpXpXpXpXpXpXpXpXpXpXpXpXpXpXpXpXpXpXpX",
"pXpXpXpXpXpXpXpXpXpXpXpXpXpXpXpXpXpXpXpXpXpXpXpXpXpXpXpX0XpXpX0X,XeX<X:X2XqX X{ } A s ,.,.-.&.;.>.>.1.7.1.w.w.Y.Y.m.Y.T.E.Q.Q.W.^.R.R.Y.Y.Y.y.y.y.y.w.w.;.;.<.#.,.3.,.4.A A XX .%X.X*XuX0X6X6X8X*XpXqX<X2X8X2X:X<X#X0XpXqXpXpXpXpXpXpXpXpXpXpXpXpXpXpXpXpXpXpXpXpXpXpXpXpXpXpXpXpXpXpXpXpXpXpXpXpXpXqXpX<X2XpX0XpX6X0X8XrXXXj.%XtX<X8XqXqX0X6X0X6X0X<X<X;X}.|.[  X<X{ }..X:X.X] G H $X.XXXd.5.A s S 6.,.B 3.f.H A Z @XA h.d.S D :XqX0XqXpX;X;XqX6X9XpX<X<X8X0X*X2X<X*X8XpX0XqXpXqXpX6XpX6XpX0XqXpXpXpXpXpXpXpXpXpXpXpXpXpXpXpXpXpXpXpXpXpXpXpXpXpXpXpXpXpXpXpXpXpXpXpXpXpXpXpXpXpXpXpXpXpXpXpXpXpX",
"pXpXpXpXpXpXpXpXpXpXpXpXpXpXpXpXpXpXpXpXpXpXpXpXpXpXpXpX0X8XpX9X&X%XrX0XpX8X$X;X%Xf.C B ,.#.&.;.>.w.w.e.e.r.y.a.T.E.T.E.E.Q.Q.(.Q.^.^.E.E.Y.Y.a.y.a.y.w.1.1.1.-.#.#.d.4.A C A A .X1X3XeX0X$X+X1X#X3XqX<X2X0XpX;X1X>X2X0XpXqXpXpXpXpXpXpXpXpXpXpXpXpXpXpXpXpXpXpXpXpXpXpXpXpXpXpXpXpXpXpXpXpXpXpXpXpXpXqX6XpX2X6X8X8X0X0X$X.XXX;XqX2XpXpX0X2XpX2X0X:X+X<X:X} F A XXF S <XH  XeX@X .<X$X{ %X} | [ H ,.<.2.s S s B ] C C s.s.4.F =X%X:X X2X6X:X$X*X;X0X<X:X0X*X*XpX0XqXeX8XpX8XpXqXqXpX0XpX0XpXpXqXpXpXpXpXpXpXpXpXpXpXpXpXpXpXpXpXpXpXpXpXpXpXpXpXpXpXpXpXpXpXpXpXpXpXpXpXpXpXpXpXpXpXpXpXpXpXpXpXpX",
"pXpXpXpXpXpXpXpXpXpXpXpXpXpXpXpXpXpXpXpXpXpXpXpXpXpXpXpX0XpX3XeX<XeX0XqX:X;X*X@XXX5.S S ,.#.;.;.w.e.e.y.m.a.Y.Y.E.E.E._.E.Q.`.'.(.'.(.E.W.E.E.T.Y.a.a.e.w.e.7.:.6.#.$.,.2.2.C XXXX@X}.:X<X*X+X .G <X:X<XqXeX8XpXqXqX8X8XpXqXpXpXpXpXpXpXpXpXpXpXpXpXpXpXpXpXpXpXpXpXpXpXpXpXpXpXpXpXpXpXpXpXpXpXpXpXqXpXpX8X8X3XqX0X0XpX0X0XeX8XpX8X9XqXpX6XpX6X X.XoX=XS h.h.h.c.4.F } XXJ { eXtX2X<X8X+XS ] B s =.-.,.s A s 4.2.4.,.d.4.S C } A >X;X.X*X.X| .X+X<X+X+X0X#X-X<X<X8X6X8X8X6X9X0XpXqXpXqXqXpXpXpXpXpXpXpXpXpXpXpXpXpXpXpXpXpXpXpXpXpXpXpXpXpXpXpXpXpXpXpXpXpXpXpXpXpXpXpXpXpXpXpXpXpXpXpXpXpXpXpXpX",
"pXpXpXpXpXpXpXpXpXpXpXpXpXpXpXpXpXpXpXpXpXpXpXpXpXpXpXpXpX0X9X8XqX0XqXpX0XpX2XoXc.G S S f.#.<.:.7.r.p.m.Y.Y.E.E.Q.E.Q.Q.`.Q.(.].CXVX'.'.Q.E.Q.R.T.Y.a.y.e.e.w.7.;.=.#.,.$.2.2.F A -X$X}.$X.X@X@X.X2X*X*XqX0XpXqX0XqX8X0X0X0XqXqXpXqXpXpXpXpXpXpXpXpXpXpXpXpXpXpXpXpXpXpXpXpXpXpXpXpXpXpXpXpXpXpXpXpXqX0XpXpX<XuX<X<X<XqX0X<X;XpXpX6XpXqXqXpX;X2XeX] c.] s.3.h.h.4.B B | j.A .X.X6X0X$X*X-XC h.h.,.<.<.5.$.C ,.,.d.,.d.B s H h.3.3.S  .{ }.-Xd.S  .>X}.8X$X] d.@XrX3X;X<X<XpX6XpXpXpXpXpXpXpXpXpXpXpXpXpXpXpXpXpXpXpXpXpXpXpXpXpXpXpXpXpXpXpXpXpXpXpXpXpXpXpXpXpXpXpXpXpXpXpXpXpXpXpXpXpXpXpXpXpXpX",
"pXpXpXpXpXpXpXpXpXpXpXpXpXpXpXpXpXpXpXpXpXpXpXpXpXpXpXpXpXpX8XpX6X<X<XqX0X;X+X<X%XH =XA 2.2.#.:.e.y.m.Y.T.R.E.Q.Q.Q.Q.`.`.`.`.'.CXZXVX'.`.Q.(.Q.R.R.T.T.y.x.e.w.e.;.-.#.#.3.S 2.V H { D [ >X[ { %XrX$XqXrX8X2X0XpX0X6X8X8XpX0XpXpXqXqXpXpXpXpXpXpXpXpXpXpXpXpXpXpXpXpXpXpXpXpXpXpXpXpXpXpXpXpXpXpXpXqX0XpX8XuX .>X2X8XqXpXpXpX2XpXpXpXqX0X8X:X$X1XG f.C s.3.C  .A B V h.h.s.} D ;X2XpX2X}.A h.3.f.3.2.,.,.%.,.,.d.,.C A A f.j.s.f.h.S <X2X#XG h.c.] oX[ .X| c..XeXpX<X0X$XqXpXqXpXqXpXpXpXpXpXpXpXpXpXpXpXpXpXpXpXpXpXpXpXpXpXpXpXpXpXpXpXpXpXpXpXpXpXpXpXpXpXpXpXpXpXpXpXpXpXpXpXpXpXpXpXpXpXpXpX",
"pXpXpXpXpXpXpXpXpXpXpXpXpXpXpXpXpXpXpXpXpXpXpXpXpXpXpXpXpXqXpX6XpX8X8X8XpX0XpX+X<X;X1XH V 2.#.;.e.y.Y.Y.R.E.E.`.Q.Q._.`.].`.].CXZXDXZXVX(.Q.`.Q.(.E.E.T.Y.y.y.e.r.7.>.;.#.#.3.,.2.F S @X@XG H } <XeX3X$XeXqXpX9XpXpX6XpX8XpXpXpXpXqXqXpXpXpXpXpXpXpXpXpXpXpXpXpXpXpXpXpXpXpXpXpXpXpXpXpXpXpXpXpXpXpXpXpXpX<X2X&X,X%XqX9XqX2XpXpXqXqXpX8X6X<XqXeX*XXXc.H ] h.H @X}.%X| 4.3.,.]  .[ |.pX6X0X}.s.,.,.,.A 2.-.&.6.,.=.4. .H A | S XXS 5.h.>X3X}.} G d.f.&X%X%X| ] >X*X8X<X<XXX$X2XpX8XpXpXpXpXpXpXpXpXpXpXpXpXpXpXpXpXpXpXpXpXpXpXpXpXpXpXpXpXpXpXpXpXpXpXpXpXpXpXpXpXpXpXpXpXpXpXpXpXpXpXpXpXpXpXpXpX",
"pXpXpXpXpXpXpXpXpXpXpXpXpXpXpXpXpXpXpXpXpXpXpXpXpXpXpXpXpXpXqXpXpX:XrX>X8X:XqX8X2X:X-XS V ,.2.1.e.y.T.T.W.(.Q.`.`.].].`.`.`.CXZXZXSXDXCX].`.Q.(.Q.^.^.E.T.m.m.y.e.w.e.>.=.6.%.<.,.$.B } } ,.f. .J @XrXeX0X0X0XpX9XqX9XqXeXeXeXqX0XpXpXpXpXpXpXpXpXpXpXpXpXpXpXpXpXpXpXpXpXpXpXpXpXpXpXpXpXpXpXpXpXpXpXqXqXpX0XeXtX8XpX0X2X2X8XpXpX:X6XpXpX9X8X:X$X.X] { J #X<X$X{  X .2.,.-.6.2.A { 8X<X8X*X .5.,.S S A ,.<.%.,.s.S D D }..X;XS .Xc.h.=XeX*X}.[  .|. .@X}.-X1X{ %X X3X} OX4X0X2XpXqXpXpXpXpXpXpXpXpXpXpXpXpXpXpXpXpXpXpXpXpXpXpXpXpXpXpXpXpXpXpXpXpXpXpXpXpXpXpXpXpXpXpXpXpXpXpXpXpXpXpXpXpXpXpXpX",
"pXpXpXpXpXpXpXpXpXpXpXpXpXpXpXpXpXpXpXpXpXpXpXpXpXpXpXpXpXpXpXpXpXeX,XOX=X<X6XqXqX}.}.|.} 4.,.-.w.y.Y.R.E.`.`.`.`.`.].`.].].CXDXFXFXFXZX].].].`.(.`.(.(.R.T.m.m.y.e.w.w.:.-.<.#.<.<.,.C ] 3.4.S }.#X|.:X$XqXqX<XeX:XqX<XqXqXqX8XqX0XqXpXpXpXpXpXpXpXpXpXpXpXpXpXpXpXpXpXpXpXpXpXpXpXpXpXpXpXpXpXpXpXpXqXpX2X6X<X<XqX<X<X<X3XpXqX*X:X2XpX;XpXqX#X.XF h.} { *X.X@X XJ } d.,.%.;.<.h.@X:X8X}.{ V ] f.,.B C 3.#.#.,.s A +X<XeX$X*X.XF S XX1X{ ;X|.}.2XH F | |.;X} &X1X*XeX@X1X<XqX<X8XpXpXpXpXpXpXpXpXpXpXpXpXpXpXpXpXpXpXpXpXpXpXpXpXpXpXpXpXpXpXpXpXpXpXpXpXpXpXpXpXpXpXpXpXpXpXpXpXpXpXpXpXpXpXpXpX",
"pXpXpXpXpXpXpXpXpXpXpXpXpXpXpXpXpXpXpXpXpXpXpXpXpXpXpXpXpXpXqX8XeXqX-X$X2X6XpX0X@X.X{ .X2.5.5.:.w.r.Y.R.E.(.).`.`.`.].].].].ZXZXJXLXFXFX'.`.`.].'.).).'.^.Y.Y.m.y.r.r.y.e.:.;.=.#.#.,.d.,.f.B A =XF h.oX%X0X$XqXqX3XqX2XqX0XqX8X0XpXqXpXpXpXpXpXpXpXpXpXpXpXpXpXpXpXpXpXpXpXpXpXpXpXpXpXpXpXpXpXpXpXpXpXqXpX9X8X0X6XqX+XoX+X*X;X#X1X<X8X:X:X.XXX-XS 3.F %X[ |.*X3X|.A <.#.%.&.<.,.H Z <X:XF S } 2.s.V C 5.$.#.,.C V { 3X.X$XeX X} }.[ ;X+X1XXX.XeX3XH XX2XeX1XOX>X%X8XqXuX<X8XpX0XqXpXpXpXpXpXpXpXpXpXpXpXpXpXpXpXpXpXpXpXpXpXpXpXpXpXpXpXpXpXpXpXpXpXpXpXpXpXpXpXpXpXpXpXpXpXpXpXpXpXpXpXpXpXpXpX",
"pXpXpXpXpXpXpXpXpXpXpXpXpXpXpXpXpXpXpXpXpXpXpXpXpXpXpXpXpXpXqX0XqX8XqX*X:X*X$X$X.X%XF S s $.#.:.e.y.m.R./.^.'.CXCXZX].`.`.].DXJXLXLXJXFXCX`.`.].`.'.'.'.).!.Y.Y.Y.y.r.x.w.w.w.:.;.%.%.<.,.h.s.f.%X>XF =XeXqX0X0X0X;X0XqXqX2X8XpX0XqXpXpXpXpXpXpXpXpXpXpXpXpXpXpXpXpXpXpXpXpXpXpXpXpXpXpXpXpXpXpXpXpXpXpXpX0XpX8X6XqXuXXXoXXXrX@X] OX>X*X*X*XXXXXA h.h.C }.;X{ [ 2X+X2.<.$.,.;.&.%.s V D { B f.F F s Z S $.<.&.&.6.2.J [  X.XD  .h.F J :X} OXd. .}. X.X=X:X8X*XrXrX;X;X8X0X0XpX0XqXpXpXpXpXpXpXpXpXpXpXpXpXpXpXpXpXpXpXpXpXpXpXpXpXpXpXpXpXpXpXpXpXpXpXpXpXpXpXpXpXpXpXpXpXpXpXpXpXpXpXpXpXpXpXpXpX",
"pXpXpXpXpXpXpXpXpXpXpXpXpXpXpXpXpXpXpXpXpXpXpXpXpXpXpXpXpXpXpX0X8XpXqX:XpX*X1X .[ XXh.2.$.#.-.e.w.y.T.T.(.VXVXVXZXDXZXVX].VXFXLXPXPXLXJXDX`.].ZXCX'.CXCX(.).!.Y.T.m.x.y.e.w.w.w.:.;.%.<.$.A ,.A S D } @X%X<X%XuXrX*X*XrX9X0XqX0XqXpXpXpXpXpXpXpXpXpXpXpXpXpXpXpXpXpXpXpXpXpXpXpXpXpXpXpXpXpXpXpXpXpXpXpXpXpXqXpX6XpXqXrX%X3X%X2X>X .:XqX*XrX .oX{ XXh.h.C oXC .X{ V s ,.s ,.%.;.%.5.A s s s 2.,.F V B A #.&.&.<.#.4.S S G .XH } S .X|.%XC c.G .X@XeX2X+X*X2X8X:XqX<X<XpXpX2X<XpX8XqXpXpXpXpXpXpXpXpXpXpXpXpXpXpXpXpXpXpXpXpXpXpXpXpXpXpXpXpXpXpXpXpXpXpXpXpXpXpXpXpXpXpXpXpXpXpXpXpXpXpXpXpXpXpXpX",
"pXpXpXpXpXpXpXpXpXpXpXpXpXpXpXpXpXpXpXpXpXpXpXpXpXpXpXpXpXpXqXpX0XqXqXpXqXrX} XX#XV 5.f.#.,.-.w.w.m.Y.R.^.VXVXDXZXZXFXFXDXJXJXPXPXPXPXLXFX].].CXFXSXSXSXVX).^.!.!.Y.Y.m.y.y.r.e.w.0.1.<.#.B B A A { }.H } .X>X%XrX$X:XqXqX2X<XqX8X0XpXqXpXpXpXpXpXpXpXpXpXpXpXpXpXpXpXpXpXpXpXpXpXpXpXpXpXpXpXpXpXpXpXpXpXpXpXpX8XpX6X;X$XrX$X;X*X;X*XpX8X6XeX*X:X{ S 4.j.h.c.C } B A ,.#.#.#.%.<.<.f.V s ,.w 6.A [ B u ,.1.&.#.$.,.f.3.c.H } F V S B S f.d.} 2X*XqX8X:X+X2X$X8X*X8X:X8XeXpXpX0XqXpXpXqXpXpXpXpXpXpXpXpXpXpXpXpXpXpXpXpXpXpXpXpXpXpXpXpXpXpXpXpXpXpXpXpXpXpXpXpXpXpXpXpXpXpXpXpXpXpXpXpXpXpXpXpXpX",
"pXpXpXpXpXpXpXpXpXpXpXpXpXpXpXpXpXpXpXpXpXpXpXpXpXpXpXpXpXpXpXpXqXpX8X<X<X8X|.}.{ F 2.h.,.#.<.7.r.y.Y.R.(.'.CXCXFXFXJXJXJXLXPXPXPXPXPXPXJXFXVXDXJXFXSXCXCXSXVX^.!.!.R.T.T.m.m.y.w.w.>.;.,.,.s H V |.} H F .X{ <X.X<X*XeX2X0XqX0XqXpXpXqXpXpXpXpXpXpXpXpXpXpXpXpXpXpXpXpXpXpXpXpXpXpXpXpXpXpXpXpXpXpXpXpXpXpXpXqXpXpXpXqX2XpX;X0X2XqXpXpX<XqX0X|.}.+XH A s.h.2.C B 5.6.-.-.%.<.#.#.<.f.C #.<.1.<.,.H V 2.%.;.-.$.2.$.,.-.3.A 2.4.S 2.,.s.5.c.S ;X8X<X3X*X@X X$X|.0X0X*X0X3X;X8X6X:X3XqXpXpXpXpXpXpXpXpXpXpXpXpXpXpXpXpXpXpXpXpXpXpXpXpXpXpXpXpXpXpXpXpXpXpXpXpXpXpXpXpXpXpXpXpXpXpXpXpXpXpXpXpXpXpX",
"pXpXpXpXpXpXpXpXpXpXpXpXpXpXpXpXpXpXpXpXpXpXpXpXpXpXpXpXpXpXpXqXpXpXqXpXeXqX+X:X X.X} f.#.=.1.>.w.x.Y.R.W.'.VXSXFXJXJXLXLXLXPXPXPXPXPXPXLXJXFXDXFXJXJXJXFXCXVXVXVX/.).^.R.R.m.a.y.e.7.1.-.4.#.B A V A C A A F F -X>X.XuXrX:X0X6X6X8XqXpXpXpXpXpXpXpXpXpXpXpXpXpXpXpXpXpXpXpXpXpXpXpXpXpXpXpXpXpXpXpXpXpXpXpXpXpXpX0X8X6XpX0XpX<X0X0XpXpX<XpX<X6X$X| f.B s G A 2.3.%.-.,.#.,.$.,.2.f.C Z a _ ) _ $.u Z C ,.&.%.,.#.,.,.,.,.V A C A %.6.5.,.2..X.X<X<X2X>XOX&X#X} XXeX*X.X&X#XeX$X0X8X0XpXpXpXpXpXpXpXpXpXpXpXpXpXpXpXpXpXpXpXpXpXpXpXpXpXpXpXpXpXpXpXpXpXpXpXpXpXpXpXpXpXpXpXpXpXpXpXpXpXpXpXpXpXpX",
"pXpXpXpXpXpXpXpXpXpXpXpXpXpXpXpXpXpXpXpXpXpXpXpXpXpXpXpXpXpXpXqXpX0X8X3XpX6X0X.X;X .} f.#.<.;.w.r.y.Y.T.E.'.CXCXFXFXJXLXLXPXPXPXPXPXPXMXI.u.u.u.FXJXJXJXJXFXSXCXNXVXVXVX/./.^.T.Y.r.r.0.:.-.-.%.2.2.5.h.] |  .}  .1X=X=XrX<X0X<XqX0X0XpXpXpXpXpXpXpXpXpXpXpXpXpXpXpXpXpXpXpXpXpXpXpXpXpXpXpXpXpXpXpXpXpXpXpXpXpXpXqXqX0X8X6XpX8XrXeX*X:X3XpX<X X=Xf.3.,.F s S h.-.-.,.$.#.$.#.B s a $.L.lXE T x ) ~ ~ ) E %.,.,.#.#.,.s.B $.B s 2.%.-.<.d.B D |.8X8XeX.Xd.S H c.#X+X.X .OX.X}.3X2X8XqX0XqXpXpXpXpXpXpXpXpXpXpXpXpXpXpXpXpXpXpXpXpXpXpXpXpXpXpXpXpXpXpXpXpXpXpXpXpXpXpXpXpXpXpXpXpXpXpXpXpXpXpXpXpX",
"pXqXqXpXpXpXpXpXpXpXpXpXpXpXpXpXpXpXpXpXpXpXpXpXpXpXpXpXpXqXpXpXpX0X8X2XeX<X0X=X:X| 2.,.#.-.;.7.y.p.Y.T.Q.^.VXZXSXJXFXJXLXPXPXPXPXvXPXE.W.t.q.b u.u.t.u.t.FXJXJXCXCXCXCXCX^./.^.T.x.r.r.e.:.;.%.3.3.6.5.2.3.A } %X|..X$X0X<X:XqX0X0XqXqXqXpXpXpXpXpXpXpXpXpXpXpXpXpXpXpXpXpXpXpXpXpXpXpXpXpXpXpXpXpXpXpXpXpXpXpXpXpXpXqXpXpX;X1XXX&X$X8X0X9X6XeX.Xd.<.<.s.S } 2.3.2.s s 3.%.&.<.=.a xXcXcXxX+.x E E x x k E ~ ) ~ ~ Q -.6.#.#.#.,.%.%.-.$.F [ -X{ .X{ XXh.A H A 1X X0XrX@X+X} OX4X0XpXpX0XpXpXpXpXpXpXpXpXpXpXpXpXpXpXpXpXpXpXpXpXpXpXpXpXpXpXpXpXpXpXpXpXpXpXpXpXpXpXpXpXpXpXpXpXpXpXpXpXpXpXpXpX",
"qXqXpXqXpXpXpXpXpXpXpXpXpXpXpXpXpXpXpXpXpXpXpXpXpXpXpXqXqXqXqX0XpXpXpX8X0XqX+X#X{ } 3.3.,.#.;.w.e.p.T.Y.E.(.CXVXFXFXFXJXLXPXPXPXPXvX(.(.(.(.Y.b t.t.b b n t.u.u.u.t.t.SXSXNX/./.^.M.x.y.e.e.7.1.%.#.#.2.d.,.C V >X{ rXqX<X2X<XqXqXqXqXpXqXpXpXpXpXpXpXpXpXpXpXpXpXpXpXpXpXpXpXpXpXpXpXpXpXpXpXpXpXpXpXpXpXpXpXpXpXpXpXpX0X8X0X0X4XXXrXqXpX0X0X@X} c.6.5.4.s.H B f.s H s #.<.;.<.xXjXBXL.cXcXvX6 d B.C.S.S.k k k k l l i %.#.$.#.-.<.%.%.=.4.2.| S +X*X>X] .X.X] %XrX6XrXrXrX4X,X-X*X<X0XpXqXpXpXpXpXpXpXpXpXpXpXpXpXpXpXpXpXpXpXpXpXpXpXpXpXpXpXpXpXpXpXpXpXpXpXpXpXpXpXpXpXpXpXpXpXpXpXpXpXpXpXpX",
"pXpXqXqXpXpXpXpXpXpXpXpXpXpXpXpXpXpXpXpXpXpXpXpXpXpXqXqXqXpXpX8XpXpXpX<XeX<X<X3X>XF F S f.,.1.7.w.x.Y.T.E.^.VXVXZXFXFXJXJXPXPXPXW.E.'.E.(.(.'.t f V.Z.D.D.n n n n c c n SXCXVX/.)./.m.x.y.r.w.w.;.%.,.s.4.h.G H %X<X<XeX0XqXqXqX8X8X0XqXpXpXpXpXpXpXpXpXpXpXpXpXpXpXpXpXpXpXpXpXpXpXpXpXpXpXpXpXpXpXpXpXpXpXpXpXpXpXpXpXpX6X2X6X*X*X;X2XpX2X.X.X} s.d.] S c.XX .|.V H $.$.%.,.vXP.xX: J.vXvXBX_ E E k k x G.G.G.G.S.C.l 6 e 2.,.;.-.%.#.#.,.<.g.h.1X$XeX.X} } | | =XqX0X<X2XqX<X;XpXpXpXpXpXpXpXpXpXpXpXpXpXpXpXpXpXpXpXpXpXpXpXpXpXpXpXpXpXpXpXpXpXpXpXpXpXpXpXpXpXpXpXpXpXpXpXpXpXpXpXpXpXpXpXpX",
"pXqXpXqXqXpXpXpXpXpXpXpXpXpXpXpXpXpXpXpXpXpXpXpXpXqXqX0X8XqXqXqX8X6XqX<XqX$X%X#X} F C B f.=.-.7.w.r.m.T.E.(.VXCXZXSXFXFXJXKXHX'.E.(.t R.`.'.VXu.t.t.n n b D.D.D.D.D.Z.c a z.SXCX)./.!.m.x.y.w.w.;.6.$.s.2.,.s. .} |.eXeX;X2XqX0XeXqXpXpXpXpXpXpXpXpXpXpXpXpXpXpXpXpXpXpXpXpXpXpXpXpXpXpXpXpXpXpXpXpXpXpXqX0XpX0XqXpXpXpXpX8XpX3X;XqX;X2X<X<XXX| =X@X.XS .XXX=X=X}.V B -.<.;.lX` P.xX; P.U.BXBXAXk d B.C.x T j j k k C.V.f 1 r =.;.%.#.#.3.2.s.] F  X}.6XeX+X.X-X3XqX*X$XpX6XqX0XeX2X;XqXpXpXpXpXpXpXpXpXpXpXpXpXpXpXpXpXpXpXpXpXpXpXpXpXpXpXpXpXpXpXpXpXpXpXpXpXpXpXpXpXpXpXpXpXpXpXpXpXpXpXpXpXpX",
"qXpXqXqXpXpXpXpXpXpXpXpXpXpXpXpXpXpXpXpXpXpXpXpXqXqX0XpXeX2XqX*X*XqX:X2XeX*XtX.XH #XA V 2.,.=.7.e.y.m.m.E.(.'.CXCXSXFXFXJXPXW.H.E.^.> E.Q.VXVXVXc d V.Z.b m c c n n Z.C.B.t J.SXCXNX/.!.T.y.r.e.;.-.$.4.C 3.5.| OX>X{ }.0X3X0XqXqXqX0XpXpXpXpXpXpXpXpXpXpXpXpXpXpXpXpXpXpXpXpXpXpXpXpXpXpXpXpXpXpXpXpXpXpX0X6XpXpXpXqXpXpXpX0X6XpX2XpX0X$XtX&X} =X@X{ 6X*X@XS } D S f.<.%.K.L.) ) ~ xXxXvXBXAXMX+.` +.K.C.G.G.G.G.G.k x x x k 9 ;.=.3.$.S B 2.H H *X}.8X3X#XS .X.X;X2XpX0X;X;X$X-X.X;XqX2XpXpXpXpXpXpXpXpXpXpXpXpXpXpXpXpXpXpXpXpXpXpXpXpXpXpXpXpXpXpXpXpXpXpXpXpXpXpXpXpXpXpXpXpXpXpXpXpXpXpXpXpX",
"pXqXpXqXpXpXpXpXpXpXpXpXpXpXpXpXpXpXpXpXpXpXpXpXpX0XpXqXqX8X<XqXrXrX+XuX3XrX*X X-XF |.H p d.<.:.w.r.y.R.E.Q.^.'.VXSXFXJXJXR.R.u.u.u.Q.(.'.'.CX'.Y.x.H.H.S.D.D.D.D.D.n m n m n c SXCXVX!.^.Y.r.w.=.,.$.B s.d.<.f.V ] OXhXdX&X<X2XpX6X8XpXqXpXpXpXpXpXpXpXpXpXpXpXpXpXpXpXpXpXpXpXpXpXpXpXpXpXpXpXpXpXpXpXpX8XqX6XpXpX0XqXqXpX8X0XpX<X2XpXqX<X|.3X*X<X8X|.$X%XA } D S C ,.,.R P.) 6 ( P.L.cXBXvXvXxX) ) _ kXjXK.hXjXjXS.S.C.V.f i ;.#.$.$.s B h.G XX<X<X$X>X| h.=X%X0XpX$X2X2XrX>XOX&XrXqXpXpXqXpXpXpXpXpXpXpXpXpXpXpXpXpXpXpXpXpXpXpXpXpXpXpXpXpXpXpXpXpXpXpXpXpXpXpXpXpXpXpXpXpXpXpXpXpXpXpXpXpXpX",
"pXpXpXpXpXpXpXpXpXpXpXpXpXpXpXpXpXpXpXpXpXpXpXpXqXpXqXqXqXeX0X<XqX1X+X:X:X:X{ $X<XS F .XH 4.-.6.w.y.Y.Y.R.^.^.'.VXSXFXFXFXm E.u.c u.W.E.(.VX'.'./.t.z.z./.U.I.U.U.!.D.S.Z.V.B.c SXSXNX/.R.T.M.e.w.1.<.%.3.d.3.] S OXn h 9.e bXqXqXqXqXpXpXpXpXpXpXpXpXpXpXpXpXpXpXpXpXpXpXpXpXpXpXpXpXpXpXpXpXpXpXqXpXpXpX;X=XeXpXqXpXpXpX8X3X6XpX2XqX*X@X&X.X}.{ |.qXqX0XrX1X>X;X|.A ,.,.Y o._ # J.P.P.cXBXAXMXBX+.` _ ) ) ~ E ) jXjXK.K.P.v.i 1 ;.,.s S B A f.A =XeX|.%X| f. .;X0X2X*X%X1X3X0XXX.XqX:XpXpXpXpXpXpXpXpXpXpXpXpXpXpXpXpXpXpXpXpXpXpXpXpXpXpXpXpXpXpXpXpXpXpXpXpXpXpXpXpXpXpXpXpXpXpXpXpXpXpXpXpXpX",
"pXpXpXpXpXpXpXpXpXpXpXpXpXpXpXpXpXpXpXpXpXpXpXpXqXqXqXqXqX;X*X<X>X| OX=X2X|. .{ #XA H B s A <.:.w.r.Y.R.W.(.'.VXZXZXDXFXFXm x.u.> R.E.E.(.VXCX'.VXH.H.z.z.z.z.m z.U.U.I.I.U.H.c t CXSXCX).Y.M.y.w.w.w.;.-.4.2.4.S hXy z.U.h m uX<XeXqX0XpXpXpXpXpXpXpXpXpXpXpXpXpXpXpXpXpXpXpXpXpXpXpXpXpXpXpXpXpXqX6XpXqX-X#XeXqX2XpXpXpXpX6X*XqX0X<XrX+XoX .>X} .X.X$X2X}.-X+X$XS s d.#.P.W _ 3 P.L.P.BXj cXxXvX) E ) ) ` _ ) E E _ _ ) ) _ ` x 6 %.,.s V V C OX<X2X*X|.A G =X;X2X>X} G OX} +XrXrX;X8XqXpXqXpXpXpXpXpXpXpXpXpXpXpXpXpXpXpXpXpXpXpXpXpXpXpXpXpXpXpXpXpXpXpXpXpXpXpXpXpXpXpXpXpXpXpXpXpXpXpXpXpXpX",
"pXpXpXpXpXpXpXpXpXpXpXpXpXpXpXpXpXpXpXpXpXpXpXpXpX0X6XqXqX2X2XeX3X] -X1X@X=X} A | d.4.A s 2.=.6.w.y.a.T.W.^.'.'.CXCXSXFXSXE.q.u.t E.E.E.VXc (./.VXz.m z.z.z.z.z.m m z.z.z.z.z.x.m c CXCXNX!.m.x.x.r.e.1.%.#.2.h.S jXh z.MXh c 5XqXqX8X0XpXpXpXpXpXpXpXpXpXpXpXpXpXpXpXpXpXpXpXpXpXpXpXpXpXpXpXpXpXpXqX0X<XoXXX#X<X;X0X0XpX2X8XrX%X<X8XpX0XtX3X-XS #XeX$X@XF F { *XF C d.$.K.I E $ L.J.P.~ k cXMXSX) j ~ ) E ~ ) ~ ) +.) ` _ ` _ J.` x r ,.s |.{ =X|.=X[ |.XX}  X*XH A s.c.5.H ;X0X$XpXpX0X0XpXpXpXpXpXpXpXpXpXpXpXpXpXpXpXpXpXpXpXpXpXpXpXpXpXpXpXpXpXpXpXpXpXpXpXpXpXpXpXpXpXpXpXpXpXpXpXpXpXpXpX",
"pXpXpXpXpXpXpXpXpXpXpXpXpXpXpXpXpXpXpXpXpXpXpXpXpXpX0X0XeX:X0X-X@XH |. X#XG } | 2.2.C S C f.6.6.w.x.Y.T.E.^.(.'.ZXZXFXFXFXT.n t.> R.T.E.t.b (.VXDXz.c z.z.m ( z.( z.H.z.z.z.z.z.H.x.m v.CX/.R.T.Y.r.e.:.-.,.,.3.S U.v z.U.h t GXqX6XpXpXqXqXpXpXpXpXpXpXpXpXpXpXpXpXpXpXpXpXpXpXpXpXpXpXpXpXpXpXpXpX6XpX:XeX-XtX*X<X6XpXpX;X1X&X1X*XpXpX*X<X<X<X@X .eX|.C f.c.] A S s.2.Q L I 6 J.J.P.E P._ xXJXLX3 nXj i 1 l 6 : ) ) ) ) _ ` +.J.J.` 1 -.,.V @X;X+XG G G G ] } S } A G | H  ..XtXqXpX6X0XpXqXpXpXpXpXpXpXpXpXpXpXpXpXpXpXpXpXpXpXpXpXpXpXpXpXpXpXpXpXpXpXpXpXpXpXpXpXpXpXpXpXpXpXpXpXpXpXpXpXpXpX",
"pXpXpXpXpXpXpXpXpXpXpXpXpXpXpXpXpXpXpXpXpXpXpXqXqXpXeXpX<XrXeX3X} } H $XXXA } G h.2.A d.$.=.=.1.w.y.T.R.R.(.'.'.VXZXFXFXt.c n t R.T.E.t.E.a.(.FXLXi MXz j 6 z i : ` ( ( z.z.z.H.H.H.z.> VX).^.R.R.m.e.1.;.-.<.2.4.lXq.z.I.t e hXqXqXpX0XqXpXpXpXpXpXpXpXpXpXpXpXpXpXpXpXpXpXpXpXpXpXpXpXpXpXpXpXpXpXqX6XpX8X*XqXqX2X6XpXpX;XeX&X=XuXeX*XqXqX2XqX<X3X+X .4.5.h.| S ] | s L Q I k E +.L.6 P.xXLXPXL.K.nXnXK.3 ) ) : : ; : # : ` ` J.J.J.J.1 d.s.S F J A h.d.c.C S S G 4.XX.XJ 3X<X#X.X0X:XpX0XqXpXpXpXpXpXpXpXpXpXpXpXpXpXpXpXpXpXpXpXpXpXpXpXpXpXpXpXpXpXpXpXpXpXpXpXpXpXpXpXpXpXpXpXpXpXpXpXpXpXpX",
"pXpXpXpXpXpXpXpXpXpXpXpXpXpXpXpXpXpXpXpXpXpXpXqXqXpXqX6XqXeX%XeX$X}  .>XoXA ] f.4.A 4.%.<.6.:.0.e.m.Y.E.E.(.'.CXVXZXFXFXc t.n b t.Y.E.c E.^.LXPXR.I.MXvXI.6 _ ` : : : : & : z.H.H.H.H.H.6 VX).^.Y.M.r.w.1.6.#.,.C lXv q.z.e % J.qXrXpXqXpXpXpXpXpXpXpXpXpXpXpXpXpXpXpXpXpXpXpXpXpXpXpXpXpXpXpXpXpXpXpXpXpXqXpXqXpXpXpXpX2X6XqX%X<X.X>X.X*X0X:X2X.X;X=Xf.4.A B #X X}.F V l l I Q : +.L.3 L.xXPXPXK.) K.+._ E i i +.xXcXcXcXHX; ; 6 T T j 1 ,.<.h..XD #XoXd.] S A 2.d.s.{ { 2XeXeX| &X=XeX8XpXqXpXpXpXpXpXpXpXpXpXpXpXpXpXpXpXpXpXpXpXpXpXpXpXpXpXpXpXpXpXpXpXpXpXpXpXpXpXpXpXpXpXpXpXpXpXpXpXpXpXpX",
"pXpXpXpXpXpXpXpXpXpXpXpXpXpXpXpXpXpXpXpXpXpXpXqXpXpXqXqXqX8XrX-X>X%X-X.XV S S ,.,.#.,.%.-.6.w.e.e.Y.E.E.^.).(.CXCXDXFXFXc c n t.> H.E.t R.W.PXPXT.z.I.J.z.m j i J.cXcXcXcXAX: : i n n z 6 NXNXNX/.M.N.x.7.1.%.,.s lXr c /.b o n fXqX0XqXpXpXpXpXpXpXpXpXpXpXpXpXpXpXpXpXpXpXpXpXpXpXpXpXpXpXpXpXpXpXpX0XqXqXqXpXpX0X0XpXpX9X2X2X}.|.H F 3X{ <X$X X2X} H S B 4.] S D V S jXL L L E _ P.k P.vXPXLX+.` ) T ~ ) +.jX6 3 1 j j k mXKXj P.jXK.1 A <.d.s.F $XJ  .A G f.,.3.| -X2X*X$X3X#XeXeX<XpX9XqXpXpXpXpXpXpXpXpXpXpXpXpXpXpXpXpXpXpXpXpXpXpXpXpXpXpXpXpXpXpXpXpXpXpXpXpXpXpXpXpXpXpXpXpXpXpXpXpXpXpX",
"pXpXpXpXpXpXpXpXpXpXpXpXpXpXpXpXpXpXpXpXpXpXpXqXpX0XqX2X8XeX2X:X-X{ }.@X} A 2.,.%.#.%.;.w.1.r.e.r.T.R.(.(.).'.CXCXSXFXJX^.n n n t.x.R.n W.).PXJXH.z.z.x ( ( v.lX6 3 3 j k z vXJXj U.U.I.6 SXVXNX/.!.!.l.l.7.<.,.3.b.* b I.u.t.U.GXpXqXqXpXpXpXpXpXpXpXpXpXpXpXpXpXpXpXpXpXpXpXpXpXpXpXpXpXpXpXpXpXpXpXqXpXpXpXpXqXpXqX0X0XqX0X0X:X#Xf.] J OX>X[ ;XA C S s 2.2.} S S } ,.+.L l L g ) L.k P.MXLXHX+.` ` ) _ Q ~ jXK.jXjXkXkXk k k i jX) K.x 1 f.s.G S D .X#XA f.5.5.4.} eX:XqXpXeX2XqX<X:XpXpXqXpXpXpXpXpXpXpXpXpXpXpXpXpXpXpXpXpXpXpXpXpXpXpXpXpXpXpXpXpXpXpXpXpXpXpXpXpXpXpXpXpXpXpXpXpXpXpXpXpXpX",
"pXpXpXpXpXpXpXpXpXpXpXpXpXpXpXpXpXpXpXpXpXpXpXqXpXpX0X2XqX8X0X<X|.>XH A S C 3.,.-.<.;.7.w.r.x.r.x.Y.R.(.(.(.VXZXCXFXJXJXY.n c n c u.R.n W.VXLXFXH.z.z.` ` ~ ( lXK.jXjXkXlXk x x i P.` L.x 3 JXSXNX!.N.x.l.<.-.%.d.x h u.9.h 9.H.nXpXqXqXpXpXpXpXpXpXpXpXpXpXpXpXpXpXpXpXpXpXpXpXpXpXpXpXpXpXpXpXpXpXqXqX0XpX9X0X0XqXqXpXpXpX2X:X2X.XV } V h.| #X.XG h.s.,.,.f.B +XZ A MXP.l 0 L g Q +.E +.MXAXAXX._ ) Q U l l _ ) +.~ +.v.jXjXnXkXK.) E ~ 1 } .X|.J %XS F S d.B G  .|. X8X:X:X6X;XpX2XpX8X6X0XpXpXpXpXpXpXpXpXpXpXpXpXpXpXpXpXpXpXpXpXpXpXpXpXpXpXpXpXpXpXpXpXpXpXpXpXpXpXpXpXpXpXpXpXpXpXpXpXpXpX",
"pXpXpXpXpXpXpXpXpXpXpXpXpXpXpXpXpXpXpXpXpXpXqXpXpX0X8X2XeXqX*X$X}  .F .XF f.,.#.<.;.;.w.w.x.x.x.Y.R.(.(.(.'.ZXCXFXFXJX'.E.n c n c t.H.m H.VXSXSXz.z.( ~ x k k _ ) +.~ +.J.jXjXvXlXJ.( ~ ( 3 FXSXNX!.!.y.w.7.%.%.k.h u.h > b b h ( pXqXpXpXpXpXpXpXpXpXpXpXpXpXpXpXpXpXpXpXpXpXpXpXpXpXpXpXpXpXpXpXpXqX8XpXpX2XeX8X9XqXqXpXpXeX;X} d.5.| C d.f.V H s.,.2.,.-.3.s.{ [ J.xXv.0 @.I g ) T 3 vXvXAX@.) Q ` x x j j U T U T U T v.J.K.+.) _ E E 5 A } H F B ] XXF oXH | F %X2X<X0XpXpX<X$X$X0X:X6X9XpXpXpXpXpXpXpXpXpXpXpXpXpXpXpXpXpXpXpXpXpXpXpXpXpXpXpXpXpXpXpXpXpXpXpXpXpXpXpXpXpXpXpXpXpXpXpXpXpXpX",
"pXpXpXpXpXpXpXpXpXpXpXpXpXpXpXpXpXpXpXpXpXpXpXqXpX0X8XeXqXqX+X.XXXd.h.S } S ,.#.%.;.7.y.r.m.y.y.Y.R.^.(.'.'.ZXSXJXJXT.(.T.c T.n c z.m i ).NXSXH.z.( H.n z j j U T U T U T v.J.K.v._ ` ~ ~ 3 KXHXSXNXN.x.e.<.3.#.k.h 9.t l +.( h h 0XqXpXpXpXpXpXpXpXpXpXpXpXpXpXpXpXpXpXpXpXpXpXpXpXpXpXpXpXpXpXpXpX0XpXpXqXqXqX8XpXpXpXpX8X0X;XS d.h.C S 3.f.A  .A c.A 4.g.f.s.[ [ cX( ~ 3 O.8 l L +.E cXX O   ) ( x k k k j j j j j j T E U k U T _ ) ) x H F B S c.3.] } [ { | &XeX3XpXpXpX:X8X<X} uX<XpX8XqXpXpXpXpXpXpXpXpXpXpXpXpXpXpXpXpXpXpXpXpXpXpXpXpXpXpXpXpXpXpXpXpXpXpXpXpXpXpXpXpXpXpXpXpXpXpXpXpXpX",
"pXpXpXpXpXpXpXpXpXpXpXpXpXpXpXpXpXpXpXpXpXpXpXqXpXpX0XqXqXqXuXtX@XoX.XXX] B 3.#.%.:.e.r.a.y.m.Y.R./.VXVX'.ZXDXSXFXJX(.u.t.t H.i c z H.m /.O +   z.z.n z k k j j j j j j T E T U T E _ ) ) x SXVX/.^.T.y.r.1.%.%.k.h h m L.L.j h 9.pXqXpXpXpXpXpXpXpXpXpXpXpXpXpXpXpXpXpXpXpXpXpXpXpXpXpXpXpXpXpXpXqX8XpX0X0XrX;X;X6XpX0X8XpXpX*X-X| } .XH } 4.4.S |..XD H B S }.D S R i ~ +.4 L I l +.T L..       2 # @ @ @ j j j j j j j j j k k k U Q ) 6 J f.d.d.d.] f.H [ <XeX$XqXpXpX8XpX2X*X .c.>XpX8XpXqXpXpXpXpXpXpXpXpXpXpXpXpXpXpXpXpXpXpXpXpXpXpXpXpXpXpXpXpXpXpXpXpXpXpXpXpXpXpXpXpXpXpXpXpXpXpXpXpXpX",
"pXpXpXpXpXpXpXpXpXpXpXpXpXpXpXpXpXpXpXpXpXpXpXpXpXqX0XpX0X0X0X+X}..X%XA C S 5.%.6.7.e.m.m.T.m.Y.^.VXCXCXCXCXSXFXJXJXm c t.Y.i c n c H.m U..       3 $ @ @ O j j j j j j j j j k k k U Q ) 6 FXVX^.R.a.a.w.:.#.,.c.9.h t.m i t h z.qXpXpXpXpXpXpXpXpXpXpXpXpXpXpXpXpXpXpXpXpXpXpXpXpXpXpXpXpXpXpXpXqX9XpX;X=X| >X0X<XpX0XpXpXqX*XF S  .C G B B } H D S S G 2.F { ;XS L k E _ 1 Q # L ` 3 T         2 # X X X O O X X X O j k k k k k 6 l Q < S V | S oXF #X>X2X;X*XqX0X2X<XpX0X;XqX} ] @X6X;X0XpXpXpXpXpXpXpXpXpXpXpXpXpXpXpXpXpXpXpXpXpXpXpXpXpXpXpXpXpXpXpXpXpXpXpXpXpXpXpXpXpXpXpXpXpXpXpXpXpXpX",
"pXpXpXpXpXpXpXpXpXpXpXpXpXpXpXpXpXpXpXpXpXpXpXpXpXqX0XpX2XeX2X2X<X|.3XS | A d.%.=.7.r.y.Y.Y.Y./.).VXVXVXZXSXFXJXJXLXc n t.x.t t.& n H.i n         3 # O X X X X X X X X j k k k k k 6 l Q < CX^.^.T.Y.r.r.1.<.,.s ` 9.h t t 9.9.5XqXpXpXpXpXpXpXpXpXpXpXpXpXpXpXpXpXpXpXpXpXpXpXpXpXpXpXpXpXpXpXpXpX8XpX2X-XG 4X<XpX6X0XpXpX:X<X,XOXA S d.| V S } |.[ %X| g..X;X|. XO.cXE 6 ~ + . < g E +         2 # R 8 8 X f @ @ @ @ O O @ O O k j 5 Q ; N { }.@X3X2X*X3X*X2X<X0X0XqXpX2XpX2XeX} oX;X6X;XeXpXpXpXpXpXpXpXpXpXpXpXpXpXpXpXpXpXpXpXpXpXpXpXpXpXpXpXpXpXpXpXpXpXpXpXpXpXpXpXpXpXpXpXpXpXpXpXpXpXpX",
"pXpXpXpXpXpXpXpXpXpXpXpXpXpXpXpXpXpXpXpXpXpXpXpXpXpXqXpX0XqX$X0X*XeX|.H XX] $.-.5.0.w.y.Y.E.R./.VXCXCXDXJXJXJXLXLXLXH.(.t.c t.& . > z m +         4 # E 6 5 X f @ @ @ @ O O @ O O k j 5 Q ; U.).^.T.Y.y.w.1.%.2.V |.T h h h b [.pXqXpXpXpXpXpXpXpXpXpXpXpXpXpXpXpXpXpXpXpXpXpXpXpXpXpXpXpXpXpXpXpXqX0XpX;X<X>X0XpX9XpXqXpXpXpXqX.X%X{ oXh.d.A B c.OX%X%X| g.S D |.P.vXcX$ 3 x . Q < L U 1         2 9 2 0 8 4 < S.O.5 @ @ f # , , O @ .     S +X$X*X;X6X:X0X$X.X;X6X2X0XpX8X<X<XeX&Xh..X8XqXpXpXpXpXpXpXpXpXpXpXpXpXpXpXpXpXpXpXpXpXpXpXpXpXpXpXpXpXpXpXpXpXpXpXpXpXpXpXpXpXpXpXpXpXpXpXpXpXpXpXpX",
"pXpXpXpXpXpXpXpXpXpXpXpXpXpXpXpXpXpXpXpXpXpXpXpXpXpXqXpX8X8X8XuXtX;X<X|.} s.3.<.-.1.e.m.Y.T.^.).CXCXDXJXLXLXJXKXLXE.).(.> t m o t.> z x 6         5 i 4 l 6 4 < S.O.5 @ # f # , , O @ .     SXVX^.T.a.y.w.1.-.$.B  .#X:X5X5X{.eXpXpXqXpXpXpXpXpXpXpXpXpXpXpXpXpXpXpXpXpXpXpXpXpXpXpXpXpXpXpXpXpXpXpX9XpXpX:X*X8X<X2XpXpX8X6XpXpXeX+X+X} h.f.| H } XX}.+XG h..X*X{ E vXj 3 6 P.+ Q g - #           L $ O.2 8 8 < < C.I 8 5 @ Z.O.5 , X .     h.oX:X X2XrX6X|. .&X.XXX&X#X0XpX2X3X*XXX%XuX8X2X6XqXpXpXpXpXpXpXpXpXpXpXpXpXpXpXpXpXpXpXpXpXpXpXpXpXpXpXpXpXpXpXpXpXpXpXpXpXpXpXpXpXpXpXpXpXpXpXpXpXpX",
"pXpXpXpXpXpXpXpXpXpXpXpXpXpXpXpXpXpXpXpXpXpXpXpXpXpXqXpXpX8X2X8X$X@XrX-XB 2.3.<.1.7.r.m.T.R.(.(.VXZXFXJXLXLXLXLXPXt.'.c t i R.& t.c : #           k ; +.4 8 8 < 1 C.I 8 5 @ Z.o.5 , X .     CX).^.Y.m.y.e.;.%.3.B S =X$XrXqX6X0X9XqXpXpXpXpXpXpXpXpXpXpXpXpXpXpXpXpXpXpXpXpXpXpXpXpXpXpXpXpXpXpXpXpXpX8XpXqX<X6XpX3XpX2XqXpXpXpXqX|.H A 4.G } J S { { { XXh.} { @Xl P.L.# ~ +.) Y Q , L 2 , #   < 8 - = f 2 4 < + / g 9 8 @ V.R 9 5 8 .     s.} 3X8X%X@X:X@X1XS oX-X| oXeX:XpXpX$X:X$X<X8X8XpXpXpXpXpXpXpXpXpXpXpXpXpXpXpXpXpXpXpXpXpXpXpXpXpXpXpXpXpXpXpXpXpXpXpXpXpXpXpXpXpXpXpXpXpXpXpXpXpXpXpX",
"pXpXpXpXpXpXpXpXpXpXpXpXpXpXpXpXpXpXpXpXpXpXpXpXpXpXpXqXpXqX6X6XqX;XrX{ } h.d.<.7.w.r.a.m.E.(.(.).SXFXJXLXLXLXPXPXc E.R.& t.H.z.m t.> x 4 < #   < 9 ; = B.2 4 < + ! L 9 8 @ V.R 9 5 8 .     NX)./.T.x.r.w.:.1.#.C |.}.@X3X*XqXpX8X0XqXpXpXpXpXpXpXpXpXpXpXpXpXpXpXpXpXpXpXpXpXpXpXpXpXpXpXpXpXpXpXpXqXpX0XpX8X6X3X0X8XpX<XeX<X9XpX*X}.F #XV { { @XD { 2X.XH @X[ *XL +.cX3 j J.l Y hXW Q 0 5 # @ - 5 < O.f B.B.B.C.C.g 8 8 2 @ / 9 5 @   N #X#X:X3X.XOXG %X-X@X>X.X X=X+X:X2X6X<X3X3XeX6X;XpXqXpXpXpXpXpXpXpXpXpXpXpXpXpXpXpXpXpXpXpXpXpXpXpXpXpXpXpXpXpXpXpXpXpXpXpXpXpXpXpXpXpXpXpXpXpXpXpXpXpXpX",
"pXpXpXpXpXpXpXpXpXpXpXpXpXpXpXpXpXpXpXpXpXpXpXpXpXpXpXpXqXpX0X6X2X8X2X0XH V $.=.1.e.y.a.R.T.Q.'.CXCXSXJXJXJXLXPXPXc T./.i c H.z m /.m ( l 5 # @ ; 5 < O.f B.B.B.C.C.L 8 8 2 @ / 9 8 @   U.SXCXNX^.m.m.e.e.1.%.3.2.V }. .@X<XeXeXpXpXqXpXpXpXpXpXpXpXpXpXpXpXpXpXpXpXpXpXpXpXpXpXpXpXpXpXpXpXpXpXpXpXpXpXpXpXpX0XpX0X$X0X<XqX*X:X3X1X .OXA h.c.d.h. ..X:X}.{ .X[ oX@.+.P.L.x _ R U gXL / Y 0 < , < , 9 1 K.X...! ! ! S.S.S.S.V.V.0 < 2     7 @X*X+X0X .} G } ;X*XeX.X<X$X6XpX:X<X.X=X%X0X<X0XqXpXpXpXpXpXpXpXpXpXpXpXpXpXpXpXpXpXpXpXpXpXpXpXpXpXpXpXpXpXpXpXpXpXpXpXpXpXpXpXpXpXpXpXpXpXpXpXpXpXpX",
"pXpXpXpXpXpXpXpXpXpXpXpXpXpXpXpXpXpXpXpXpXpXpXpXpXpXpXpXpXpXpX0XpX0X$X2X{ } $.%.1.e.y.Y.Y.E.`.`.VXZXZXZXFXJXLXPXPXY.Y.W.I.m z.~ x !.n z.T 9 < , < , 9 < K.X...! ! ! S.S.S.A.V.V.0 < 2     j ^.R.T.T.p.r.w.;.-.,.f.B  .} -XqX<X8X0XpXqXpXpXpXpXpXpXpXpXpXpXpXpXpXpXpXpXpXpXpXpXpXpXpXpXpXpXpXpXpXpXpXpXpXpXqX0XpXpX*XrX1X<X<X|.3XeX1XG G H 3.6.<.,.] H V .XS S } v.T ~ P.cXk 6 l 2 o.Y @./ W 5 2 , $ 9 $ @.8 8 8 5 4 ! ..! ! W R B.f @ @   . 2X6X:X6X3XXX] @X+X3X.X .@X0X<X2XeX-X| } rXqXpX8XqXpXpXpXpXpXpXpXpXpXpXpXpXpXpXpXpXpXpXpXpXpXpXpXpXpXpXpXpXpXpXpXpXpXpXpXpXpXpXpXpXpXpXpXpXpXpXpXpXpXpX",
"pXpXpXpXpXpXpXpXpXpXpXpXpXpXpXpXpXpXpXpXpXpXpXpXpXpXpXpXpXqXqXpXpX;XqX2X}.G #.-.1.r.y.a.Y.T.W.(.(.CXCXVXVX'.JXPXT.q.t.W./.z i k 3 z.m I.) W 5 2 , $ 9 $ @.8 8 5 5 4 ! ..! ! R R B.f @ @   . ^.R.Y.m.m.e.w.1.%.,.,.s A %X+X:X8XeXeX0XpXpXpXpXpXpXpXpXpXpXpXpXpXpXpXpXpXpXpXpXpXpXpXpXpXpXpXpXpXpXpXpXpXpXpXqXpX2X<X@X| OXXX} XX=X*X*X}  X=X} s.5.S } V d.h.F .XB k l P.cXvX9 I I I ..! I / I 0 9 2 , - gXo.5 5 5 2 4 4 5 8 8 5 R W ! ! O . . @ 0XeX8X6XeX>X*X:X:X%X|  .2X6XpX2X*X3XrX9X0X6X0XpXpXpXpXpXpXpXpXpXpXpXpXpXpXpXpXpXpXpXpXpXpXpXpXpXpXpXpXpXpXpXpXpXpXpXpXpXpXpXpXpXpXpXpXpXpXpXpXpXpXpX",
"pXpXpXpXpXpXpXpXpXpXpXpXpXpXpXpXpXpXpXpXpXpXpXpXpXpXpXpXpXpXpX8X2X*X$X2XH 4.,.#.;.w.r.a.Y.E.E.(.'.'.'.].].DXFXPXn c E.).VXj x x T z.z.n ( U 0 9 2 , - gXo.5 5 5 2 4 4 5 5 8 5 R W ! ! @ . . + Y.m.m.r.r.w.;.-.<.d.A V #X;X0X<X:XpXpXpXpXpXpXpXpXpXpXpXpXpXpXpXpXpXpXpXpXpXpXpXpXpXpXpXpXpXpXpXpXpXpXpXpXpXpX0XpX6X0X-X=X>X=X-X<X8XqX$X:X8XJ F |  .H F d.,.h.2.s.l l v.P.xX_ I I W X.O.I ! I 0 9 8 , 2 gX9 4 5 2 1 2 4 4 4 4 2 5 5 5 5 8 @ X O <XqXpX+X;X3X X$X<X-X} @X%X@X2XpXpX*X<X0XpXpXqXpXpXpXpXpXpXpXpXpXpXpXpXpXpXpXpXpXpXpXpXpXpXpXpXpXpXpXpXpXpXpXpXpXpXpXpXpXpXpXpXpXpXpXpXpXpXpXpXpXpXpX",
"pXpXpXpXpXpXpXpXpXpXpXpXpXpXpXpXpXpXpXpXpXpXpXpXpXpXpXpXpXpX0XpX8XqX2X=X} f.3.#.1.e.e.y.T.T.E.(.`.`.`.`.`.].SXLXc c T.W./.z.x x Q ` z.z ( U 0 9 8 , 2 gX9 4 5 2 1 2 4 4 4 4 2 5 5 5 8 8 @ X O y.y.r.7.7.1.&.%.,.5.4.A } { $XqXqX<X8XpXpXpXpXpXpXpXpXpXpXpXpXpXpXpXpXpXpXpXpXpXpXpXpXpXpXpXpXpXpXpXpXpXpXpXpXpXpX2XqX+X3XpX<X%X<X<XpX0X<X X*X}.2XD +XH d.,.d.,.,.# l +.J.+.L.I I Y O./ 0 I R L 0 8 1 < Y 2 L g < $ 2 2 2 2 2 2 2 2 2 2 X . X @ @ 8X*X$XeX.XeX+X}.} } .X{ 1X@XpX6XpXpXeX8XpXqXpXpXpXpXpXpXpXpXpXpXpXpXpXpXpXpXpXpXpXpXpXpXpXpXpXpXpXpXpXpXpXpXpXpXpXpXpXpXpXpXpXpXpXpXpXpXpXpXpXpXpX",
"pXpXpXpXpXpXpXpXpXpXpXpXpXpXpXpXpXpXpXpXpXpXpXpXpXpXpXpXpXqXpXpX<X8X{ .XXX3.#.%.;.w.e.y.a.T.T.(.E.`.`.].`.].SXJX& c H.T.H.I.x x E +._ i x E L 0 8 1 < Y 2 L g 1 $ 2 2 2 2 2 2 2 2 2 2 X . X @ @ e.7.:.1.-.,.#.#.$.4.V S >X}.0X2XqXpX0XqXpXpXpXpXpXpXpXpXpXpXpXpXpXpXpXpXpXpXpXpXpXpXpXpXpXpXpXpXpXpXpXpXpXpXpXpXqX<XeXeX;X8XeXqXpXpX2X6X;X6X2X3X8X$X.XB S 4.,.,.# I ~ ` 6 k g I Y ! ! ! I / I 9 8 < 2 ! 2 U 9 2 ; 1 1 2 2 2 2 2 2 2 2 2 2 X @ @ [ <X;X%XG #X@X}.H XX-XXX} 4X<X9X2X0X0XqXqXpXpXpXpXpXpXpXpXpXpXpXpXpXpXpXpXpXpXpXpXpXpXpXpXpXpXpXpXpXpXpXpXpXpXpXpXpXpXpXpXpXpXpXpXpXpXpXpXpXpXpXpX",
"pXpXpXpXpXpXpXpXpXpXpXpXpXpXpXpXpXpXpXpXpXpXpXpXpXpXpXpXqX0XpXpX8X@X.X .s 3.,.#.:.w.7.w.y.Y.T.E.Q.Q.`.Q.].`.CXJX& m t.H.i n k x T ) ^ ( x ) U 9 8 < 2 ! 2 I 0 2 ; 1 1 2 2 2 2 2 2 2 2 2 2 X @ @ ;.1.:.;.%.-.%.#.,.G  .| |.<X=X3X<X9X0XqXqXpXpXpXpXpXpXpXpXpXpXpXpXpXpXpXpXpXpXpXpXpXpXpXpXpXpXpXpXpXpXpXpXpXpX0X8XqX0X0XpX8X9XpXpX0XpX6X2XpX6XqX}..XS C ] B 2.f.# 0 vXE mXE 0 I I I U Y I ..Y 9 2 ; 2 gX4 9 @ X ; $ 2 2 2 2 2 0 I 2 , < 2 $ @ # ' XX ..XOX1X$X.XXX| =XXX,X%X2X<XqXpXqXpXpXpXpXpXpXpXpXpXpXpXpXpXpXpXpXpXpXpXpXpXpXpXpXpXpXpXpXpXpXpXpXpXpXpXpXpXpXpXpXpXpXpXpXpXpXpXpXpXpXpXpXpXpX",
"pXpXpXpXpXpXpXpXpXpXpXpXpXpXpXpXpXpXpXpXpXpXpXpXpXpXpXpXpX0XpX2X$X;X@X} S ,.,.,.;.>.e.w.e.Y.Y.T.Y.Q.Q.(.].`.'.ZX& z ).m NXm k T U I U E x _ R 9 2 ; 2 gX4 9 # X ; $ 2 2 2 2 2 0 I 2 , < 2 $ @ # p ,.%.%.<.,.#.#.2.s.] } 3X@X;X$X9XpX8XpXqXpXpXpXpXpXpXpXpXpXpXpXpXpXpXpXpXpXpXpXpXpXpXpXpXpXpXpXpXpXpXpXpXpXpXpXpXpXpXpXpXpX0X0XpXqXqXpX6XpX2X@X%XH .Xs.,.G A S # ; vXl mX1 2 I I X.I o.I Q ! l 2 0 9 ..2 2 2 2 X , 2 2 2 2 2 I 0 2 1 $ 2 , @ # $ h.} <X.X$X8XpX2XeX<X*X<X0X8XpXpXqXpXpXpXpXpXpXpXpXpXpXpXpXpXpXpXpXpXpXpXpXpXpXpXpXpXpXpXpXpXpXpXpXpXpXpXpXpXpXpXpXpXpXpXpXpXpXpXpXpXpXpXpXpXpXpX",
"pXpXpXpXpXpXpXpXpXpXpXpXpXpXpXpXpXpXpXpXpXpXpXpXpXpXpXqX0X8X6XqX8X2X-X .S f.#.#.<.;.7.e.w.m.a.a.T.E.(.(.Q.].CXFX& : ).c NX6 3 T U X.I +.x ~ ) l 2 0 9 ..2 2 2 2 X , 2 2 2 2 2 I 0 2 2 $ 2 , @ # $ ,.,.d.$.,.4.h.f.G G H @X1X;XuX0X2XqX0XqXpXpXpXpXpXpXpXpXpXpXpXpXpXpXpXpXpXpXpXpXpXpXpXpXpXpXpXpXpXpXpXpXpXpXpXpXpXpXpXqXqXpXpXpXpXpXqXqX0X<X>XG H XXH h.d.C } E J.K.v.lXY I I X.U gXI I I / I 0 0 0 8 8 2 1 1 2 2 1 2 1 2 2 0 @ X O ; 2 2 X @ # $ }.2XeX8XqX0X<X8X:X*X8X0X0XpXpXpXpXpXpXpXpXpXpXpXpXpXpXpXpXpXpXpXpXpXpXpXpXpXpXpXpXpXpXpXpXpXpXpXpXpXpXpXpXpXpXpXpXpXpXpXpXpXpXpXpXpXpXpXpXpXpX",
"pXpXpXpXpXpXpXpXpXpXpXpXpXpXpXpXpXpXpXpXpXpXpXpXpXpXpXpXpX0XqX0XuX|.H XXC 2.,.3.%.;.1.7.w.y.a.m.Y.R.Q.Q.`.'.CXFXm H.H.H./.n x x X.U gXU U T ) L 0 0 0 8 5 2 1 1 2 2 1 2 2 2 2 0 @ X X ; 1 1 X @ # $ B S A f.h.h.C ] F H $X;X<XqXqX0X0XpXpXpXpXpXpXpXpXpXpXpXpXpXpXpXpXpXpXpXpXpXpXpXpXpXpXpXpXpXpXpXpXpXpXpXpXpXpXpXpXpXpXpXpXpXpXpXpXqX8X0X8X#X] H %XS h.3.s A 1 ) v.) +.l I I F.U . I L ! Y I L 0 0 8 2 < 1 1 1 < 1 @ 8.2 2 2 2 2 2 ; 1 2 @ @ # $ eX*XpX<XpXpXpX8XeXeXpX6XpXpXpXpXpXpXpXpXpXpXpXpXpXpXpXpXpXpXpXpXpXpXpXpXpXpXpXpXpXpXpXpXpXpXpXpXpXpXpXpXpXpXpXpXpXpXpXpXpXpXpXpXpXpXpXpXpXpXpX",
"pXpXpXpXpXpXpXpXpXpXpXpXpXpXpXpXpXpXpXpXpXpXpXpXpXpXpXqXqXeX<X*XeX>X%X#X4.2.,.#.,.%.;.:.7.e.y.a.m.T.E.E.(.).NXCX6 z.H.z.x.z x x K.U   I P ^ T L L 0 0 9 1 < < 1 1 < 1 @ 8.2 2 2 2 2 1 ; 1 2 @ @ # $ %XF #XF .X@X#X X.X@XrX*XrXqXqX6X8XpXpXpXpXpXpXpXpXpXpXpXpXpXpXpXpXpXpXpXpXpXpXpXpXpXpXpXpXpXpXpXpXpXpXpXpXpXpXpXpXpXpXpXpXpXpXpXpXpX8XpX;XqX%XF .XH h.<.} S ;X_ J.U k l L I @.U . L L I @.@.gX0 0 0 8 8 4 < < < @ # # 8.w Y < < < 1 1 1 # # $ $ # *XpX2XpXqX0X0X8XpX9XpXqXpXpXpXpXpXpXpXpXpXpXpXpXpXpXpXpXpXpXpXpXpXpXpXpXpXpXpXpXpXpXpXpXpXpXpXpXpXpXpXpXpXpXpXpXpXpXpXpXpXpXpXpXpXpXpXpXpXpX",
"pXpXpXpXpXpXpXpXpXpXpXpXpXpXpXpXpXpXpXpXpXpXpXpXpXpXpXqXpX2X2X$X%X:X@X@X] 2.=.5.#.#.;.:.7.e.e.x.a.a.R.R.)./.VX^.'.z.I.m c z x x v.U   L L U K.@.gX0 0 0 8 4 2 < < , @ # # 8.w Y < < < 1 1 1 # # $ $ # [ >X{ =X#X+X%X.XeX$X3XeX0XqX6X8X0XqXqXpXpXpXpXpXpXpXpXpXpXpXpXpXpXpXpXpXpXpXpXpXpXpXpXpXpXpXpXpXpXpXpXpXpXpXpXpXpXpXpXpXpXpXpXpXqXpX0XpXeX}.oX| G f.d.A <X X+.L.T # g I I @.l   _ L I L X.W nXmXmXmXmXmX4 2 4 2 4 2 # # $ 2 < , < < - $ $ - $ # 6XpXpXpXpXqXqXpXqXpXpXpXpXpXpXpXpXpXpXpXpXpXpXpXpXpXpXpXpXpXpXpXpXpXpXpXpXpXpXpXpXpXpXpXpXpXpXpXpXpXpXpXpXpXpXpXpXpXpXpXpXpXpXaXaXpXpXpXpXpX",
"pXpXpXpXpXpXpXpXpXpXpXpXpXpXpXpXpXpXpXpXpXpXpXpXpXpXpXpX0XqXqX;XeX|.-X>X] S ,.#.,.=.<.&.7.7.w.e.e.a.T.T.R.R.R.).^.J.I.m & x x x L.l   _ L I L X.W nXmXmXmXmXmX2 2 2 2 2 2 # # $ 2 < , < < - $ $ - $ # *X0XeX2XrX;X%XeX<XuX$XeX<XqXqX0XpXqXpXpXpXpXpXpXpXpXpXpXpXpXpXpXpXpXpXpXpXpXpXpXpXpXpXpXpXpXpXpXpXpXpXpXpXpXpXpXpXpXpXpXpXpXpXpXpXpX8X0X;X.X#X} @XF A #X;X<X1 +.; # 2 I I O.2 X +.1 L L KXnX8 I mXmXmXnXzXhXgXO.8 2 2 2 2 2 2 , , , , , ; - - # pXpXqXpXpXpXpXpXpXpXpXpXpXpXpXpXpXpXpXpXpXpXpXpXpXpXpXpXpXpXpXpXpXpXpXpXpXpXpXpXpXpXpXpXpXpXpXpXpXpXpXpXpXpXpXpXpXpXpXpXpXpXpXpXpXpXpXpXpXpX",
"pXpXpXpXpXpXpXpXpXpXpXpXpXpXpXpXpXpXpXpXpXpXpXpXpXpXpXpXpXqXqX0XeX2X>X.XA V ,.2.-.-.%.<.<.;.7.7.7.r.y.m.m.Y.R.R.T.6 z.: & 6 x x v.6 X +.1 L L KXnX9 Y mXmXmXnXzXhXgXO.8 2 2 2 2 2 2 , , , , , , - - # qXqX*XqX0XqX:X*XeXqX6X0X2XqXpXqXpXpXpXpXpXpXpXpXpXpXpXpXpXpXpXpXpXpXpXpXpXpXpXpXpXpXpXpXpXpXpXpXpXpXpXpXpXpXpXpXpXpXpXpXpXpXpXpXpXpXqXpXpX0X;X{ $XeX}.$X.X}._ : 3 # 2 I I ) $ X +.I 9 L HXnXnXmX0 KXmXnXzXhXgXO., ! Q g 4 2 ; 1 1 < < < < , , , 7 qXpXpXpXpXpXpXpXpXpXpXpXpXpXpXpXpXpXpXpXpXpXpXpXpXpXpXpXpXpXpXpXpXpXpXpXpXpXpXpXpXpXpXpXpXpXpXpXpXpXpXpXpXpXpXpXpXpXpXpXpXpXpXqXyXbXGXpXpX",
"pXpXpXpXpXpXpXpXpXpXpXpXpXpXpXpXpXpXpXpXpXpXpXpXpXpXpXpXpXqXeX2X*X:X3X#XF } s.,.,.<.#.%.-.%.,.6.6.7.w.y.m.m.m.x.u.z.: 3 & 6 x x ) ; X ` I 9 L HXnXnXmX0 KXmXnXzXhXgXO., ! Q g 4 2 ; 2 1 < < < < , , , 7 8X0XqX9XpX<XqX3X0X9X8XeX8XpXpXqXqXpXpXpXpXpXpXpXpXpXpXpXpXpXpXpXpXpXpXpXpXpXpXpXpXpXpXpXpXpXpXpXpXpXpXpXpXpXpXpXpXpXpXpXpXpXpXpXpXpXpX2X<X|..X*X$X+X2XqX.XL.6 $ 2 I I ! @ 1 ; R L 0 mXgXzXnXnXL PXnXnXzXhXgXO.1 X.Y 0 4 2 $ X.Q 8 , , $ < < , < 0XpXpXpXpXpXpXpXpXpXpXpXpXpXpXpXpXpXpXpXpXpXpXpXpXpXpXpXpXpXpXpXpXpXpXpXpXpXpXpXpXpXpXpXpXpXpXpXpXpXpXpXpXpXpXpXpXpXpXpXqXqXqXOXe 9.h @.pX",
"pXpXpXpXpXpXpXpXpXpXpXpXpXpXpXpXpXpXpXpXpXpXpXpXpXpXqXqXpXpXqX0X<XrX=X@XH S S A ,.3.5.2.,.6.4.$.$.;.7.w.r.y.y.m.y.I.6 $ 6 x x ^ @ 3 ; W L 0 mXgXzXnXnXL PXnXnXzXhXgXO.1 X.Y 0 4 2 $ X.Q 8 , , $ < < , < 8X2XpX6XpX6XpX6X8X0X8X8XpXpXqXpXpXpXpXpXpXpXpXpXpXpXpXpXpXpXpXpXpXpXpXpXpXpXpXpXpXpXpXpXpXpXpXpXpXpXpXpXpXpXpXpXpXpXpXqXpXpXpXpXpX0X8X8XuX$X.X|.0X*XpXqX:X+.E : 8 I I L . 6 +.I Q 0 kXK.hXzX0 KXnXzXkXgX@.o.1 X.o.I 0 4 2 # l < $ $ $ # # @ . . M pXpXpXpXpXpXpXpXpXpXpXpXpXpXpXpXpXpXpXpXpXpXpXpXpXpXpXpXpXpXpXpXpXpXpXpXpXpXpXpXpXpXpXpXpXpXpXpXpXpXpXpXpXpXpXpXpXpXpXqXqXfXt t H.v y GX",
"pXpXpXpXpXpXpXpXpXpXpXpXpXpXpXpXpXpXpXpXpXpXpXpXpXpXqXqXpXpXqXqXqX*X<X$X.X=X#XB S h.,.,.4.4.B V B =.1.>.r.e.y.y.e.H.E : 6 x x k . i v.U Q 0 kXF.hXzX0 KXnXzXkXhX@.o.1 X.X.I 0 4 2 # l < $ $ $ # # @ . . M pXpXpXqX9XpXqXpXqXpXpXpXqXpXpXpXpXpXpXpXpXpXpXpXpXpXpXpXpXpXpXpXpXpXpXpXpXpXpXpXpXpXpXpXpXpXpXpXpXpXpXpXpXpXqXqX0XpXpX0XqXpXpXqXpXpX<XtX .h.&X.X6X<X2X*X) ~ : 6 L I < . 6 +.Y / L 8 F.gXhX2 mXkXzXhXF.@...L X.I 0 4 2 @ # , $ # # # # O I 0 1 X pXqXpXpXpXpXpXpXpXpXpXpXpXpXpXpXpXpXpXpXpXpXpXpXpXpXpXpXpXpXpXpXpXpXpXpXpXpXpXpXpXpXpXpXpXpXpXpXpXpXpXpXpXpXpXpXpXpXpXqXqXbXt b H.b v bX",
"pXpXpXpXpXpXpXpXpXpXpXpXpXpXpXpXpXpXpXpXpXpXpXpXpXpXpXqX9X6XqXqX0XqXeX|.{ F .XoXA F | | S } %XZ } ,.%.1.>.w.w.w.7.z.( : 6 x T < . i v.Y ! L 8 F.gXhX2 mXkXzXhXgX@...L X.I 0 4 2 @ # , $ # # # # O I 0 1 X qX0XqXqXpXpXpX0XpXpXpXpXpXqXpXpXpXpXpXpXpXpXpXpXpXpXpXpXpXpXpXpXpXpXpXpXpXpXpXpXpXpXpXpXpXpXpXpXpXpXpXpXpXpXqX9XpXpX8X2X6XpX8X0XqXpXpX<X>X] S } :X;XqX8X1 _ 6 i g 5 , . 9 +.g Q mX5 8 5 8 4 4 8 kXX.@.X.Q 2 o.L 9 2 1 @ 9 - $ # # # . 1 @ @ X   8X0XqXpXpXpXpXpXpXpXpXpXpXpXpXpXpXpXpXpXpXpXpXpXpXpXpXpXpXpXpXpXpXpXpXpXpXpXpXpXpXpXpXpXpXpXpXpXpXpXpXpXpXpXpXpXpXpXpXpXpXb.t b H.b h bX",
"pXpXpXpXpXpXpXpXpXpXpXpXpXpXpXpXpXpXpXpXpXpXpXpXpXpXpXpX9X6XqXrX:X<X@X%X|.-X@X}.F H #XH { %X;X%XS A %.%.%.;.>.7.:.i z.6 j k 6 ; . i v.g Q mX5 8 4 4 4 5 8 kXX.@.X.Q 2 o.L 9 2 1 @ 9 - $ # # # . 1 @ @ X   0XqXqXqXpXpXqXpXqXpXpXqXpXpXpXpXpXpXpXpXpXpXpXpXpXpXpXpXpXpXpXpXpXpXpXpXpXpXpXpXpXpXpXpXpXpXpXpXpXpXpXpXpXpX0XpX0X6XqXeX2X<XpXpXpX<XeX*X2X>X&X%X<X8X8X8X# +.k k 0 1 X   6 +.I U gX8 5 5 4 4 4 4 4 5 5 8 4 5 5 2 < $ $ @ 8 # # # @ @ . $ @ @ X   6XpXqXpXpXpXpXpXpXpXpXpXpXpXpXpXpXpXpXpXpXpXpXpXpXpXpXpXpXpXpXpXpXpXpXpXpXpXpXpXpXpXpXpXpXpXpXpXpXpXpXpXpXpXpXpXpXpXpXaXsXz.e h t.h v nX",
"pXpXpXpXpXpXpXpXpXpXpXpXpXpXpXpXpXpXpXpXpXpXpXpXpXpXpXpXpXpXqX0X0XqXqX-X:X=X.X>X.X|.{ <X3X0X@X@XS S d.3.-.%.-.;.-.& H.z k i 1 O   i v.I U gX8 5 5 4 4 4 4 4 5 5 8 4 5 5 2 < $ $ @ 8 # # # @ @ . $ @ @ X   qXpXqXqXqXqXqXqXpXqXpXpXpXpXpXpXpXpXpXpXpXpXpXpXpXpXpXpXpXpXpXpXpXpXpXpXpXpXpXpXpXpXpXpXpXpXpXpXpXpXpXpXpXqXpXpX2XeXrXeX2X<X8X8XqX<X<X0XpX2X:X*XqXqX6XpX+.) E 9 l .   ; # ~ L 8 W 8 8 8 8 5 8 4 4 4 4 4 4 5 8 5 4 4 5 @ - $ $ $ , @ . # @ @ X   pXpX0XpXpXpXpXpXpXpXpXpXpXpXpXpXpXpXpXpXpXpXpXpXpXpXpXpXpXpXpXpXpXpXpXpXpXpXpXpXpXpXpXpXpXpXpXpXpXpXpXpXpXpXpXpXpXpXpXaXfXm * h z.h v zX",
"pXpXpXpXpXpXpXpXpXpXpXpXpXpXpXpXpXpXpXpXpXpXpXpXpXpXpXqX0X0XqXeX;X:X*XqXeX@X=X3X;X*X$X3X2X9X*X X%X.Xs.,.#.,.%.#.,.H.z.( 9 l X   ; # ~ L 8 W 8 8 8 8 5 8 4 4 4 4 4 4 5 8 5 4 4 5 @ - $ $ $ , @ . # @ @ X   pXpXqXpXpXpXpXpXqXqXpXpXpXpXpXpXpXpXpXpXpXpXpXpXpXpXpXpXpXpXpXpXpXpXpXpXpXpXpXpXpXpXpXpXpXpXpXpXpXpXpXpXpXpX0XpX<X1XoX.X$XpX0X$X0X6X2XpX8X6XqX;X:XpXpXpX` ) x $ 9 . @ ; k l 2 .   Y I g 8 9 8 5 4 5 8 8 8 4 5 4 5 4 4 4 5 4 5 4 4 ; , , , <     eX2XpXqXpXpXpXpXpXpXpXpXpXpXpXpXpXpXpXpXpXpXpXpXpXpXpXpXpXpXpXpXpXpXpXpXpXpXpXpXpXpXpXpXpXpXpXpXpXpXpXpXpXpXpXpXpXpXpXqXGXe o c z.t y zX",
"pXpXpXpXpXpXpXpXpXpXpXpXpXpXpXpXpXpXpXpXpXpXpXpXpXpXpXqXpX9X6XqX3X0XuX3X0X=XeX<X#X*XpXpX:XqX2X*XrX}.A f.$.#.5.3.,.H.z.z - 9 . @ ; x l 2 .   Y I g 8 9 8 5 4 5 8 8 8 4 5 4 5 4 4 4 5 4 4 4 4 ; , , , <     pXqXpXqXpXpXpXpXpXpXpXpXpXpXpXpXpXpXpXpXpXpXpXpXpXpXpXpXpXpXpXpXpXpXpXpXpXpXpXpXpXpXpXpXpXpXpXpXpXpXpXpXpXpX8X2X*X>X] @X3X:X2X4X<XeXqX0X2XpX8XpX0X0X0XqX..E : . 4   2 Y 9 0 X                 2 < < - $ # 5 8 8 8 8 8 4 2 5 4 4 4 5 8 4 4 2 4 2 eX0X9XqXpXpXpXpXpXpXpXpXpXpXpXpXpXpXpXpXpXpXpXpXpXpXpXpXpXpXpXpXpXpXpXpXpXpXpXpXpXpXpXpXpXpXpXpXpXpXpXpXpXpXpXpXpXpXpXpXkXe t U.MXt r zX",
"pXpXpXpXpXpXpXpXpXpXpXpXpXpXpXpXpXpXpXpXpXpXpXpXpXpXpXpXqX0X8XqXrXqX0X;X;X$X3X|.oXeX2XpXpX8X6X8X*X[ #Xs.F 2.,.$.2.t.t.> . 4   4 U 9 0 X                 2 < < - $ # 5 8 8 8 8 8 4 2 5 2 4 4 5 8 4 5 4 5 2 pXpXqXqXqXpXpXpXqXpXpXpXpXpXpXpXpXpXpXpXpXpXpXpXpXpXpXpXpXpXpXpXpXpXpXpXpXpXpXpXpXpXpXpXpXpXpXpXpXpXpXpXpXqXqX2XqX3X2X0XqXrX&XOX=X;XpXpX9XqXpXqX0XpXqXqXpXE .   @   U I l 8 .                             @ @ X X . 8 8 8 9 8 8 4 4 4 4 4 5 4 5 pX8XpXpXpXpXpXpXpXpXpXpXpXpXpXpXpXpXpXpXpXpXpXpXpXpXpXpXpXpXpXpXpXpXpXpXpXpXpXpXpXpXpXpXpXpXpXpXpXpXpXpXpXpXpXpXpXpXpXwXMXI.t.u.H.b & b.",
"pXpXpXpXpXpXpXpXpXpXpXpXpXpXpXpXpXpXpXpXpXpXpXpXpXpXpXpXpXqX0X8X8XqXeX0X;X0X2X>X,XuXqXpXqXrX2XqX0X+X|.] f.B G 2.2.] q.    #   U U l 8 .                             @ @ X X . 8 8 8 9 8 8 4 4 4 4 4 8 4 5 pXqXpXqXqXqXpXpXpXqXpXpXpXpXpXpXpXpXpXpXpXpXpXpXpXpXpXpXpXpXpXpXpXpXpXpXpXpXpXpXpXpXpXpXpXpXpXpXpXpXpXpXpXpX0XpXpXpX*XqX:X:X4X=XuX<XpX8XqXqXpXpXpXqX0XpX6X~     j 1 U U 8 ;                                         . . . . .   9 9 8 8 0 0 5 9 8XpXpXpXpXpXpXpXpXpXpXpXpXpXpXpXpXpXpXpXpXpXpXpXpXpXpXpXpXpXpXpXpXpXpXpXpXpXpXpXpXpXpXpXpXpXpXpXpXpXpXpXpXpXpXpXpXpXpXfXI.h h h 9.u.h x ",
"pXpXpXpXpXpXpXpXpXpXpXpXpXpXpXpXpXpXpXpXpXpXpXpXpXpXpXpXpXpXpXpXpXpXpX6XpXpXpX*XuX<X6XpX0XtX2XpX*X%X} XX} F C V | S t.    k 3 U U 8 ;                                         . . . . .   9 9 8 8 0 0 5 9 qXqXpXpXpXqXqXqXqXqXqXpXpXpXpXpXpXpXpXpXpXpXpXpXpXpXpXpXpXpXpXpXpXpXpXpXpXpXpXpXpXpXpXpXpXpXpXpXpXpXpXpXpXpXpX9XpX2XqX2X<X;XqXrX2X<XpXpXqXpXpXpXpXpXpX6X3X+.    1 Q 8 5 X .                                                                 9 0 7XqXpXpXpXpXpXpXpXpXpXpXpXpXpXpXpXpXpXpXpXpXpXpXpXpXpXpXpXpXpXpXpXpXpXpXpXpXpXpXpXpXpXpXpXpXpXpXpXpXpXpXpXpXpXpXpXpXpXbXt h t.z > h u.b ",
"pXpXpXpXpXpXpXpXpXpXpXpXpXpXpXpXpXpXpXpXpXpXpXpXpXpXpXpXpXpXpXpXqXpX0XpX8XpX2XqX2X2XeXpXpX8X6XqXqX%X{ =X%X ..X| S F H.    3 ~ 8 5 X .                                                                 9 0 7XqXpXqXqXqXqXqXpXpXpXpXpXpXpXpXpXpXpXpXpXpXpXpXpXpXpXpXpXpXpXpXpXpXpXpXpXpXpXpXpXpXpXpXpXpXpXpXpXpXpXpXpXpXpXpXpXqX8X8XpX8X8X<XpX6X9X0XpXpXpXpXpXpXpXqX+X    x.0.r t # . @                                                                 [.0XqXqXpXpXpXpXpXpXpXpXpXpXpXpXpXpXpXpXpXpXpXpXpXpXpXpXpXpXpXpXpXpXpXpXpXpXpXpXpXpXpXpXpXpXpXpXpXpXpXpXpXpXpXpXpXpXpXpXpXb.t h ` +.l t 9.t.",
"pXpXpXpXpXpXpXpXpXpXpXpXpXpXpXpXpXpXpXpXpXpXpXpXpXpXpXpXpXpXpXqXpXpXpXpXpXpXqX6X8XpX0X0X0XpX8X8X:X$X.X>X@X{ %X.X.XZ     Y.w.r t # . O                                                                 [.pXpXpXpXpXpXpXpXpXpXpXpXpXpXpXpXpXpXpXpXpXpXpXpXpXpXpXpXpXpXpXpXpXpXpXpXpXpXpXpXpXpXpXpXpXpXpXpXpXpXpXpXpXpXpXqXqXpXpXqXpXpX8X0X8X8XpXpXqXpXpXpXpXpXpXpXpX0X.Xl.0.a r   6 ) +                                                                 qXpXpXpXpXpXpXpXpXpXpXpXpXpXpXpXpXpXpXpXpXpXpXpXpXpXpXpXpXpXpXpXpXpXpXpXpXpXpXpXpXpXpXpXpXpXpXpXpXpXpXpXpXpXpXpXpXpXpXpXpXK.h t ~ L.v.n h h ",
"pXpXpXpXpXpXpXpXpXpXpXpXpXpXpXpXpXpXpXpXpXpXpXpXpXpXpXpXpXpXpXpXpXpXpXpXqXpXpXqXpXpX0X0XqX0XpXqX8X<XqXtX@X{ <X1X1X1X.Xp.e.,.r   6 ) +                                                                 pXpXpXpXpXpXpXpXpXpXpXpXpXpXpXpXpXpXpXpXpXpXpXpXpXpXpXpXpXpXpXpXpXpXpXpXpXpXpXpXpXpXpXpXpXpXpXpXpXpXpXpXpXpXpXqX0X8XpXpX0XpX0X0XpXpXpXqXqXpXpXpXpXpXpXqXpX<X$XdX0.y q q   6 E .                                                               pXpXpXpXpXpXpXpXpXpXpXpXpXpXpXpXpXpXpXpXpXpXpXpXpXpXpXpXpXpXpXpXpXpXpXpXpXpXpXpXpXpXpXpXpXpXpXpXpXpXpXpXpXpXpXpXpXpXpXpXpXpXbXh h > E ( t.h 9.",
"pXpXpXpXpXpXpXpXpXpXpXpXpXpXpXpXpXpXpXpXpXpXpXpXpXpXpXpXpXpXpXpXpXpXpXpXpXpXpXpXpXqXqXpXpXpX0X0XpXqX<X$X3X#X@XrX.X.XdXi.:.r q   6 E .                                                               pXpXpXpXpXpXpXpXpXpXpXpXpXpXpXpXpXpXpXpXpXpXpXpXpXpXpXpXpXpXpXpXpXpXpXpXpXpXpXpXpXpXpXpXpXpXpXpXpXpXpXpXpXpXpXpX0XqX2XeX2X2XpX8XpXpXpXpXpXpXpXpXpXpXpXpXqXpX6XpX5Xy y q *   T 6                                                             7XpXpXpXpXpXpXpXpXpXpXpXpXpXpXpXpXpXpXpXpXpXpXpXpXpXpXpXpXpXpXpXpXpXpXpXpXpXpXpXpXpXpXpXpXpXpXpXpXpXpXpXpXpXpXpXpXpXpXpXpXpXpXpXwXt.9.h > h h 9.b.",
"pXpXpXpXpXpXpXpXpXpXpXpXpXpXpXpXpXpXpXpXpXpXpXpXpXpXpXpXpXpXpXpXpXpXpXpXpXpXpXpXpXpXpXpXpXqX0X8X0X<X<X0X3X>X:XuX$XqX5X:.%.q q   T 5                                                             7XpXpXpXpXpXpXpXpXpXpXpXpXpXpXpXpXpXpXpXpXpXpXpXpXpXpXpXpXpXpXpXpXpXpXpXpXpXpXpXpXpXpXpXpXpXpXpXpXpXpXpXpXpXpXpXpXqXpXpX8X2XrX0XpXpXqXpXpXpXpXpXpXpXpXpXpXpXqXpXeX<X<X0.y r * + Q 1                                                           eXqXpXpXpXpXpXpXpXpXpXpXpXpXpXpXpXpXpXpXpXpXpXpXpXpXpXpXpXpXpXpXpXpXpXpXpXpXpXpXpXpXpXpXpXpXpXpXpXpXpXpXpXpXpXpXpXpXpXpXpXpXpXpXpXpX6Xn h h h h E qX",
"pXpXpXpXpXpXpXpXpXpXpXpXpXpXpXpXpXpXpXpXpXpXpXpXpXpXpXpXpXpXpXpXpXpXpXpXpXpXpXpXpXpXpXpXpXpXpX0XpXqXqX*X:XtX@XeX$X;X:Xw.:.y q & ~ 1                                                           qXpXpXpXpXpXpXpXpXpXpXpXpXpXpXpXpXpXpXpXpXpXpXpXpXpXpXpXpXpXpXpXpXpXpXpXpXpXpXpXpXpXpXpXpXpXpXpXpXpXpXpXpXpXpXpXpXpXpXpXpX:X3XeX0XpXpX8X0XqXqXqXpXpXpXpXpXpXpXpX0XpXeXqXx.x.r e i c z >       .                                                 8XqXpXpXpXpXpXpXpXpXpXpXpXpXpXpXpXpXpXpXpXpXpXpXpXpXpXpXpXpXpXpXpXpXpXpXpXpXpXpXpXpXpXpXpXpXpXpXpXpXpXpXpXpXpXpXpXpXpXpXpXpXpXpXpXpXpXqX{.gX5X{.qXpX",
"pXpXpXpXpXpXpXpXpXpXpXpXpXpXpXpXpXpXpXpXpXpXpXpXpXpXpXpXpXpXpXpXpXpXpXpXpXpXpXpXpXpXpXpXpXqXqXpX8XqXeXqX2X*XrX;XqX:XtXm.Y.y r a v z >       .                                                 pXpXpXpXpXpXpXpXpXpXpXpXpXpXpXpXpXpXpXpXpXpXpXpXpXpXpXpXpXpXpXpXpXpXpXpXpXpXpXpXpXpXpXpXpXpXpXpXpXpXpXpXpXpXpXpXpXpXqX2XqXeXoX&X-X3XpXpXpXpXpXqXpXpXpXpXpXpXpXpXqXpXpX~.n.n.!.n.n.x.l.0..   . # .                                             M 9XpXpXpXpXpXpXpXpXpXpXpXpXpXpXpXpXpXpXpXpXpXpXpXpXpXpXpXpXpXpXpXpXpXpXpXpXpXpXpXpXpXpXpXpXpXpXpXpXpXpXpXpXpXpXpXpXpXpXpXpXpXpXpXpXpXpXpXpXpXpXpXpXpX",
"pXpXpXpXpXpXpXpXpXpXpXpXpXpXpXpXpXpXpXpXpXpXpXpXpXpXpXpXpXpXpXpXpXpXpXpXpXpXpXpXpXpXpXpXpXpXqXpX0XqXqXqX2XqX;XeXuXqX~.N.M.R.m.m.M.l.0..   . @ .                                             M pXpXpXpXpXpXpXpXpXpXpXpXpXpXpXpXpXpXpXpXpXpXpXpXpXpXpXpXpXpXpXpXpXpXpXpXpXpXpXpXpXpXpXpXpXpXpXpXpXpXpXpXpXpXpXpXpXpXpXeXqX0X>XXXuXeX0X6XrX0XpXpXpXpXpXpXpXpXpXpXpXpX!.!.x.n.n.n.n.n.x.l.v > # 5 8 2                                           7XqXpXpXpXpXpXpXpXpXpXpXpXpXpXpXpXpXpXpXpXpXpXpXpXpXpXpXpXpXpXpXpXpXpXpXpXpXpXpXpXpXpXpXpXpXpXpXpXpXpXpXpXpXpXpXpXpXpXpXpXpXpXpXpXpXpXpXpXpXpXpXpXpXpX",
"pXpXpXpXpXpXpXpXpXpXpXpXpXpXpXpXpXpXpXpXpXpXpXpXpXpXpXpXpXpXpXpXpXpXpXpXpXpXpXpXpXpXpXpXpXpXpXpXpX8XqXqX2XeXrXqXeX!.!.m.m.M.M.N.N.x.l.v > @ 2 8 2                                           7XpXpXpXpXpXpXpXpXpXpXpXpXpXpXpXpXpXpXpXpXpXpXpXpXpXpXpXpXpXpXpXpXpXpXpXpXpXpXpXpXpXpXpXpXpXpXpXpXpXpXpXpXpXpXpXpXpXpX0X6X3XpX0XuX6X8X2X0X0XeXqXqXpXpXpXpXpXpXpXpXpXpXx.x.x.n.n.n.n.x.x.l.k.n T 8 0 2 1                                       . X pXpXpXpXpXpXpXpXpXpXpXpXpXpXpXpXpXpXpXpXpXpXpXpXpXpXpXpXpXpXpXpXpXpXpXpXpXpXpXpXpXpXpXpXpXpXpXpXpXpXpXpXpXpXpXpXpXpXpXpXpXpXpXpXpXpXpXpXpXpXpXpXpXpX",
"pXpXpXpXpXpXpXpXpXpXpXpXpXpXpXpXpXpXpXpXpXpXpXpXpXpXpXpXpXpXpXpXpXpXpXpXpXpXpXpXpXpXpXpXpXpXqXpXqX0XqX8XqX3XqXqXqXM.m.M.m.Y.Y.m.M.x.l.k.n T 8 0 2 1                                       . X pXpXpXpXpXpXpXpXpXpXpXpXpXpXpXpXpXpXpXpXpXpXpXpXpXpXpXpXpXpXpXpXpXpXpXpXpXpXpXpXpXpXpXpXpXpXpXpXpXpXpXpXpXpXpXpXpXpXqX8X6X<XpX:X<XqXpXpXqXqXqXpXpXpXpXpXpXpXpXpXpXpXl.z.l.x.x.x.x.x.l.l.k.0.3 Q I 8 < , # , ,                             . X X pXpXpXpXpXpXpXpXpXpXpXpXpXpXpXpXpXpXpXpXpXpXpXpXpXpXpXpXpXpXpXpXpXpXpXpXpXpXpXpXpXpXpXpXpXpXpXpXpXpXpXpXpXpXpXpXpXpXpXpXpXpXpXpXpXpXpXpXpXpXpXpXpXpX",
"pXpXpXpXpXpXpXpXpXpXpXpXpXpXpXpXpXpXpXpXpXpXpXpXpXpXpXpXpXpXpXpXpXpXpXpXpXpXpXpXpXpXpXpXpXpXpXpXpXpX8XqXeX0XqX2X3Xy.u.y.x.x.M.x.x.x.x.k.0.3 W I 9 < , # , ,                             . X O pXpXpXpXpXpXpXpXpXpXpXpXpXpXpXpXpXpXpXpXpXpXpXpXpXpXpXpXpXpXpXpXpXpXpXpXpXpXpXpXpXpXpXpXpXpXpXpXpXpXpXpXpXpXpXpXpXpXpX0X9X8X6XqX6X0XqX0XqXpXqXpXpXpXpXpXpXpXpXpXpXpXq.0.0.l.l.l.x.k.k.0.q.n @ Q g 0 0 , < # <   .                         @ X . . pXpXpXpXpXpXpXpXpXpXpXpXpXpXpXpXpXpXpXpXpXpXpXpXpXpXpXpXpXpXpXpXpXpXpXpXpXpXpXpXpXpXpXpXpXpXpXpXpXpXpXpXpXpXpXpXpXpXpXpXpXpXpXpXpXpXpXpXpXpXpXpXpX",
"pXpXpXpXpXpXpXpXpXpXpXpXpXpXpXpXpXpXpXpXpXpXpXpXpXpXpXpXpXpXpXpXpXpXpXpXpXpXpXpXpXpXpXpXpXpXpXpXqXpXpX9X8XqXqXqXqXe.w.e.x.y.y.x.r.l.e.q.n @ Q 0 0 0 , < # <   .                         @ X . . pXpXpXpXpXpXpXpXpXpXpXpXpXpXpXpXpXpXpXpXpXpXpXpXpXpXpXpXpXpXpXpXpXpXpXpXpXpXpXpXpXpXpXpXpXpXpXpXpXpXpXpXpXpXpXpXpXpXpXpXqXpXpXqXpXpXpXpXpXpXpXpXpXpXpXpXpXpXpXpXq.q.0.n 0.q.q.q.q.k.q.q.# 0 g g 8 2 2 2 2 < - , 2 2 #           @     @ @ @ . . pXpXpXpXpXpXpXpXpXpXpXpXpXpXpXpXpXpXpXpXpXpXpXpXpXpXpXpXpXpXpXpXpXpXpXpXpXpXpXpXpXpXpXpXpXpXpXpXpXpXpXpXpXpXpXpXpXpXpXpXpXpXpXpXpXpXpXpXpXpXpXpXpX",
"pXpXpXpXpXpXpXpXpXpXpXpXpXpXpXpXpXpXpXpXpXpXpXpXpXpXpXpXpXpXpXpXpXpXpXpXpXpXpXpXpXpXpXpXpXpXpXpXpXqXpX0X0X9X8XqX0.e.w.0.e.0.0.0.0.l.q.q.@ 0 0 0 8 2 4 2 2 < - , 2 2 #           @     O @ @ . . pXpXpXpXpXpXpXpXpXpXpXpXpXpXpXpXpXpXpXpXpXpXpXpXpXpXpXpXpXpXpXpXpXpXpXpXpXpXpXpXpXpXpXpXpXpXpXpXpXpXpXpXpXpXpXpXpXpXpXpXpXpXpXpXpXpXpXpXpXpXpXpXpXpXpXpXpXpXpXpXz.v a n v v v 0.v n n # < 2 ..L 0 8 8 0 8 # , , 2 2 < < @ $ @ $ - . O , X # . . X pXpXpXpXpXpXpXpXpXpXpXpXpXpXpXpXpXpXpXpXpXpXpXpXpXpXpXpXpXpXpXpXpXpXpXpXpXpXpXpXpXpXpXpXpXpXpXpXpXpXpXpXpXpXpXpXpXpXpXpXpXpXpXpXpXpXpXpXpXpXpXpX",
"pXpXpXpXpXpXpXpXpXpXpXpXpXpXpXpXpXpXpXpXpXpXpXpXpXpXpXpXpXpXpXpXpXpXpXpXpXpXpXpXpXpXpXpXpXpXpXpXpXpXpXpXpX0XqXqXu.0.p 0.0.0.0.0.0.0.n # < 2 ..L 0 8 8 0 8 # < , 2 1 < < @ $ @ $ $ . X , X # . . X pXpXpXpXpXpXpXpXpXpXpXpXpXpXpXpXpXpXpXpXpXpXpXpXpXpXpXpXpXpXpXpXpXpXpXpXpXpXpXpXpXpXpXpXpXpXpXpXpXpXpXpXpXpXpXpXpXpXpXpXpXpXpXpXpXpXpXpXpXpXpXpXpXpXpXpXpXpXpX&Xv a a v a a a y p ; < 1 < o.9 8 8 2 2 0 0 2 < 1 < 2 8 $ # 8 8 $ . . X X . O X @ pXpXpXpXpXpXpXpXpXpXpXpXpXpXpXpXpXpXpXpXpXpXpXpXpXpXpXpXpXpXpXpXpXpXpXpXpXpXpXpXpXpXpXpXpXpXpXpXpXpXpXpXpXpXpXpXpXpXpXpXpXpXpXpXpXpXpXpXpXpXpXpX",
"pXpXpXpXpXpXpXpXpXpXpXpXpXpXpXpXpXpXpXpXpXpXpXpXpXpXpXpXpXpXpXpXpXpXpXpXpXpXpXpXpXpXpXpXpXpXpXpXpXpXpXpXqXqXpXpXOX0.p p 0.a a a y p - < 1 < o.9 8 8 2 2 0 0 2 < 1 < 2 8 $ # 8 8 $ . . X X . O X @ pXpXpXpXpXpXpXpXpXpXpXpXpXpXpXpXpXpXpXpXpXpXpXpXpXpXpXpXpXpXpXpXpXpXpXpXpXpXpXpXpXpXpXpXpXpXpXpXpXpXpXpXpXpXpXpXpXpXpXpXpXpXpXpXpXpXpXpXpXpXpXpXpXpXpXpXpXpXpXpXc t a a y r y y y $ $ , - R W W 1 2 1 1 8 8 9 Q I 2 2 @ , 8 1 $ . . X 2 @ O @ @ @ pXpXpXpXpXpXpXpXpXpXpXpXpXpXpXpXpXpXpXpXpXpXpXpXpXpXpXpXpXpXpXpXpXpXpXpXpXpXpXpXpXpXpXpXpXpXpXpXpXpXpXpXpXpXpXpXpXpXpXpXpXpXpXpXpXpXpXpXpXpXpX",
"pXpXpXpXpXpXpXpXpXpXpXpXpXpXpXpXpXpXpXpXpXpXpXpXpXpXpXpXpXpXpXpXpXpXpXpXpXpXpXpXpXpXpXpXpXpXpXpXpXpXpXpXpXpXpXqXqXv y p a y r y y y $ # , - R W W 1 2 1 1 8 8 9 Q I 2 2 @ , 8 1 $ . . . 2 @ O @ @ @ pXpXpXpXpXpXpXpXpXpXpXpXpXpXpXpXpXpXpXpXpXpXpXpXpXpXpXpXpXpXpXpXpXpXpXpXpXpXpXpXpXpXpXpXpXpXpXpXpXpXpXpXpXpXpXpXpXpXpXpXpXpXpXpXpXpXpXpXpXpXpXpXpXpXpXpXpXpXpXn t r t r r r y . ; # $ < R 0 I W 1 8 2 2 1 2 I I 0 2 @ $ 1 $ $ @ .   , @ # @ @ 1 pXpXpXpXpXpXpXpXpXpXpXpXpXpXpXpXpXpXpXpXpXpXpXpXpXpXpXpXpXpXpXpXpXpXpXpXpXpXpXpXpXpXpXpXpXpXpXpXpXpXpXpXpXpXpXpXpXpXpXpXpXpXpXpXpXpXpXpXpXpXpX",
"pXpXpXpXpXpXpXpXpXpXpXpXpXpXpXpXpXpXpXpXpXpXpXpXpXpXpXpXpXpXpXpXpXpXpXpXpXpXpXpXpXpXpXpXpXpXpXpXpXpXpXpXpXpXpXpXqX0.y r t r r r y . $ # $ < R 0 I W 1 8 2 2 1 2 I I 0 2 @ $ 1 $ $ @ .   , @ # @ @ 1 pXpXpXpXpXpXpXpXpXpXpXpXpXpXpXpXpXpXpXpXpXpXpXpXpXpXpXpXpXpXpXpXpXpXpXpXpXpXpXpXpXpXpXpXpXpXpXpXpXpXpXpXpXpXpXpXpXpXpXpXpXpXpXpXpXpXpXpXpXpXpXpXpXpXpXpXpXpXpXz r e * q q t t # # # # 1 ! 0 9 9 Y L @.2 < < L L 0 2 @ , 8 < 1 # X . . # @ @ # 0 pXpXpXpXpXpXpXpXpXpXpXpXpXpXpXpXpXpXpXpXpXpXpXpXpXpXpXpXpXpXpXpXpXpXpXpXpXpXpXpXpXpXpXpXpXpXpXpXpXpXpXpXpXpXpXpXpXpXpXpXpXpXpXpXpXpXpXpXpXpXpX",
"pXpXpXpXpXpXpXpXpXpXpXpXpXpXpXpXpXpXpXpXpXpXpXpXpXpXpXpXpXpXpXpXpXpXpXpXpXpXpXpXpXpXpXpXpXpXpXpXpXpXpXpXpXpXpXpXqXz y r * q q t t # # # # 1 ! 0 9 9 Y L @.1 < < L L 9 2 @ , 8 < 1 # X . . # @ # # 0 pXpXpXpXpXpXpXpXpXpXpXpXpXpXpXpXpXpXpXpXpXpXpXpXpXpXpXpXpXpXpXpXpXpXpXpXpXpXpXpXpXpXpXpXpXpXpXpXpXpXpXpXpXpXpXpXpXpXpXpXpXpXpXpXpXpXpXpXpXpXpXpXpXpXpXpXpXpXpXt t * % o . # # # @ # @ # 0 < 2 $ 2 9 2 4 < , 8 I 0 0 # $ 9 , # < @ . . . @ @ # @ pXpXpXpXpXpXpXpXpXpXpXpXpXpXpXpXpXpXpXpXpXpXpXpXpXpXpXpXpXpXpXpXpXpXpXpXpXpXpXpXpXpXpXpXpXpXpXpXpXpXpXpXpXpXpXpXpXpXpXpXpXpXpXpXpXpXpXpXpXpXpX",
"pXpXpXpXpXpXpXpXpXpXpXpXpXpXpXpXpXpXpXpXpXpXpXpXpXpXpXpXpXpXpXpXpXpXpXpXpXpXpXpXpXpXpXpXpXpXpXpXpXpXpXpXpXpXpXpXpXt a * % o . # # # @ # @ # 0 < 2 - 2 9 2 2 < , 8 I 0 0 # $ 9 , # < @ . . . @ @ # @ pXpXpXpXpXpXpXpXpXpXpXpXpXpXpXpXpXpXpXpXpXpXpXpXpXpXpXpXpXpXpXpXpXpXpXpXpXpXpXpXpXpXpXpXpXpXpXpXpXpXpXpXpXpXpXpXpXpXpXpXpXpXpXpXpXpXpXpXpXpXpXpXpXpXpXpXpXpXpXc r * % o   # @ # # @ @ # 2 < 1 8 2 0 0 I 1 $ 8 I L 9 $ $ 2 , # 1 @ @ X . $ 0 @ < # pXpXpXpXpXpXpXpXpXpXpXpXpXpXpXpXpXpXpXpXpXpXpXpXpXpXpXpXpXpXpXpXpXpXpXpXpXpXpXpXpXpXpXpXpXpXpXpXpXpXpXpXpXpXpXpXpXpXpXpXpXpXpXpXpXpXpXpXpXpX",
"pXpXpXpXpXpXpXpXpXpXpXpXpXpXpXpXpXpXpXpXpXpXpXpXpXpXpXpXpXpXpXpXpXpXpXpXpXpXpXpXpXpXpXpXpXpXpXpXpXpXpXpXpXpXpXpXqXv r * % o   # @ # @ @ @ # 2 < 1 8 2 0 0 I 1 $ 8 I L 9 $ $ 2 , # 1 @ @ X . $ 0 @ < # pXpXpXpXpXpXpXpXpXpXpXpXpXpXpXpXpXpXpXpXpXpXpXpXpXpXpXpXpXpXpXpXpXpXpXpXpXpXpXpXpXpXpXpXpXpXpXpXpXpXpXpXpXpXpXpXpXpXpXpXpXpXpXpXpXpXpXpXpXpXpXpXpXpXpXpXpXpXm e % o o   # @ # # # # # 4 , < - , 1 L X.8 2 2 0 9 , < 8 X.< , < < @ . X X @ X $ @ pXpXpXpXpXpXpXpXpXpXpXpXpXpXpXpXpXpXpXpXpXpXpXpXpXpXpXpXpXpXpXpXpXpXpXpXpXpXpXpXpXpXpXpXpXpXpXpXpXpXpXpXpXpXpXpXpXpXpXpXpXpXpXpXpXpXpXpXpXpX",
"pXpXpXpXpXpXpXpXpXpXpXpXpXpXpXpXpXpXpXpXpXpXpXpXpXpXpXpXpXpXpXpXpXpXpXpXpXpXpXpXpXpXpXpXpXpXpXpXpXpXpXpXpXpXpXpXqXq.e % o o   # @ # # # # # 4 , < $ , 1 L X.8 2 2 0 9 , < 8 X.< - < < @ . X X @ X $ @ pXpXpXpXpXpXpXpXpXpXpXpXpXpXpXpXpXpXpXpXpXpXpXpXpXpXpXpXpXpXpXpXpXpXpXpXpXpXpXpXpXpXpXpXpXpXpXpXpXpXpXpXpXpXpXpXpXpXpXpXpXpXpXpXpXpXpXpXpXpXpXpXpXpXpXpXpXpXm e * * & o @ @ @ # # # # 2 - - - $ 1 , < 4 2 I 9 0 4 1 I I , # < @ @ .   @ , @ , @ pXpXpXpXpXpXpXpXpXpXpXpXpXpXpXpXpXpXpXpXpXpXpXpXpXpXpXpXpXpXpXpXpXpXpXpXpXpXpXpXpXpXpXpXpXpXpXpXpXpXpXpXpXpXpXpXpXpXpXpXpXpXpXpXpXpXpXpXpXpX",
"pXpXpXpXpXpXpXpXpXpXpXpXpXpXpXpXpXpXpXpXpXpXpXpXpXpXpXpXpXpXpXpXpXpXpXpXpXpXpXpXpXpXpXpXpXpXpXpXpXpXpXpXpXpXpXpXpX0.e * * & o @ @ @ # # # # 2 - - $ - 1 , < 4 4 I 9 0 2 1 I I , # 1 @ # .   @ , @ , @ pXpXpXpXpXpXpXpXpXpXpXpXpXpXpXpXpXpXpXpXpXpXpXpXpXpXpXpXpXpXpXpXpXpXpXpXpXpXpXpXpXpXpXpXpXpXpXpXpXpXpXpXpXpXpXpXpXpXpXpXpXpXpXpXpXpXpXpXpXpXpXpXpXpXpXpXpXpXm c c r * o @ o.0 @ # # # 9 # - - $ - - - - $ I < 2 8 9 g I < $ , @ @ . . . @ @ 1 @ pXpXpXpXpXpXpXpXpXpXpXpXpXpXpXpXpXpXpXpXpXpXpXpXpXpXpXpXpXpXpXpXpXpXpXpXpXpXpXpXpXpXpXpXpXpXpXpXpXpXpXpXpXpXpXpXpXpXpXpXpXpXpXpXpXpXpXpXpXpX",
"pXpXpXpXpXpXpXpXpXpXpXpXpXpXpXpXpXpXpXpXpXpXpXpXpXpXpXpXpXpXpXpXpXpXpXpXpXpXpXpXpXpXpXpXpXpXpXpXpXpXpXpXpXaXpXpXpX0.v v r * o @ o.0 @ # # # 9 # $ $ - - - - - - I < 2 8 9 g I < $ - @ @ . . . @ @ 1 @ pXpXpXpXpXpXpXpXpXpXpXpXpXpXpXpXpXpXpXpXpXpXpXpXpXpXpXpXpXpXpXpXpXpXpXpXpXpXpXpXpXpXpXpXpXpXpXpXpXpXpXpXpXpXpXpXpXpXpXpXpXpXpXpXpXpXpXpXpXpXpXpXpXpXpXpXpXpXt.z.z.r q o   # nX@ @ # , , # # < - < # $ , $ g L 9 < 2 L 0 8 @., 2 @ . . . @ X.$ @ pXpXpXpXpXpXpXpXpXpXpXpXpXpXpXpXpXpXpXpXpXpXpXpXpXpXpXpXpXpXpXpXpXpXpXpXpXpXpXpXpXpXpXpXpXpXpXpXpXpXpXpXpXpXpXpXpXpXpXpXpXpXpXpXpXpXpXpXpXpX",
"pXpXpXpXpXpXpXpXpXpXpXpXpXpXpXpXpXpXpXpXpXpXpXpXpXpXpXpXpXpXpXpXpXpXpXpXpXpXpXpXpXpXpXpXpXpXpXpXpXpXpXpXpXaXpXpXpXu.u.t.r q o   # nX@ @ # , , # # < - < # $ , $ 0 L 9 < 2 L 0 8 @., 4 @ . . . @ X.$ # pXpXpXpXpXpXpXpXpXpXpXpXpXpXpXpXpXpXpXpXpXpXpXpXpXpXpXpXpXpXpXpXpXpXpXpXpXpXpXpXpXpXpXpXpXpXpXpXpXpXpXpXpXpXpXpXpXpXpXpXpXpXpXpXpXpXpXpXpXpXpXpXpXpXpXpXpXpXz.q.r q % o   nX2 @ @ # # # # # # # $ , - $ # # 2 0 2 8 Y o.0 8 1 9 $ @ . . . . , , X pXpXpXpXpXpXpXpXpXpXpXpXpXpXpXpXpXpXpXpXpXpXpXpXpXpXpXpXpXpXpXpXpXpXpXpXpXpXpXpXpXpXpXpXpXpXpXpXpXpXpXpXpXpXpXpXpXpXpXpXpXpXpXpXpXpXpXpXpX",
"pXpXpXpXpXpXpXpXpXpXpXpXpXpXpXpXpXpXpXpXpXpXpXpXpXpXpXpXpXpXpXpXpXpXpXpXpXpXpXpXpXpXpXpXpXpXpXpXpXpXpXpXpXpXpXpXpXu.e.r q % o   nX2 @ @ # # # # # # # $ , - $ # # 2 0 2 8 Y o.0 8 2 9 # @ . . . . , , X pXpXpXpXpXpXpXpXpXpXpXpXpXpXpXpXpXpXpXpXpXpXpXpXpXpXpXpXpXpXpXpXpXpXpXpXpXpXpXpXpXpXpXpXpXpXpXpXpXpXpXpXpXpXpXpXpXpXpXpXpXpXpXpXpXpXpXpXpXpXpXpXpXqXpXpXpX( n t q %     kXX.@ @ # # # # # $ $ - $ $ , , , 1 $ , 0 Y R I 8 , , $ @ @ . . X , @ , @ pXpXpXpXpXpXpXpXpXpXpXpXpXpXpXpXpXpXpXpXpXpXpXpXpXpXpXpXpXpXpXpXpXpXpXpXpXpXpXpXpXpXpXpXpXpXpXpXpXpXpXpXpXpXpXpXpXpXpXpXpXpXpXpXpXpXpXpX",
"pXpXpXpXpXpXpXpXpXpXpXpXpXpXpXpXpXpXpXpXpXpXpXpXpXpXpXpXpXpXpXpXpXpXpXpXpXpXpXpXpXpXpXpXpXpXpXpXpXpXpXpXpXpXpXpXpXl.0.y q %     kXX.@ @ # # # # # - $ - - $ , , , 1 $ , 0 Y R I 8 , - # @ @ . . X , @ , @ pXpXpXpXpXpXpXpXpXpXpXpXpXpXpXpXpXpXpXpXpXpXpXpXpXpXpXpXpXpXpXpXpXpXpXpXpXpXpXpXpXpXpXpXpXpXpXpXpXpXpXpXpXpXpXpXpXpXpXpXpXpXpXpXpXpXpXpXpXpXpXpXpXpXpXpXpXpXc e %     gXgX@ @ @ # @ # # $ # # # # - , $ < < 1 8 1 1 9 L 1 g , @ X @ . . L X $ @ X pXpXpXpXpXpXpXpXpXpXpXpXpXpXpXpXpXpXpXpXpXpXpXpXpXpXpXpXpXpXpXpXpXpXpXpXpXpXpXpXpXpXpXpXpXpXpXpXpXpXpXpXpXpXpXpXpXpXpXpXpXpXpXpXpXpXpX",
"pXpXpXpXpXpXpXpXpXpXpXpXpXpXpXpXpXpXpXpXpXpXpXpXpXpXpXpXpXpXpXpXpXpXpXpXpXpXpXpXpXpXpXpXpXpXpXpXpXpXpXpXpXpXpXpXpXpXaXv e %     gXgX@ @ @ # @ # # $ # # # # - , $ < < 1 8 1 1 0 I 1 g , @ X @ . . L X $ @ X pXpXpXpXpXpXpXpXpXpXpXpXpXpXpXpXpXpXpXpXpXpXpXpXpXpXpXpXpXpXpXpXpXpXpXpXpXpXpXpXpXpXpXpXpXpXpXpXpXpXpXpXpXpXpXpXpXpXpXpXpXpXpXpXpXpXpXpXpXpXpXpXpXpXpXpXi r e %     hXkX@ @ @ # @ # # # # , # # # 2 # , 8 < - 8 1 I 0 Q 8 - @ @ X . @ X . # . . pXpXpXpXpXpXpXpXpXpXpXpXpXpXpXpXpXpXpXpXpXpXpXpXpXpXpXpXpXpXpXpXpXpXpXpXpXpXpXpXpXpXpXpXpXpXpXpXpXpXpXpXpXpXpXpXpXpXpXpXpXpXpXpXpXpXpX",
"pXpXpXpXpXpXpXpXpXpXpXpXpXpXpXpXpXpXpXpXpXpXpXpXpXpXpXpXpXpXpXpXpXpXpXpXpXpXpXpXpXpXpXpXpXpXpXpXpXpXpXpXpXpXpXpXpXpXi y e %     hXkX@ @ @ # @ # # # # , # # # 2 # , 8 < - 8 1 I 0 Q 8 - @ @ X . @ X . # . . pXpXpXpXpXpXpXpXpXpXpXpXpXpXpXpXpXpXpXpXpXpXpXpXpXpXpXpXpXpXpXpXpXpXpXpXpXpXpXpXpXpXpXpXpXpXpXpXpXpXpXpXpXpXpXpXpXpXpXpXpXpXpXpXpXpXpXpXpXpXpXpXpXpXpXyXn b t * o   kXhX$ @ @ @ @ , @ # # - # $ , # $ $ - 0 , , 0 8 ! I kX, , @ @ . . @ . X @   pXpXpXpXpXpXpXpXpXpXpXpXpXpXpXpXpXpXpXpXpXpXpXpXpXpXpXpXpXpXpXpXpXpXpXpXpXpXpXpXpXpXpXpXpXpXpXpXpXpXpXpXpXpXpXpXpXpXpXpXpXpXpXpXpXpXpX",
"pXpXpXpXpXpXpXpXpXpXpXpXpXpXpXpXpXpXpXpXpXpXpXpXpXpXpXpXpXpXpXpXpXpXpXpXpXpXpXpXpXpXpXpXpXpXpXpXpXpXpXpXpXpXpXpXpX5X0.9.y * o   kXhX$ @ @ @ @ , @ # # - # # , # $ $ - 0 , , 0 8 ! I kX, , @ @ . . @ . X @   pXpXpXpXpXpXpXpXpXpXpXpXpXpXpXpXpXpXpXpXpXpXpXpXpXpXpXpXpXpXpXpXpXpXpXpXpXpXpXpXpXpXpXpXpXpXpXpXpXpXpXpXpXpXpXpXpXpXpXpXpXpXpXpXpXpXpXpXpXpXpXpXpXpXpXz.z.v t %   . nXhX$ @ @ @ @ @ @ # # # # @ , # , 2 $ < , < < 9 8 X.kX8 2 , @ O .   . X X . @ pXpXpXpXpXpXpXpXpXpXpXpXpXpXpXpXpXpXpXpXpXpXpXpXpXpXpXpXpXpXpXpXpXpXpXpXpXpXpXpXpXpXpXpXpXpXpXpXpXpXpXpXpXpXpXpXpXpXpXpXpXpXpXpXpXpX",
"pXpXpXpXpXpXpXpXpXpXpXpXpXpXpXpXpXpXpXpXpXpXpXpXpXpXpXpXpXpXpXpXpXpXpXpXpXpXpXpXpXpXpXpXpXpXpXpXpXpXpXpXpXpXpXpXpXx.u.0.y %   . nXhX$ @ O @ @ @ # # # # # @ , # , 2 $ < , < < 9 8 X.kX8 2 , @ O .   . X . . @ pXpXpXpXpXpXpXpXpXpXpXpXpXpXpXpXpXpXpXpXpXpXpXpXpXpXpXpXpXpXpXpXpXpXpXpXpXpXpXpXpXpXpXpXpXpXpXpXpXpXpXpXpXpXpXpXpXpXpXpXpXpXpXpXpXpXpXpXpXpXpXpXpXz.q.z.a e o   kXhX2 1 @ @ X # # # # # @ @ # $ 4 , , , - , 1 < 8 0 ! ! 8 I , $ X   X . # . @   pXpXpXpXpXpXpXpXpXpXpXpXpXpXpXpXpXpXpXpXpXpXpXpXpXpXpXpXpXpXpXpXpXpXpXpXpXpXpXpXpXpXpXpXpXpXpXpXpXpXpXpXpXpXpXpXpXpXpXpXpXpXpXpXpXpX",
"pXpXpXpXpXpXpXpXpXpXpXpXpXpXpXpXpXpXpXpXpXpXpXpXpXpXpXpXpXpXpXpXpXpXpXpXpXpXpXpXpXpXpXpXpXpXpXpXpXpXpXpXpXpXpXpXx.q.u.a e o   zXhX2 1 @ @ X # # # # # @ @ # $ 4 , , , $ , 1 < 8 0 ! ! 8 I , $ X   X . # . @   pXpXpXpXpXpXpXpXpXpXpXpXpXpXpXpXpXpXpXpXpXpXpXpXpXpXpXpXpXpXpXpXpXpXpXpXpXpXpXpXpXpXpXpXpXpXpXpXpXpXpXpXpXpXpXpXpXpXpXpXpXpXpXpXpXpXpXpXpXpXpXpXpX5XI.q.p r &   hXhX8 @ O @ X X # # @ # # # # # $ # $ , 0 - < 8 2 X.0 Y 0 < 1 $ @ . .   . . @   < pXpXpXpXpXpXpXpXpXpXpXpXpXpXpXpXpXpXpXpXpXpXpXpXpXpXpXpXpXpXpXpXpXpXpXpXpXpXpXpXpXpXpXpXpXpXpXpXpXpXpXpXpXpXpXpXpXpXpXpXpXpXpXpXpX",
"pXpXpXpXpXpXpXpXpXpXpXpXpXpXpXpXpXpXpXpXpXpXpXpXpXpXpXpXpXpXpXpXpXpXpXpXpXpXpXpXpXpXpXpXpXpXpXpXpXpXpXpXpXpXpXpXgXH.0.,.r &   hXhX8 @ @ @ X X # # @ # # # # # $ # $ , 0 - < 8 1 X.0 Y 0 < 1 $ @ . .   . . @   < pXpXpXpXpXpXpXpXpXpXpXpXpXpXpXpXpXpXpXpXpXpXpXpXpXpXpXpXpXpXpXpXpXpXpXpXpXpXpXpXpXpXpXpXpXpXpXpXpXpXpXpXpXpXpXpXpXpXpXpXpXpXpXpXpXpXpXpXpXpXpXpXpXz.p a r %   O.kXI @ @ @ X X # # # # - , # , $ $ $ $ 0 , < 8 8 @.0 9 4 < 1 # @ X . . . X @ @ , wXpXpXpXpXpXpXpXpXpXpXpXpXpXpXpXpXpXpXpXpXpXpXpXpXpXpXpXpXpXpXpXpXpXpXpXpXpXpXpXpXpXpXpXpXpXpXpXpXpXpXpXpXpXpXpXpXpXpXpXpXpXpXpXpX",
"pXpXpXpXpXpXpXpXpXpXpXpXpXpXpXpXpXpXpXpXpXpXpXpXpXpXpXpXpXpXpXpXpXpXpXpXpXpXpXpXpXpXpXpXpXpXpXpXpXpXpXpXpXpXpXpXpXz.<.p r %   O.kXI @ @ O X X # # # # - , # , $ $ $ $ 0 , < 8 8 @.0 9 4 < 1 # @ X . . . O @ # , wXpXpXpXpXpXpXpXpXpXpXpXpXpXpXpXpXpXpXpXpXpXpXpXpXpXpXpXpXpXpXpXpXpXpXpXpXpXpXpXpXpXpXpXpXpXpXpXpXpXpXpXpXpXpXpXpXpXpXpXpXpXpXpXpXpXpXpXpXpXpXpXpXx v a r %   ! kXI @ @ X @ X # # @ # @ # # # , # $ , 9 8 < 9 0 X.8 2 2 , - , @ . . . . . @ @ $ . pXpXpXpXpXpXpXpXpXpXpXpXpXpXpXpXpXpXpXpXpXpXpXpXpXpXpXpXpXpXpXpXpXpXpXpXpXpXpXpXpXpXpXpXpXpXpXpXpXpXpXpXpXpXpXpXpXpXpXpXpXpXpXpX",
"pXpXpXpXpXpXpXpXpXpXpXpXpXpXpXpXpXpXpXpXpXpXpXpXpXpXpXpXpXpXpXpXpXpXpXpXpXpXpXpXpXpXpXpXpXpXpXpXpXpXpXpXpXpXpXpXpXm 0.p r %   ! kXI @ @ X @ X # # @ # @ # # # , # $ , 9 9 < 8 0 X.8 1 1 , - , @ . . . . X @ @ $ . pXpXpXpXpXpXpXpXpXpXpXpXpXpXpXpXpXpXpXpXpXpXpXpXpXpXpXpXpXpXpXpXpXpXpXpXpXpXpXpXpXpXpXpXpXpXpXpXpXpXpXpXpXpXpXpXpXpXpXpXpXpXpXpXpXpXpXpXpXpXpXpXpXq.a r %   o.kXW @ @ @ @ X X # # # # # # # $ # , $ , 2 0 < L 0 1 < < < < , @ X . .   . . . .   pXpXpXpXpXpXpXpXpXpXpXpXpXpXpXpXpXpXpXpXpXpXpXpXpXpXpXpXpXpXpXpXpXpXpXpXpXpXpXpXpXpXpXpXpXpXpXpXpXpXpXpXpXpXpXpXpXpXpXpXpXpXpXpX",
"pXpXpXpXpXpXpXpXpXpXpXpXpXpXpXpXpXpXpXpXpXpXpXpXpXpXpXpXpXpXpXpXpXpXpXpXpXpXpXpXpXpXpXpXpXpXpXpXpXpXpXpXpXpXpXpXpXpX0.p r %   o.kXW @ @ O O X X # # # # # # # $ # , $ , 2 0 < L 0 1 < < < < , @ X . . . . . .     pXpXpXpXpXpXpXpXpXpXpXpXpXpXpXpXpXpXpXpXpXpXpXpXpXpXpXpXpXpXpXpXpXpXpXpXpXpXpXpXpXpXpXpXpXpXpXpXpXpXpXpXpXpXpXpXpXpXpXpXpXpXpXpXpXpXpXpXpXpXpXpXpXm a r o   / W L # # @ @ @ X @ # @ # # $ $ # - $ $ < # 2 g 9 0 1 , < 1 < , @ @ . . . . . . . # pXpXpXpXpXpXpXpXpXpXpXpXpXpXpXpXpXpXpXpXpXpXpXpXpXpXpXpXpXpXpXpXpXpXpXpXpXpXpXpXpXpXpXpXpXpXpXpXpXpXpXpXpXpXpXpXpXpXpXpXpXpXpXpX",
"pXpXpXpXpXpXpXpXpXpXpXpXpXpXpXpXpXpXpXpXpXpXpXpXpXpXpXpXpXpXpXpXpXpXpXpXpXpXpXpXpXpXpXpXpXpXpXpXpXpXpXpXpXpXpXpXpXpXq.p r o   ..W L # # @ O O X @ # @ # # $ $ # - $ $ < @ 2 0 0 0 1 , < 1 < , @ O . . . X . . . # pXpXpXpXpXpXpXpXpXpXpXpXpXpXpXpXpXpXpXpXpXpXpXpXpXpXpXpXpXpXpXpXpXpXpXpXpXpXpXpXpXpXpXpXpXpXpXpXpXpXpXpXpXpXpXpXpXpXpXpXpXpXpXpXpXpXpXpXpXpXpXpXpXc r *   ..kXW < @ @ @ @ O X X @ - # # @ , @ # , $ - 8 2 8 Q Y 2 , < < 1 1 - - X     . . . . $ pXpXpXpXpXpXpXpXpXpXpXpXpXpXpXpXpXpXpXpXpXpXpXpXpXpXpXpXpXpXpXpXpXpXpXpXpXpXpXpXpXpXpXpXpXpXpXpXpXpXpXpXpXpXpXpXpXpXpXpXpXpXpXpX",
"pXpXpXpXpXpXpXpXpXpXpXpXpXpXpXpXpXpXpXpXpXpXpXpXpXpXpXpXpXpXpXpXpXpXpXpXpXpXpXpXpXpXpXpXpXpXpXpXpXpXpXpXpXpXpXpXpXpXv r *   ..kXW < @ @ @ @ O X X @ - # # @ , @ # , $ - 8 4 8 ! Y 2 , < < 1 1 - $ X     . . . . # pXpXpXpXpXpXpXpXpXpXpXpXpXpXpXpXpXpXpXpXpXpXpXpXpXpXpXpXpXpXpXpXpXpXpXpXpXpXpXpXpXpXpXpXpXpXpXpXpXpXpXpXpXpXpXpXpXpXpXpXpXpXpXpXpXpXpXpXpXpXpXpXP _ e o   Q nX! 1 @ @ @ @ X O @ # - # # # , - $ - < # 2 2 < 1 8 < , , < < < 1 - @ X . .   . . . pXpXpXpXpXpXpXpXpXpXpXpXpXpXpXpXpXpXpXpXpXpXpXpXpXpXpXpXpXpXpXpXpXpXpXpXpXpXpXpXpXpXpXpXpXpXpXpXpXpXpXpXpXpXpXpXpXpXpXpXpXpXpXpX",
"pXpXpXpXpXpXpXpXpXpXpXpXpXpXpXpXpXpXpXpXpXpXpXpXpXpXpXpXpXpXpXpXpXpXpXpXpXpXpXpXpXpXpXpXpXpXpXpXpXpXpXpXpXpXpXpXpXx z.e o   Q nX! 2 # # @ @ X @ @ # - # # # , - $ - < # 2 2 < 1 8 < , , < < < 1 $ @ X . .   . . . pXpXpXpXpXpXpXpXpXpXpXpXpXpXpXpXpXpXpXpXpXpXpXpXpXpXpXpXpXpXpXpXpXpXpXpXpXpXpXpXpXpXpXpXpXpXpXpXpXpXpXpXpXpXpXpXpXpXpXpXpXpXpXpXpXpXpXpXpXpXpXpXa n e &   Y hXX.1 @ # @ X O O O @ $ # # # $ , , $ 9 - < I 1 , < , $ $ - , < , # X @ .   . X   . pXpXpXpXpXpXpXpXpXpXpXpXpXpXpXpXpXpXpXpXpXpXpXpXpXpXpXpXpXpXpXpXpXpXpXpXpXpXpXpXpXpXpXpXpXpXpXpXpXpXpXpXpXpXpXpXpXpXpXpXpXpXpXpX",
"pXpXpXpXpXpXpXpXpXpXpXpXpXpXpXpXpXpXpXpXpXpXpXpXpXpXpXpXpXpXpXpXpXpXpXpXpXpXpXpXpXpXpXpXpXpXpXpXpXpXpXpXpXpXpXpXqXv 0.e &   Y hXX.1 @ # @ @ @ @ @ @ - # # # $ , , $ 9 $ < I 2 , < , $ - - , < , # X @ .   . X   . pXpXpXpXpXpXpXpXpXpXpXpXpXpXpXpXpXpXpXpXpXpXpXpXpXpXpXpXpXpXpXpXpXpXpXpXpXpXpXpXpXpXpXpXpXpXpXpXpXpXpXpXpXpXpXpXpXpXpXpXpXpXpXpXpXpXpXpXpXpXpXpXx.0.i * . L hXQ 1 @ @ @ @ X X X @ @ # @ # $ # $ $ , $ , 1 0 , , # $ # , , 2 $ X X X . .   @ @ @ @ pXpXpXpXpXpXpXpXpXpXpXpXpXpXpXpXpXpXpXpXpXpXpXpXpXpXpXpXpXpXpXpXpXpXpXpXpXpXpXpXpXpXpXpXpXpXpXpXpXpXpXpXpXpXpXpXpXpXpXpXpXpXpX",
"pXpXpXpXpXpXpXpXpXpXpXpXpXpXpXpXpXpXpXpXpXpXpXpXpXpXpXpXpXpXpXpXpXpXpXpXpXpXpXpXpXpXpXpXpXpXpXpXpXpXpXpXpXpXpXpXqXx.0.a * . L hXQ 1 @ @ @ @ @ X X @ @ # # # $ # - $ , $ , 1 0 , , # $ # , , 2 $ X X X . . . @ @ @ @ pXpXpXpXpXpXpXpXpXpXpXpXpXpXpXpXpXpXpXpXpXpXpXpXpXpXpXpXpXpXpXpXpXpXpXpXpXpXpXpXpXpXpXpXpXpXpXpXpXpXpXpXpXpXpXpXpXpXpXpXpXpXpXpXpXpXpXpXpXpXpXz.k.a *   0 hXo.1 @ X @ @ @ X X @ # @ 2 # # , # - - $ < , $ $ # , # $ $ - $ # @ X . @ 8 . . . .   pXpXpXpXpXpXpXpXpXpXpXpXpXpXpXpXpXpXpXpXpXpXpXpXpXpXpXpXpXpXpXpXpXpXpXpXpXpXpXpXpXpXpXpXpXpXpXpXpXpXpXpXpXpXpXpXpXpXpXpXpXpXpX",
"pXpXpXpXpXpXpXpXpXpXpXpXpXpXpXpXpXpXpXpXpXpXpXpXpXpXpXpXpXpXpXpXpXpXpXpXpXpXpXpXpXpXpXpXpXpXpXpXpXpXpXpXpXpXpXpXpXx.t.p *   0 hXo.1 @ X @ @ @ X X @ # # 2 # # , # $ $ $ < , $ $ # , # $ $ - $ # @ X . @ 8 . X . .   pXpXpXpXpXpXpXpXpXpXpXpXpXpXpXpXpXpXpXpXpXpXpXpXpXpXpXpXpXpXpXpXpXpXpXpXpXpXpXpXpXpXpXpXpXpXpXpXpXpXpXpXpXpXpXpXpXpXpXpXpXpXpXpXpXpXpXpXpXpXpXq.n t   0 kXkXX.0 @ X @ @ @ @ @ @ @ # # < $ < 2 < $ , , < , # $ - $ # - - # # @ @ O . . O X . . . . X pXpXpXpXpXpXpXpXpXpXpXpXpXpXpXpXpXpXpXpXpXpXpXpXpXpXpXpXpXpXpXpXpXpXpXpXpXpXpXpXpXpXpXpXpXpXpXpXpXpXpXpXpXpXpXpXpXpXpXpXpX",
"pXpXpXpXpXpXpXpXpXpXpXpXpXpXpXpXpXpXpXpXpXpXpXpXpXpXpXpXpXpXpXpXpXpXpXpXpXpXpXpXpXpXpXpXpXpXpXpXpXpXpXpXpXpXpXpXpXe.0.t   0 hXkXX.0 @ O @ @ @ @ @ @ @ # # < $ < 2 < $ , , < , # $ - $ # - - # # @ @ X . . @ X . . . . X pXpXpXpXpXpXpXpXpXpXpXpXpXpXpXpXpXpXpXpXpXpXpXpXpXpXpXpXpXpXpXpXpXpXpXpXpXpXpXpXpXpXpXpXpXpXpXpXpXpXpXpXpXpXpXpXpXpXpXpXpXpXpXpXpXpXpXpXpXx.z.i   8 @.X.8 @ X @ @ @ @ @ X @ @ # # # < # 2 - # , 2 # , $ # # # $ - - # @ @ @ X . . . X 8   . . . . pXpXpXpXpXpXpXpXpXpXpXpXpXpXpXpXpXpXpXpXpXpXpXpXpXpXpXpXpXpXpXpXpXpXpXpXpXpXpXpXpXpXpXpXpXpXpXpXpXpXpXpXpXpXpXpXpXpXpXpX",
"pXpXpXpXpXpXpXpXpXpXpXpXpXpXpXpXpXpXpXpXpXpXpXpXpXpXpXpXpXpXpXpXpXpXpXpXpXpXpXpXpXpXpXpXpXpXpXpXpXpXpXpXpXpXpXpXpXm.u.a   8 b.X.8 @ X @ @ @ @ @ X O @ @ # # < # 2 - # , 2 # , $ # # # $ - - # @ @ @ X . . X X 8   . . . . pXpXpXpXpXpXpXpXpXpXpXpXpXpXpXpXpXpXpXpXpXpXpXpXpXpXpXpXpXpXpXpXpXpXpXpXpXpXpXpXpXpXpXpXpXpXpXpXpXpXpXpXpXpXpXpXpXpXpXpXpXpXpXpXpXpXpXpXpXU.z.> 8 b.o.2 @ X X @ @ @ X O @ @ < # @ , - < , - $ # @ # # # # $ # - $ $ @ @ @ @ X . . . X .   . . . . pXpXpXpXpXpXpXpXpXpXpXpXpXpXpXpXpXpXpXpXpXpXpXpXpXpXpXpXpXpXpXpXpXpXpXpXpXpXpXpXpXpXpXpXpXpXpXpXpXpXpXpXpXpXpXpXpXpXpX",
"pXpXpXpXpXpXpXpXpXpXpXpXpXpXpXpXpXpXpXpXpXpXpXpXpXpXpXpXpXpXpXpXpXpXpXpXpXpXpXpXpXpXpXpXpXpXpXpXpXpXpXpXpXpXpXpXpXpX^.x.> 8 OXo.2 @ X O @ @ @ X O X O < @ @ , $ 1 , - $ # # # # @ # $ # - $ $ @ @ @ @ X . . . X .   . . . . pXpXpXpXpXpXpXpXpXpXpXpXpXpXpXpXpXpXpXpXpXpXpXpXpXpXpXpXpXpXpXpXpXpXpXpXpXpXpXpXpXpXpXpXpXpXpXpXpXpXpXpXpXpXpXpXpXpXpXpXpXpXpXpXpXpXpXpXAXJX# 2 gXX.9 # @ X # @ @ @ O X @ # # # # - - < $ @ # @ @ @ # # # # # $ # # @ @ @ @ X . . X @     . .     pXpXpXpXpXpXpXpXpXpXpXpXpXpXpXpXpXpXpXpXpXpXpXpXpXpXpXpXpXpXpXpXpXpXpXpXpXpXpXpXpXpXpXpXpXpXpXpXpXpXpXpXpXpXpXpXpXpX",
"pXpXpXpXpXpXpXpXpXpXpXpXpXpXpXpXpXpXpXpXpXpXpXpXpXpXpXpXpXpXpXpXpXpXpXpXpXpXpXpXpXpXpXpXpXpXpXpXpXpXpXpXpXpXpXpXpXpXSXJX# 2 gXX.9 # @ X # @ @ @ @ X @ @ @ # # $ - < $ @ # @ @ @ @ # # # # $ # # @ @ @ @ X . . X @     . .     pXpXpXpXpXpXpXpXpXpXpXpXpXpXpXpXpXpXpXpXpXpXpXpXpXpXpXpXpXpXpXpXpXpXpXpXpXpXpXpXpXpXpXpXpXpXpXpXpXpXpXpXpXpXpXpXpXpXpXpXpXpXpXpXpXpXpXxXLX@ 4 @.X.0 # @ X @ # @ @ @ O @ @ @ # $ $ < 2 @ @ @ @ @ @ @ @ @ # $ < , $ @ @ # @ X . . X . .     . . X X pXpXpXpXpXpXpXpXpXpXpXpXpXpXpXpXpXpXpXpXpXpXpXpXpXpXpXpXpXpXpXpXpXpXpXpXpXpXpXpXpXpXpXpXpXpXpXpXpXpXpXpXpXpXpXpXpX",
"pXpXpXpXpXpXpXpXpXpXpXpXpXpXpXpXpXpXpXpXpXpXpXpXpXpXpXpXpXpXpXpXpXpXpXpXpXpXpXpXpXpXpXpXpXpXpXpXpXpXpXpXpXpXpXpXpXpX/.LX@ 4 @.X.0 @ @ X @ @ @ @ @ @ @ X @ # $ $ < 1 @ @ @ @ @ @ @ @ @ # $ < , $ @ @ # @ X . . X .       . . X X pXpXpXpXpXpXpXpXpXpXpXpXpXpXpXpXpXpXpXpXpXpXpXpXpXpXpXpXpXpXpXpXpXpXpXpXpXpXpXpXpXpXpXpXpXpXpXpXpXpXpXpXpXpXpXpXpXpXpXpXpXpXpXpXpXpXL.LX@ 4 gXX.8 @ @ X X @ # @ O O @ O @ O @ $ , # @ @ X @ @ @ @ @ @ @ $ $ 1 < , @ @ @ @ . . . . . .   . . .     pXpXpXpXpXpXpXpXpXpXpXpXpXpXpXpXpXpXpXpXpXpXpXpXpXpXpXpXpXpXpXpXpXpXpXpXpXpXpXpXpXpXpXpXpXpXpXpXpXpXpXpXpXpXpXpX",
"pXpXpXpXpXpXpXpXpXpXpXpXpXpXpXpXpXpXpXpXpXpXpXpXpXpXpXpXpXpXpXpXpXpXpXpXpXpXpXpXpXpXpXpXpXpXpXpXpXpXpXpXpXpXpXpXpXpXI.LX@ 4 gXX.8 @ @ X X @ @ O @ @ @ O @ X @ $ , @ @ @ @ @ @ @ @ @ @ @ $ $ 1 < , @ @ @ @ . . . . . .   . . .     pXpXpXpXpXpXpXpXpXpXpXpXpXpXpXpXpXpXpXpXpXpXpXpXpXpXpXpXpXpXpXpXpXpXpXpXpXpXpXpXpXpXpXpXpXpXpXpXpXpXpXpXpXpXpXpXpXpXpXpXpXpXpXpXJ.LX$ , < OX8 # O X X @ # @ @ @ O O O X O @ $ @ @ @ @ @ @ @ X @ @ @ @ @ # , 1 , $ $ @ $ # @ . . . . @   . @ @ # @ pXpXpXpXpXpXpXpXpXpXpXpXpXpXpXpXpXpXpXpXpXpXpXpXpXpXpXpXpXpXpXpXpXpXpXpXpXpXpXpXpXpXpXpXpXpXpXpXpXpXpXpXpXpXpX",
"pXpXpXpXpXpXpXpXpXpXpXpXpXpXpXpXpXpXpXpXpXpXpXpXpXpXpXpXpXpXpXpXpXpXpXpXpXpXpXpXpXpXpXpXpXpXpXpXpXpXpXpXpXpXpXpXpXL.LX# , < b.8 # O X O @ # @ @ @ @ @ @ X X @ $ @ @ @ @ @ @ @ @ @ @ @ @ @ # , 1 , $ $ @ $ # @ . . . . @   . @ @ # @ pXpXpXpXpXpXpXpXpXpXpXpXpXpXpXpXpXpXpXpXpXpXpXpXpXpXpXpXpXpXpXpXpXpXpXpXpXpXpXpXpXpXpXpXpXpXpXpXpXpXpXpXpXpXpXpXpXpXpXpXpXpXpXv.LX< , gXX.0 # O X @ $ # @ @ @ @ O X X X O O @ @ X @ @ @ @ @ @ X @ @ @ @ # $ , < $ # , 0 1 O . . . .   . @ @ X @ pXpXpXpXpXpXpXpXpXpXpXpXpXpXpXpXpXpXpXpXpXpXpXpXpXpXpXpXpXpXpXpXpXpXpXpXpXpXpXpXpXpXpXpXpXpXpXpXpXpXpXpXpXpXpX",
"pXpXpXpXpXpXpXpXpXpXpXpXpXpXpXpXpXpXpXpXpXpXpXpXpXpXpXpXpXpXpXpXpXpXpXpXpXpXpXpXpXpXpXpXpXpXpXpXpXpXpXpXqXpXpXpXpXJ.LX: , gXX.0 # X X @ $ @ @ @ @ @ @ X @ O @ @ @ O X @ @ @ @ @ @ X @ @ @ @ # $ , < $ # , 0 1 O . . . .   . @ @ X @ pXpXpXpXpXpXpXpXpXpXpXpXpXpXpXpXpXpXpXpXpXpXpXpXpXpXpXpXpXpXpXpXpXpXpXpXpXpXpXpXpXpXpXpXpXpXpXpXpXpXpXpXpXpXpXpXpXpXpXpXpXpXpX+.AXl , @.o.0 @ @ X @ $ # # @ @ @ @ @ X X O @ @ @ @ @ @ @ @ @ @ @ @ @ @ @ @ @ , < $ # # , 1 O . . .   . X . # X X @ pXpXpXpXpXpXpXpXpXpXpXpXpXpXpXpXpXpXpXpXpXpXpXpXpXpXpXpXpXpXpXpXpXpXpXpXpXpXpXpXpXpXpXpXpXpXpXpXpXpXpXpXpXpX",
"pXpXpXpXpXpXpXpXpXpXpXpXpXpXpXpXpXpXpXpXpXpXpXpXpXpXpXpXpXpXpXpXpXpXpXpXpXpXpXpXpXpXpXpXpXpXpXpXpXpXpXpXpXpXpXpXpXv.AXk < @.o.0 @ @ X @ $ # # @ @ @ @ @ X @ @ @ @ @ @ @ @ @ @ O X O X O @ @ @ # , < # @ # , 1 O . . .   . X . # X X @ pXpXpXpXpXpXpXpXpXpXpXpXpXpXpXpXpXpXpXpXpXpXpXpXpXpXpXpXpXpXpXpXpXpXpXpXpXpXpXpXpXpXpXpXpXpXpXpXpXpXpXpXpXpXpXpXpXpXpXpXpXpXo.xX_ - X.X.L @ @ X O # , @ @ @ @ @ @ @ @ @ @ X X X @ @ @ @ @ @ @ @ @ @ @ @ @ $ , # # # $ 4 # @ . .       X @ $ @ X @ pXpXpXpXpXpXpXpXpXpXpXpXpXpXpXpXpXpXpXpXpXpXpXpXpXpXpXpXpXpXpXpXpXpXpXpXpXpXpXpXpXpXpXpXpXpXpXpXpXpXpXpXpX",
"pXpXpXpXpXpXpXpXpXpXpXpXpXpXpXpXpXpXpXpXpXpXpXpXpXpXpXpXpXpXpXpXpXpXpXpXpXpXpXpXpXpXpXpXpXpXpXpXpXpXpXpXpXpXpXpXpXO.xXz.- o...L @ @ O @ # , @ @ @ @ @ @ @ @ @ @ X X X @ @ @ @ @ X X @ @ @ @ @ @ $ , # @ # $ 4 # @ . .       X @ $ @ X @ pXpXpXpXpXpXpXpXpXpXpXpXpXpXpXpXpXpXpXpXpXpXpXpXpXpXpXpXpXpXpXpXpXpXpXpXpXpXpXpXpXpXpXpXpXpXpXpXpXpXpXpXpXpXpXpXpXpXpXpXpX' jXxX, X...I @ @ X X , , @ @ @ @ @ @ @ X @ X @ @ @ X @ @ @ X @ @ @ @ @ @ @ @ # # @ # # # @ @ X X @ .   . X # # . X @ pXpXpXpXpXpXpXpXpXpXpXpXpXpXpXpXpXpXpXpXpXpXpXpXpXpXpXpXpXpXpXpXpXpXpXpXpXpXpXpXpXpXpXpXpXpXpXpXpXpXpXpXpX",
"pXpXpXpXpXpXpXpXpXpXpXpXpXpXpXpXpXpXpXpXpXpXpXpXpXpXpXpXpXpXpXpXpXpXpXpXpXpXpXpXpXpXpXpXpXpXpXpXpXpXpXpXpXpXpXpXpX..U.cX; X...I @ @ X X , , @ @ @ @ @ @ @ X @ X @ @ @ X @ @ @ X @ @ @ @ @ @ @ @ # # # # # # @ @ X X @ .   . X # # . X @ pXpXpXpXpXpXpXpXpXpXpXpXpXpXpXpXpXpXpXpXpXpXpXpXpXpXpXpXpXpXpXpXpXpXpXpXpXpXpXpXpXpXpXpXpXpXpXpXpXpXpXpXpXpXpXpXpXpXpXpXpXJ.AX# $ X.X.L @ @ X O # $ @ @ @ @ @ @ @ X X @ @ @ X X X X X @ X @ @ @ @ @ # @ @ # # @ # # @ @ @ 2 # . . X X X . . . @ pXpXpXpXpXpXpXpXpXpXpXpXpXpXpXpXpXpXpXpXpXpXpXpXpXpXpXpXpXpXpXpXpXpXpXpXpXpXpXpXpXpXpXpXpXpXpXpXpXpXpXpXpX",
"pXpXpXpXpXpXpXpXpXpXpXpXpXpXpXpXpXpXpXpXpXpXpXpXpXpXpXpXpXpXpXpXpXpXpXpXpXpXpXpXpXpXpXpXpXpXpXpXpXpXpXpXpXpXpXpXpXI.AX# $ X.X.L @ @ X @ # $ @ @ @ @ @ @ @ X X @ O @ X X @ @ X @ X @ @ @ @ @ # @ @ # # @ # # @ @ @ 2 # . . X X X X . . @ pXpXpXpXpXpXpXpXpXpXpXpXpXpXpXpXpXpXpXpXpXpXpXpXpXpXpXpXpXpXpXpXpXpXpXpXpXpXpXpXpXpXpXpXpXpXpXpXpXpXpXpXpXpXpXpXpXpXpXpX{.+.LX# X...0 @ X O . X # $ # @ @ @ @ O @ X @ X X @ X X X X X X X @ @ @ @ @ @ # @ # $ # # $ @ X @ # < X . # , < $ X . @ pXpXpXpXpXpXpXpXpXpXpXpXpXpXpXpXpXpXpXpXpXpXpXpXpXpXpXpXpXpXpXpXpXpXpXpXpXpXpXpXpXpXpXpXpXpXpXpXpXpXpXpXpX",
"pXpXpXpXpXpXpXpXpXpXpXpXpXpXpXpXpXpXpXpXpXpXpXpXpXpXpXpXpXpXpXpXpXpXpXpXpXpXpXpXpXpXpXpXpXpXpXpXpXpXpXpXpXpXpXpX{.v.LX# X...0 @ X @ . X # $ # @ @ @ @ @ @ X O X X @ X X X @ X X X @ @ @ @ @ @ # # # $ # # $ @ X @ # , X . # , < $ . X @ pXpXpXpXpXpXpXpXpXpXpXpXpXpXpXpXpXpXpXpXpXpXpXpXpXpXpXpXpXpXpXpXpXpXpXpXpXpXpXpXpXpXpXpXpXpXpXpXpXpXpXpXpXpXpXpXpXpXpXpXpXJ.PX; ! o.L @ @ & X @ $ < $ @ @ @ @ @ O X O X X X X X X X X @ X X @ O @ @ @ $ , $ , < $ # @ X X X . @ @ < @ # $ X X @ pXpXpXpXpXpXpXpXpXpXpXpXpXpXpXpXpXpXpXpXpXpXpXpXpXpXpXpXpXpXpXpXpXpXpXpXpXpXpXpXpXpXpXpXpXpXpXpXpXpXpXpXpX",
"pXpXpXpXpXpXpXpXpXpXpXpXpXpXpXpXpXpXpXpXpXpXpXpXpXpXpXpXpXpXpXpXpXpXpXpXpXpXpXpXpXpXpXpXpXpXpXpXpXpXpXpXpXpXpXpXpXL.PX; ! o.L @ @ & X @ $ < $ # @ @ @ @ @ X @ X X X X X X X X @ X X @ O @ @ @ $ , $ , < $ # @ X X X . @ @ < @ # # X X @ pXpXpXpXpXpXpXpXpXpXpXpXpXpXpXpXpXpXpXpXpXpXpXpXpXpXpXpXpXpXpXpXpXpXpXpXpXpXpXpXpXpXpXpXpXpXpXpXpXpXpXpXpXpXpXpXpXpXpXpXpX+.LXx Y X.L # @ X X @ $ , , # @ @ @ @ @ O O X @ @ X @ X @ X @ @ X @ @ @ @ @ @ # # # @ $ # @ X X X . . . . @ @ $ @ @ # pXpXpXpXpXpXpXpXpXpXpXpXpXpXpXpXpXpXpXpXpXpXpXpXpXpXpXpXpXpXpXpXpXpXpXpXpXpXpXpXpXpXpXpXpXpXpXpXpXpXpXpXpX",
"pXpXpXpXpXpXpXpXpXpXpXpXpXpXpXpXpXpXpXpXpXpXpXpXpXpXpXpXpXpXpXpXpXpXpXpXpXpXpXpXpXpXpXpXpXpXpXpXpXpXpXpXpXpXpXpXpXv.LXx T X.L # @ X X @ $ , < # @ @ @ @ @ @ @ X X @ X @ @ @ X @ @ X @ @ @ @ @ @ # # # @ $ # @ X X X . . . . @ @ $ @ @ # pXpXpXpXpXpXpXpXpXpXpXpXpXpXpXpXpXpXpXpXpXpXpXpXpXpXpXpXpXpXpXpXpXpXpXpXpXpXpXpXpXpXpXpXpXpXpXpXpXpXpXpXpXpXpXpXpXpXpXpXpX+.LX+.1 / Y # @ X X @ @ , < $ # @ @ @ @ X X X X X X X X X X X @ @ X X @ @ @ # # # @ # # $ @ X . . . . . . X @ @ X O , @ pXpXpXpXpXpXpXpXpXpXpXpXpXpXpXpXpXpXpXpXpXpXpXpXpXpXpXpXpXpXpXpXpXpXpXpXpXpXpXpXpXpXpXpXpXpXpXpXpXpXpXpX",
"pXpXpXpXpXpXpXpXpXpXpXpXpXpXpXpXpXpXpXpXpXpXpXpXpXpXpXpXpXpXpXpXpXpXpXpXpXpXpXpXpXpXpXpXpXpXpXpXpXpXpXpXpXpXpXpXpXJ.LXv.2 ! Y # @ X X @ @ , < $ # @ @ @ @ X X X X X X X X X X X @ @ @ @ @ @ @ @ # # @ # # $ @ X . . . . . . O @ @ X O , @ pXpXpXpXpXpXpXpXpXpXpXpXpXpXpXpXpXpXpXpXpXpXpXpXpXpXpXpXpXpXpXpXpXpXpXpXpXpXpXpXpXpXpXpXpXpXpXpXpXpXpXpXpXpXpXpXpXpXpXpX+.SXcXO 9 L # @ X X @ $ @ 1 , # # @ @ @ @ X @ X X X X @ X X X @ @ @ X @ @ @ @ # # # # # @ X X . .   . . X . X @ O O     pXpXpXpXpXpXpXpXpXpXpXpXpXpXpXpXpXpXpXpXpXpXpXpXpXpXpXpXpXpXpXpXpXpXpXpXpXpXpXpXpXpXpXpXpXpXpXpXpXpXpXpX",
"pXpXpXpXpXpXpXpXpXpXpXpXpXpXpXpXpXpXpXpXpXpXpXpXpXpXpXpXpXpXpXpXpXpXpXpXpXpXpXpXpXpXpXpXpXpXpXpXpXpXpXpXpXpXpXpXpX` SXcXO 9 L # @ X X @ $ @ 1 , # # @ @ @ @ X @ X X X X O X X X @ @ @ @ @ @ @ @ # # # # # @ X X . .   . . X . X @ X X     pXpXpXpXpXpXpXpXpXpXpXpXpXpXpXpXpXpXpXpXpXpXpXpXpXpXpXpXpXpXpXpXpXpXpXpXpXpXpXpXpXpXpXpXpXpXpXpXpXpXpXpXpXpXpXpXpXpXpXv.L.xXBXk 1 # @ @ . . X @ @ 4 < # # # @ @ @ @ @ X X X X X @ X X @ @ @ @ @ @ @ @ @ @ @ # # O X . . . . . . . . . X @ # @ # pXpXpXpXpXpXpXpXpXpXpXpXpXpXpXpXpXpXpXpXpXpXpXpXpXpXpXpXpXpXpXpXpXpXpXpXpXpXpXpXpXpXpXpXpXpXpXpXpXpXpXpX",
"pXpXpXpXpXpXpXpXpXpXpXpXpXpXpXpXpXpXpXpXpXpXpXpXpXpXpXpXpXpXpXpXpXpXpXpXpXpXpXpXpXpXpXpXpXpXpXpXpXpXpXpXpXpXpXpXv.L.xXBXj 1 # O @ . . X @ @ 4 < # # @ @ @ @ @ @ X X X X X O X X @ @ @ @ @ @ @ @ @ # @ # # O X X . . . . . . X X X O # @ # pXpXpXpXpXpXpXpXpXpXpXpXpXpXpXpXpXpXpXpXpXpXpXpXpXpXpXpXpXpXpXpXpXpXpXpXpXpXpXpXpXpXpXpXpXpXpXpXpXpXpXpXpXpXpXpXpXpXpXJ.v.MX` ) K.jXlX+ + : 6 5 @ < @ X X . @ @ @ @ X @ X X X X X @ X X X @ @ @ @ @ @ # @ @ # @ @ X X . . . .   X . . X . O X @ pXpXpXpXpXpXpXpXpXpXpXpXpXpXpXpXpXpXpXpXpXpXpXpXpXpXpXpXpXpXpXpXpXpXpXpXpXpXpXpXpXpXpXpXpXpXpXpXpXpXpXpX",
"pXpXpXpXpXpXpXpXpXpXpXpXpXpXpXpXpXpXpXpXpXpXpXpXpXpXpXpXpXpXpXpXpXpXpXpXpXpXpXpXpXpXpXpXpXpXpXpXpXpXpXpXpXpXpXpXK.v.MX` ) K.P.lX+ + : 6 5 @ < @ X X . @ @ @ @ X @ X X X X X @ X X X @ @ @ @ @ @ # # @ # @ @ O X . . . .   X X X X . X X @ pXpXpXpXpXpXpXpXpXpXpXpXpXpXpXpXpXpXpXpXpXpXpXpXpXpXpXpXpXpXpXpXpXpXpXpXpXpXpXpXpXpXpXpXpXpXpXpXpXpXpXpXpXpXpXpXpXpXpXpXpXpXpXpXpXpXpXpXpXpXpXpXpXpXpXpXpXpXpXpXpXpXpXpXpXpXpXpXpXpXpXpXpXpXpXpXpXpXpXpXpXpXpXpXpXpXpXpXpXpXpXpXpXpXpXpXpXpXpXpXpXpXpXpXpXpXpXpXpXpXpXpXpXpXpXpXpXpXpXpXpXpXpXpXpXpXpXpXpXpXpXpXpXpXpXpXpXpXpXpXpXpXpXpXpXpXpXpXpXpXpXpX"
};
