/* XPM */
static char *_be81108e09340b6d5832b84ea8d2163CWQhPWFnqL2Ri8f1[] = {
/* columns rows colors chars-per-pixel */
"300 168 256 2 ",
"   c #51342D",
".  c #582D22",
"X  c #704B3B",
"o  c #544338",
"O  c #0A4B79",
"+  c #265970",
"@  c #75544D",
"#  c #5B5C68",
"$  c #3F3432",
"%  c #85503B",
"&  c #87554C",
"*  c #8C6655",
"=  c #906F69",
"-  c #A87666",
";  c #A45C45",
":  c #B48774",
">  c #908C7C",
",  c #CC9377",
"<  c #D0916F",
"1  c #0A4D84",
"2  c #06578B",
"3  c #055C93",
"4  c #0B5E94",
"5  c #085C99",
"6  c #12558D",
"7  c #0C6195",
"8  c #04639C",
"9  c #0C649B",
"0  c #07689A",
"q  c #12649B",
"w  c #156799",
"e  c #04759B",
"r  c #11668F",
"t  c #286E97",
"y  c #0C66A2",
"u  c #036CA3",
"i  c #0B6AA4",
"p  c #076BA9",
"a  c #1369A4",
"s  c #0273A4",
"d  c #017AA5",
"f  c #0374AB",
"g  c #037BAC",
"h  c #0B77AA",
"j  c #1675A9",
"k  c #096DB4",
"l  c #0474B2",
"z  c #0A74B4",
"x  c #037BB4",
"c  c #0A7CB4",
"v  c #037DBA",
"b  c #0A79B9",
"n  c #147AB6",
"m  c #1269B7",
"M  c #2779AD",
"N  c #165C9E",
"B  c #5A7892",
"V  c #0E7BC4",
"C  c #427FC2",
"Z  c #0483AC",
"A  c #0C84BB",
"S  c #0785B8",
"D  c #1384BC",
"F  c #148ABD",
"G  c #1886B9",
"H  c #0794BC",
"J  c #1690B4",
"K  c #2786B9",
"L  c #328CB5",
"P  c #0E859B",
"I  c #4E8DB5",
"U  c #6E8F9C",
"Y  c #0989C4",
"T  c #148BC2",
"R  c #1A8CC3",
"E  c #1689C6",
"W  c #0897C7",
"Q  c #1C93CB",
"!  c #1696C8",
"~  c #199BD3",
"^  c #0897D3",
"/  c #258CC5",
"(  c #2393CB",
")  c #2997C9",
"_  c #3798C8",
"`  c #279AD4",
"'  c #3695CE",
"]  c #0BA6D5",
"[  c #19A6D7",
"{  c #19B4DC",
"}  c #0EA7CE",
"|  c #25A6D9",
" . c #37A6D9",
".. c #27B6DB",
"X. c #35ADD1",
"o. c #1AB8E5",
"O. c #12B1E8",
"+. c #27ACE3",
"@. c #38ACE5",
"#. c #2DBDEC",
"$. c #29B7E6",
"%. c #33B6E6",
"&. c #34B5EB",
"*. c #3CB6EB",
"=. c #36B9ED",
"-. c #3CBBED",
";. c #3AB8E4",
":. c #34BBF2",
">. c #3BBBF2",
",. c #38B7F5",
"<. c #2AB8F3",
"1. c #0C9BE1",
"2. c #4898CA",
"3. c #47A8D7",
"4. c #56A9D8",
"5. c #48B6DA",
"6. c #58B6DB",
"7. c #4CA7CB",
"8. c #6CB4D8",
"9. c #43BEEB",
"0. c #4ABDEB",
"q. c #46B8E6",
"w. c #57BAE6",
"e. c #45BAF4",
"r. c #4EB1EA",
"t. c #67B8E5",
"y. c #6CB3E9",
"u. c #549CE3",
"i. c #2BC2EB",
"p. c #37C4EB",
"a. c #39C4F4",
"s. c #32CBF4",
"d. c #24C3E5",
"f. c #53C7DC",
"g. c #6FCADA",
"h. c #46C1EB",
"j. c #4CC2EB",
"k. c #48C6E7",
"l. c #53C5EB",
"z. c #59C6EB",
"x. c #5AC6EB",
"c. c #5CC9EB",
"v. c #58C6E6",
"b. c #46C6F5",
"n. c #58C7F5",
"m. c #49D6F6",
"M. c #56DAF5",
"N. c #51D6EC",
"B. c #63CBEA",
"V. c #6BCEEA",
"C. c #67C8E7",
"Z. c #76CCE9",
"A. c #6DD1EB",
"S. c #69D2E7",
"D. c #7BD4E6",
"F. c #73D2EA",
"G. c #7BD5EA",
"H. c #76D5E6",
"J. c #67C9F5",
"K. c #76CEFE",
"L. c #77C9F4",
"P. c #68D5F8",
"I. c #78D6F9",
"U. c #73E3FC",
"Y. c #58E2F5",
"T. c #A09A9A",
"R. c #CB9887",
"E. c #D1A390",
"W. c #94BAC8",
"Q. c #8DD4DB",
"!. c #84CBEA",
"~. c #8CDBE6",
"^. c #82D6EA",
"/. c #84D9EA",
"(. c #8CDBE9",
"). c #86D7E6",
"_. c #93DEE6",
"`. c #93DEE9",
"'. c #99DBE8",
"]. c #83CCF4",
"[. c #87D8F8",
"{. c #9AD8F8",
"}. c #97CCF1",
"|. c #A5DBE8",
" X c #A4DAFC",
".X c #ACDCFC",
"XX c #A6D8F7",
"oX c #B2DEFC",
"OX c #B6DCF7",
"+X c #B1D6EC",
"@X c #96E0E6",
"#X c #9CE2E6",
"$X c #95E1EA",
"%X c #9CE2E9",
"&X c #9AE9ED",
"*X c #88E3FB",
"=X c #9AE3F7",
"-X c #92EAED",
";X c #A4E4E6",
":X c #AAE6E6",
">X c #ACE9E6",
",X c #A3E4E9",
"<X c #ABE6E9",
"1X c #ADE9E9",
"2X c #A4E9E8",
"3X c #B3EBE6",
"4X c #BBEEE6",
"5X c #B4ECE9",
"6X c #BAEDE9",
"7X c #B6E4E9",
"8X c #BDF0E6",
"9X c #BBF1E9",
"0X c #A5E3FE",
"qX c #ABE3FE",
"wX c #AAE8F9",
"eX c #B3E3FD",
"rX c #BCE4FD",
"tX c #BCEAFD",
"yX c #B7E6F5",
"uX c #BAF3FB",
"iX c #A8F3FC",
"pX c #AEDEDA",
"aX c #C9F8DE",
"sX c #D5F7DE",
"dX c #C7DCF4",
"fX c #C3ECE7",
"gX c #C3F2E5",
"hX c #CBF4E5",
"jX c #C5F3E9",
"kX c #CBF6EA",
"lX c #D2F6E5",
"zX c #D4F9E5",
"xX c #D8F8E8",
"cX c #C3E5FC",
"vX c #C4EAFE",
"bX c #CBECFD",
"nX c #C7E8F6",
"mX c #D7ECFA",
"MX c #C9F5FA",
"NX c #D4F3FD",
"BX c #DBF4FD",
"VX c #DCFBFE",
"CX c #D6F7F8",
"ZX c #D7EBEB",
"AX c #E5EDF9",
"SX c #E3F4FD",
"DX c #E3FBFE",
"FX c #ECFCFE",
"GX c #E9F6F7",
"HX c #F4FDFE",
"JX c #FCFCFD",
"KX c #F9F7F7",
"LX c #EFF4EB",
"PX c #DEDFD5",
"IX c #CFC6BD",
"UX c #848076",
/* pixels */
"=.=.=.=.=.=.=.=.=.=.=.=.=.=.=.=.=.=.=.=.=.=.=.=.=.=.=.=.=.=.=.=.=.=.=.=.=.=.=.=.=.=.=.=.=.=.=.=.=.=.=.=.=.=.=.=.=.=.=.=.=.=.=.=.=.=.=.=.=.=.=.=.=.=.=.=.=.=.=.=.=.=.=.=.=.=.=.=.=.=.=.=.=.=.=.=.&.=.=.=.=.=.=.=.=.=.=.=.=.=.=.=.=.=.=.-.-.-.=.=.-.-.-.-.-.-.-.-.-.-.-.-.-.-.-.-.-.-.-.-.-.-.-.-.-.-.-.-.9.-.-.-.-.-.-.-.-.-.-.-.-.-.-.-.-.-.-.-.=.=.=.=.=.=.=.-.=.=.=.=.=.=.=.=.=.=.=.=.=.=.=.&.=.=.=.=.=.=.=.=.=.=.=.=.=.=.=.=.=.=.=.=.=.=.=.=.=.=.=.=.=.=.=.=.=.=.=.=.=.=.=.=.=.=.=.=.=.=.=.=.=.=.=.=.=.=.=.=.=.=.=.=.=.=.=.=.=.=.=.=.=.=.=.=.=.=.=.=.=.=.=.=.=.=.=.=.=.=.=.=.=.=.=.=.=.=.=.=.=.=.=.=.=.=.=.=.*.#.%.K.",
"=.=.=.=.=.=.=.=.=.=.=.=.=.=.=.=.=.=.=.=.=.=.=.=.=.=.=.=.=.=.=.=.=.=.=.=.=.=.=.=.=.=.=.=.=.=.=.=.=.=.=.=.=.=.=.=.=.=.=.=.=.=.=.=.=.=.=.=.=.=.=.=.=.=.=.=.=.=.=.=.=.=.=.=.=.=.=.=.=.=.=.=.=.=.=.=.=.=.=.=.=.=.=.=.=.=.=.=.=.=.=.=.=.=.=.-.-.-.-.-.9.9.9.9.9.9.9.-.-.-.-.-.-.-.-.-.9.9.9.9.9.9.9.9.9.9.9.9.9.9.9.9.-.-.-.-.-.-.-.-.9.9.9.-.-.-.-.-.=.=.=.=.=.=.=.=.=.=.=.=.=.=.=.=.=.=.=.=.=.=.=.=.=.=.=.=.=.=.=.=.=.=.=.=.=.=.=.=.=.=.=.=.=.=.=.=.=.=.=.=.=.=.=.=.=.=.=.=.=.=.=.=.=.=.=.=.=.=.=.=.=.=.=.=.=.=.=.=.=.=.=.=.=.=.=.=.=.=.=.=.=.=.=.=.=.=.=.=.=.=.=.=.=.=.=.=.=.=.=.=.=.=.=.=.=.=.=.=.=.=.=.=.=.=.=.=.*.#.%.K.",
"=.=.=.=.=.=.=.=.=.=.=.=.=.=.=.=.=.=.=.=.=.=.=.=.=.=.=.=.=.=.=.=.=.=.=.=.=.=.=.=.=.=.=.=.=.=.=.=.=.=.=.=.=.=.=.=.=.=.=.=.=.=.=.=.=.=.=.=.=.=.=.=.=.=.=.=.=.=.=.=.=.=.=.=.=.=.=.=.=.=.=.=.=.=.=.=.&.&.&.&.=.=.=.-.=.=.=.-.-.-.-.-.-.-.-.-.-.-.-.-.9.9.9.9.9.9.9.9.9.9.9.9.9.9.9.9.9.9.9.9.9.9.9.9.9.9.9.9.9.9.9.9.9.9.9.9.9.9.9.9.9.9.9.9.9.9.9.9.-.-.-.-.-.-.-.-.-.-.-.-.-.-.-.-.-.=.-.-.&.&.&.&.=.=.=.=.=.=.=.=.=.=.=.=.=.=.=.=.=.=.=.=.=.=.=.=.=.=.=.=.=.=.=.=.=.=.=.=.=.=.=.=.=.=.=.=.=.=.=.=.=.=.=.=.=.=.=.=.=.=.=.=.=.=.=.=.=.=.=.=.=.=.=.=.=.=.=.=.=.=.=.=.=.=.=.=.=.=.=.=.=.=.=.=.=.=.=.=.=.=.=.=.=.=.=.=.*.#.%.K.",
"=.=.=.=.=.=.=.=.=.=.=.=.=.=.=.=.=.=.=.=.=.=.=.=.=.=.=.=.=.=.=.=.=.=.=.=.=.=.=.=.=.=.=.=.=.=.=.=.=.=.=.=.=.=.=.=.=.=.=.=.=.=.=.=.=.=.=.=.=.=.=.=.=.=.=.=.=.=.=.=.=.=.=.=.=.=.=.=.=.=.=.=.=.=.=.=.&.=.=.=.=.=.=.=.-.-.-.-.-.-.-.-.-.-.-.-.-.-.-.-.9.9.9.9.9.9.9.9.9.9.9.9.9.9.9.9.9.9.9.9.9.9.9.h.h.9.9.9.9.9.9.9.9.9.9.9.9.9.9.9.9.9.9.9.9.9.9.9.9.-.-.-.-.-.-.-.-.-.-.-.-.-.-.-.-.-.-.-.=.=.=.&.=.=.=.=.=.=.=.=.=.=.=.=.=.=.=.=.=.=.=.=.=.=.=.=.=.=.=.=.=.=.=.=.=.=.=.=.=.=.=.=.=.=.=.=.=.=.=.=.=.=.=.=.=.=.=.=.=.=.=.=.=.=.=.=.=.=.=.=.=.=.=.=.=.=.=.=.=.=.=.=.=.=.=.=.=.=.=.=.=.=.=.=.=.=.=.=.=.=.=.=.=.=.=.=.*.#.%.K.",
"=.=.=.=.=.=.=.=.=.=.=.=.=.=.=.=.=.=.=.=.=.=.=.=.=.=.=.=.=.=.=.=.=.=.=.=.=.=.=.=.=.=.=.=.=.=.=.=.=.=.=.=.=.=.=.=.=.=.=.=.=.=.=.=.=.=.=.=.=.=.=.=.=.=.=.=.=.=.=.=.=.=.=.=.=.=.=.=.=.=.=.=.=.=.=.=.-.-.-.-.-.-.-.-.-.-.-.-.-.-.-.-.9.9.9.9.9.9.9.9.9.9.9.9.9.9.9.9.9.9.9.9.9.9.9.9.h.h.h.h.h.h.h.h.h.h.h.h.h.h.h.h.9.9.9.9.9.9.9.9.9.9.9.9.9.9.9.9.9.9.9.9.9.9.9.9.-.-.-.-.-.-.-.-.-.-.-.-.-.-.-.-.=.=.=.=.=.=.=.=.=.=.=.=.=.=.=.=.=.=.=.=.=.=.=.=.=.=.=.=.=.=.=.=.=.=.=.=.=.=.=.=.=.=.=.=.=.=.=.=.=.=.=.=.=.=.=.=.=.=.=.=.=.=.=.=.=.=.=.=.=.=.=.=.=.=.=.=.=.=.=.=.=.=.=.=.=.=.=.=.=.=.=.=.=.=.=.=.=.=.=.=.=.=.=.=.*.#.%.K.",
"=.=.=.=.=.=.=.=.=.=.=.=.=.=.=.=.=.=.=.=.=.=.=.=.=.=.=.=.=.=.=.=.=.=.=.=.=.=.=.=.=.=.=.=.=.=.=.=.=.=.=.=.=.=.=.=.=.=.=.=.=.=.=.=.=.=.=.=.=.=.=.=.=.=.=.=.=.=.=.=.=.=.=.=.=.=.=.=.=.=.=.=.=.=.=.=.-.-.-.-.-.-.-.-.-.-.-.-.-.-.-.-.9.9.9.9.9.9.9.9.9.9.9.9.9.9.9.9.9.9.9.9.9.9.9.9.h.h.h.h.h.h.h.h.h.h.h.h.h.h.h.h.9.9.9.9.9.9.9.9.9.9.9.9.9.9.9.9.9.9.9.9.9.9.9.9.-.-.-.-.-.-.-.-.-.-.-.-.-.-.-.-.=.=.=.=.=.=.=.=.=.=.=.=.=.=.=.=.=.=.=.=.=.=.=.=.=.=.=.=.=.=.=.=.=.=.=.=.=.=.=.=.=.=.=.=.=.=.=.=.=.=.=.=.=.=.=.=.=.=.=.=.=.=.=.=.=.=.=.=.=.=.=.=.=.=.=.=.=.=.=.=.=.=.=.=.=.=.=.=.=.=.=.=.=.=.=.=.=.=.=.=.=.=.=.=.*.#.%.K.",
"=.=.=.=.=.=.=.=.=.=.=.=.=.=.=.=.=.=.=.=.=.=.=.=.=.=.=.=.=.=.=.=.=.=.=.=.=.=.=.=.=.=.=.=.=.=.=.=.=.=.=.=.=.=.=.=.=.=.=.=.=.=.=.=.=.=.=.=.=.=.=.=.=.=.=.=.=.=.=.=.=.=.=.=.=.=.=.=.=.=.=.=.-.-.-.-.-.-.-.-.-.9.9.-.-.9.9.9.9.9.9.9.9.9.9.9.9.9.9.9.9.9.9.9.9.9.9.9.9.9.9.9.9.9.9.9.h.h.h.h.h.h.h.h.h.h.h.h.h.h.h.h.9.9.9.9.9.9.9.9.9.9.9.9.9.9.9.9.9.9.9.9.9.9.9.9.-.9.9.9.9.9.9.9.-.-.-.-.-.-.-.-.=.=.=.=.=.=.=.=.=.=.=.=.=.=.=.=.=.=.=.=.=.=.=.=.=.=.=.=.=.=.=.=.=.=.=.=.=.=.=.=.=.=.=.=.=.=.=.=.=.=.=.=.=.=.=.=.=.=.=.=.=.=.=.=.=.=.=.=.=.=.=.=.=.=.=.=.=.=.=.=.=.=.=.=.=.=.=.=.=.=.=.=.=.=.=.=.=.=.=.=.=.=.=.=.*.#.%.K.",
"=.=.=.=.=.=.=.=.=.=.=.=.=.=.=.=.=.=.=.=.=.=.=.=.=.=.=.=.=.=.=.=.=.=.=.=.=.=.=.=.=.=.=.=.=.=.=.=.=.=.=.=.=.=.=.=.=.=.=.=.=.=.=.=.=.=.=.=.=.=.=.=.=.=.=.=.=.=.=.=.=.=.=.=.=.=.=.=.=.-.=.>.=.=.-.-.-.-.-.-.9.9.9.-.9.9.9.9.9.9.9.9.9.9.9.9.9.9.9.9.h.h.h.h.h.h.h.h.h.h.h.h.h.h.h.h.h.h.h.h.h.h.h.h.h.h.h.h.h.h.h.h.h.h.h.h.h.h.h.h.h.h.h.h.h.h.h.h.9.9.9.9.9.9.9.9.9.9.9.9.9.9.9.9.-.-.-.-.-.-.-.-.=.=.=.=.=.=.=.=.=.=.=.=.=.=.=.=.=.=.=.=.=.=.=.=.=.=.=.=.=.=.=.=.=.=.=.=.=.=.=.=.=.=.=.=.=.=.=.=.=.=.=.=.=.=.=.=.=.=.=.=.=.=.=.=.=.=.=.=.=.=.=.=.=.=.=.=.=.=.=.=.=.=.=.=.=.=.=.=.=.=.=.=.=.=.=.=.=.=.=.=.=.=.=.=.*.#.%.K.",
"=.=.=.=.=.=.=.=.=.=.=.=.=.=.=.=.=.=.=.=.=.=.=.=.=.=.=.=.=.=.=.=.=.=.=.=.=.=.=.=.=.=.=.=.=.=.=.=.=.=.=.=.=.=.=.=.=.=.=.=.=.=.=.=.=.=.=.=.=.=.=.=.&.=.=.=.=.=.=.=.=.=.=.=.=.=.=.=.-.-.-.-.-.-.-.-.9.9.9.9.9.9.9.9.9.9.9.9.9.9.9.9.9.9.9.9.0.0.9.9.j.j.j.j.j.j.j.j.j.j.j.j.j.j.j.j.j.j.j.j.j.j.j.j.j.j.j.j.j.j.j.j.j.j.j.j.j.j.j.j.j.j.j.j.j.j.j.j.0.0.9.9.9.9.9.9.h.h.h.h.9.9.9.9.9.9.9.9.9.9.9.9.-.-.-.-.-.-.-.-.=.=.=.=.=.=.=.=.=.=.=.=.=.=.=.=.=.=.=.=.=.=.=.=.=.=.=.=.=.=.=.=.=.=.=.=.=.=.=.=.=.=.=.=.=.=.=.=.=.=.=.=.=.=.=.=.=.=.=.=.=.=.=.=.=.=.=.=.=.=.=.=.=.=.=.=.=.=.=.=.=.=.=.=.=.=.=.=.=.=.=.=.=.=.=.=.*.#.%.K.",
"=.=.=.=.=.=.=.=.=.=.=.=.=.=.=.=.=.=.=.=.=.=.=.=.=.=.=.=.=.=.=.=.=.=.=.=.=.=.=.=.=.=.=.=.=.=.=.=.=.=.=.=.=.=.=.=.=.=.=.=.=.=.=.=.=.=.=.=.=.=.=.=.=.=.=.=.=.=.=.=.=.=.=.=.=.>.=.=.-.-.-.-.-.-.-.-.9.9.9.9.9.9.9.9.9.9.9.9.9.9.j.h.h.h.h.h.h.h.h.h.j.j.j.j.j.j.j.j.j.j.j.j.j.j.j.j.j.j.j.j.j.j.j.j.j.j.j.j.j.j.j.j.j.j.j.j.j.j.j.j.j.j.j.j.j.j.j.j.h.h.h.h.h.h.h.h.h.h.h.h.9.9.9.9.9.9.9.9.9.9.9.9.-.-.-.-.-.-.-.-.=.=.=.=.=.=.=.=.=.=.=.=.=.=.=.=.=.=.=.=.=.=.=.=.=.=.=.=.=.=.=.=.=.=.=.=.=.=.=.=.=.=.=.=.=.=.=.=.=.=.=.=.=.=.=.=.=.=.=.=.=.=.=.=.=.=.=.=.=.=.=.=.=.=.=.=.=.=.=.=.=.=.=.=.=.=.=.=.=.=.=.=.=.=.=.=.*.#.%.K.",
"=.=.=.=.=.=.=.=.=.=.=.=.=.=.=.=.=.=.=.=.=.=.=.=.=.=.=.=.=.=.=.=.=.=.=.=.=.=.=.=.=.=.=.=.=.=.=.=.=.=.=.=.=.=.=.=.=.=.=.=.=.=.=.=.=.=.=.=.=.=.=.=.=.=.=.=.=.=.=.=.=.=.=.=.=.=.-.-.-.-.-.-.-.-.-.-.9.9.9.9.9.9.9.9.9.9.0.0.h.h.h.h.h.h.h.h.h.h.h.h.j.j.j.j.j.j.j.j.j.j.j.j.j.j.j.j.j.j.j.j.j.j.j.j.j.j.j.j.j.j.j.j.j.j.j.j.j.j.j.j.j.j.j.j.j.j.j.j.j.j.h.h.h.h.h.h.h.h.h.h.h.h.9.9.9.9.9.9.9.9.9.9.9.9.-.-.-.-.-.-.-.-.=.=.=.=.=.=.=.=.=.=.=.=.=.=.=.=.=.=.=.=.=.=.=.=.=.=.=.=.=.=.=.=.=.=.=.=.=.=.=.=.=.=.=.=.=.=.=.=.=.=.=.=.=.=.=.=.=.=.=.=.=.=.=.=.=.=.=.=.=.=.=.=.=.=.=.=.=.=.=.=.=.=.=.=.=.=.=.=.=.=.=.=.=.=.*.#.%.K.",
"=.=.=.=.=.=.=.=.=.=.=.=.=.=.=.=.=.=.=.=.=.=.=.=.=.=.=.=.=.=.=.=.=.=.=.=.=.=.=.=.=.=.=.=.=.=.=.=.=.=.=.=.=.=.=.=.=.=.=.=.=.=.=.=.=.=.=.=.=.=.=.=.=.=.=.=.=.=.=.=.=.=.=.=.-.=.-.>.-.-.-.9.-.-.9.9.9.9.9.9.9.9.9.9.0.0.h.h.h.j.j.j.h.h.h.h.h.h.h.h.j.j.j.j.j.j.j.j.j.j.j.j.j.j.j.j.j.j.j.j.j.j.j.j.j.j.l.l.j.j.j.j.j.j.j.j.j.j.j.j.j.j.j.j.j.j.j.j.j.j.h.h.h.h.h.h.j.j.j.h.h.h.9.9.9.9.9.9.9.9.9.9.h.h.-.-.-.-.-.-.-.-.-.-.-.-.-.=.=.=.=.=.=.=.=.=.=.=.=.=.=.=.=.=.=.=.=.=.=.=.=.=.=.=.=.=.=.=.=.=.=.=.=.=.=.=.=.=.=.=.=.=.=.=.=.=.=.=.=.=.=.=.=.=.=.=.=.=.=.=.=.=.=.=.=.=.=.=.=.=.=.=.=.=.=.=.=.=.=.=.=.=.=.=.=.=.*.#.%.K.",
"=.=.=.=.=.=.=.=.=.=.=.=.=.=.=.=.=.=.=.=.=.=.=.=.=.=.=.=.=.=.=.=.=.=.=.=.=.=.=.=.=.=.=.=.=.=.=.=.=.=.=.=.=.=.=.=.=.=.=.=.=.=.=.=.=.=.=.=.=.=.=.=.=.=.=.=.=.-.-.-.-.-.-.-.-.-.-.>.9.9.9.9.9.9.9.9.9.9.9.0.0.h.h.h.0.0.h.h.j.j.j.j.j.j.j.j.j.j.j.j.j.j.j.j.l.l.l.l.l.l.l.l.l.l.j.j.l.l.l.l.l.l.l.l.l.l.l.l.l.l.l.l.l.l.l.l.l.l.l.l.l.l.l.l.l.l.l.l.j.j.j.j.j.j.j.j.j.j.j.h.h.h.h.h.h.h.h.0.0.9.9.9.h.9.9.9.9.9.9.9.>.-.-.-.-.-.-.-.=.=.=.=.=.=.=.=.=.=.=.=.=.=.=.=.=.=.=.=.=.=.=.=.=.=.=.=.=.=.=.=.=.=.=.=.=.=.=.=.=.=.=.=.=.=.=.=.=.=.=.=.=.=.=.=.=.=.=.=.=.=.=.=.=.=.=.=.=.=.=.=.=.=.=.=.=.=.=.=.=.=.=.=.=.=.=.=.*.#.%.K.",
"=.=.=.=.=.=.=.=.=.=.=.=.=.=.=.=.=.=.=.=.=.=.=.=.=.=.=.=.=.=.=.=.=.=.=.=.=.=.=.=.=.=.=.=.=.=.=.=.=.=.=.=.=.=.=.=.=.=.=.=.=.=.=.=.=.=.=.=.=.=.=.=.=.=.=.=.-.-.-.-.-.-.-.-.-.-.9.9.9.9.9.9.h.h.h.h.0.0.0.0.h.h.j.j.j.h.j.j.j.j.j.j.j.j.j.j.j.j.j.j.l.l.l.l.l.l.l.l.l.l.l.l.l.l.l.l.l.l.l.l.l.l.l.l.l.l.l.l.l.l.l.l.l.l.l.l.l.l.l.l.l.l.l.l.l.l.l.l.j.j.j.j.j.j.j.j.j.j.j.h.j.h.h.h.j.j.h.h.h.0.0.0.h.h.9.9.9.9.9.9.-.-.-.-.-.-.-.-.=.=.=.=.=.=.=.=.=.=.=.=.=.=.=.=.=.=.=.=.=.=.=.=.=.=.=.=.=.=.=.=.=.=.=.=.=.=.=.=.=.=.=.=.=.=.=.=.=.=.=.=.=.=.=.=.=.=.=.=.=.=.=.=.=.=.=.=.=.=.=.=.=.=.=.=.=.=.=.=.=.=.=.=.=.=.=.=.*.#.%.K.",
"=.=.=.=.=.=.=.=.=.=.=.=.=.=.=.=.=.=.=.=.=.=.=.=.=.=.=.=.=.=.=.=.=.=.=.=.=.=.=.=.=.=.=.=.=.=.=.=.=.=.=.=.=.=.=.=.=.=.=.=.=.=.=.=.=.=.=.=.=.=.=.=.-.-.=.-.-.-.>.>.9.9.9.9.9.9.9.9.q.q.9.h.h.h.h.h.0.0.0.0.j.j.j.j.j.j.j.j.j.j.l.l.j.j.l.l.j.j.j.j.l.l.l.l.l.l.l.l.l.l.l.l.l.l.l.l.l.l.l.l.l.l.l.l.l.l.l.l.l.l.l.l.l.l.l.l.l.l.l.l.l.l.l.l.l.l.l.l.j.j.j.j.l.j.j.l.j.j.j.j.j.j.j.j.j.j.j.j.0.0.0.0.h.h.h.h.9.9.9.9.9.9.9.9.9.9.9.9.-.-.>.>.-.-.-.-.=.=.=.=.=.=.=.=.=.=.=.=.=.=.=.=.=.=.=.=.=.=.=.=.=.=.=.=.=.=.=.=.=.=.=.=.=.=.=.=.=.=.=.=.=.=.=.=.=.=.=.=.=.=.=.=.=.=.=.=.=.=.=.=.=.=.=.=.=.=.=.=.=.=.=.=.=.=.=.=.*.#.%.K.",
"=.=.=.=.=.=.=.=.=.=.=.=.=.=.=.=.=.=.=.=.=.=.=.=.=.=.=.=.=.=.=.=.=.=.=.=.=.=.=.=.=.=.=.=.=.=.=.=.=.=.=.=.=.=.=.=.=.=.=.=.=.=.=.=.=.=.=.=.=.=.=.=.-.-.=.-.-.>.>.>.9.9.9.9.9.9.9.9.9.9.9.9.h.h.h.h.0.0.0.h.j.j.j.j.j.j.j.j.j.l.j.j.j.j.j.l.l.j.j.j.l.l.l.l.l.l.l.l.l.l.l.l.l.l.l.l.v.v.v.v.l.l.v.v.v.v.v.v.l.l.l.l.l.l.l.l.l.l.l.l.l.l.l.l.l.l.l.l.l.j.j.j.j.j.j.l.j.j.j.j.j.j.j.j.j.j.j.j.h.0.0.0.h.h.h.h.9.9.9.9.9.9.9.9.9.9.9.9.-.-.-.>.>.-.-.-.=.=.=.=.=.=.=.=.=.=.=.=.=.=.=.=.=.=.=.=.=.=.=.=.=.=.=.=.=.=.=.=.=.=.=.=.=.=.=.=.=.=.=.=.=.=.=.=.=.=.=.=.=.=.=.=.=.=.=.=.=.=.=.=.=.=.=.=.=.=.=.=.=.=.=.=.=.=.=.=.*.#.%.K.",
"=.=.=.=.=.=.=.=.=.=.=.=.=.=.:.=.o.i.p.#.$.<.>.9.q.&.#.=.&.&.&.,.=.=.=.=.=.=.=.=.=.=.=.=.=.=.=.=.=.=.=.=.=.=.=.=.=.=.=.=.=.=.=.=.=.=.=.=.=.=.=.=.-.-.-.-.-.-.-.-.9.9.9.9.9.9.h.h.h.h.h.h.j.j.j.j.j.j.j.j.j.j.j.j.l.l.l.l.l.l.l.l.l.l.l.l.l.l.l.l.l.l.l.l.l.l.l.l.z.z.z.z.z.z.z.z.z.z.z.z.z.z.l.l.z.z.z.z.z.z.z.z.z.z.z.z.z.z.z.z.l.l.l.l.l.l.l.l.l.l.l.l.l.l.l.l.l.l.l.l.l.l.l.l.j.j.j.j.j.j.j.j.j.j.h.h.h.h.h.h.9.9.9.9.9.9.9.9.-.-.-.-.-.-.-.-.>.=.=.=.=.=.=.=.=.=.=.=.=.=.=.=.=.=.=.=.=.=.=.=.=.=.=.=.=.=.=.=.=.=.=.=.=.=.=.=.=.=.=.=.=.=.=.=.=.=.=.=.=.=.=.=.=.=.=.=.=.=.=.=.=.=.=.=.=.=.=.=.=.=.=.=.=.=.=.=.*.#.%.K.",
"=.=.=.=.=.=.=.=.=.:.=.=.=.=.:.:.,.*.q.9.&.,.:.&.,.=.i.=.&.>.>.$.=.=.=.=.=.=.=.=.=.=.=.=.=.=.=.=.=.=.=.=.=.=.=.=.=.=.=.=.=.=.=.=.=.=.=.=.=.=.=.=.-.-.-.-.-.-.-.-.9.9.9.9.9.h.h.h.h.h.h.h.h.j.j.j.j.j.j.j.j.j.j.j.l.l.l.l.l.l.l.l.l.l.l.l.l.l.l.l.l.l.l.l.x.x.x.x.z.z.z.z.z.z.z.z.z.z.z.z.z.z.z.z.c.c.c.c.z.z.z.z.z.z.z.z.z.z.z.z.l.l.l.l.l.l.l.l.l.l.l.l.l.l.l.l.l.l.l.l.l.l.l.l.j.j.j.j.j.j.j.j.j.j.j.h.h.h.h.h.9.9.9.9.9.9.9.9.-.-.-.-.-.-.-.-.>.>.=.=.=.=.=.=.=.=.=.=.=.=.=.=.=.=.=.=.=.=.=.=.=.=.=.=.=.=.=.=.=.=.=.=.=.=.=.=.=.=.=.=.=.=.=.=.=.=.=.=.=.=.=.=.=.=.=.=.=.=.=.=.=.=.=.=.=.=.=.=.=.=.=.=.=.=.=.=.*.#.%.K.",
"=.=.=.=.=.=.=.=.:.:.:.=.=.=.=.:.,.,.e.e.+.<.a.a.:.<.a.:.@.*.b.#.=.=.=.=.=.=.=.=.=.=.=.=.=.=.=.=.=.=.=.=.=.=.=.=.=.=.=.=.=.=.=.=.=.=.=.=.-.-.-.-.-.-.-.9.-.9.9.9.q.q.9.9.h.h.h.h.j.j.h.h.j.j.j.j.j.j.j.j.j.l.l.l.l.l.l.l.l.l.l.l.l.l.l.l.l.z.z.z.x.x.x.x.x.x.x.x.z.z.z.z.z.z.z.z.z.z.z.z.z.z.z.z.z.z.z.z.z.z.z.z.z.z.z.z.z.z.z.z.z.z.z.z.z.z.z.z.z.z.z.l.l.l.l.l.l.l.l.l.l.l.l.l.l.l.l.j.j.j.j.j.j.j.j.j.h.h.h.h.h.h.h.9.9.9.9.9.9.9.9.-.-.-.-.-.-.-.=.=.=.=.=.=.=.=.=.=.=.=.=.=.=.=.=.=.=.=.=.=.=.=.=.=.=.=.=.=.=.=.=.=.=.=.=.=.=.=.=.=.=.=.=.=.=.=.=.=.=.=.=.=.=.=.=.=.=.=.=.=.=.=.=.=.=.=.=.=.=.=.=.=.=.=.=.=.*.#.%.K.",
"=.=.=.=.=.=.=.=.:.:.:.=.=.=.:.:.s.#.q.q.....$...#.$.a.a.&.%.p.i.=.=.=.=.=.=.=.=.=.=.=.=.=.=.=.=.=.=.=.=.=.=.=.=.=.=.=.=.=.=.=.=.=.=.=.=.-.-.-.-.9.9.9.9.9.9.h.h.0.9.9.9.h.h.j.j.j.j.j.j.j.j.j.j.l.l.l.l.l.l.l.l.l.l.l.l.l.l.l.l.l.l.z.z.z.z.z.z.x.x.x.x.x.x.x.x.c.c.c.c.c.c.c.c.c.c.c.c.c.c.c.c.c.c.c.c.c.c.c.c.c.c.c.c.c.c.c.c.x.x.x.z.x.z.z.z.z.z.z.z.z.z.l.l.l.l.l.l.l.l.l.l.l.l.l.l.l.l.l.l.j.j.j.j.j.h.h.h.h.h.h.9.9.9.9.9.h.h.9.9.h.9.9.-.>.-.-.-.=.=.-.=.=.=.=.=.=.=.=.=.=.=.=.=.=.=.=.=.=.=.=.=.=.=.=.=.=.=.=.=.=.=.=.=.=.=.=.=.=.=.=.=.=.=.=.=.=.=.=.=.=.=.=.=.=.=.=.=.=.=.=.=.=.=.=.=.=.=.=.=.=.=.=.=.*.#.%.K.",
"=.=.=.=.=.=.=.=.=.=.=.=.=.:.=.=.$.;.f.G.[.[.G.8.0...&.b.e.=.#.d.=.=.=.=.=.=.=.=.=.=.=.=.=.=.=.=.=.=.=.=.=.=.=.=.=.=.=.=.=.=.=.=.-.-.-.-.-.-.-.>.9.9.9.9.9.9.h.h.0.0.0.h.h.h.h.j.j.j.j.j.j.j.j.l.l.l.l.l.l.l.l.l.l.l.l.z.z.z.z.z.z.z.z.z.z.c.z.z.c.c.c.c.c.c.c.c.c.c.c.c.c.c.c.c.c.c.c.c.c.c.c.c.c.c.c.c.c.c.c.c.c.c.c.c.c.c.c.c.c.c.c.c.z.z.z.z.c.z.z.z.z.z.z.z.z.z.z.z.z.l.l.l.l.l.l.l.l.l.l.l.j.j.j.j.j.j.j.j.j.j.j.h.h.h.0.0.h.h.9.9.h.9.9.9.-.-.-.-.-.-.-.-.=.=.=.=.=.=.=.=.=.=.=.=.=.=.=.=.=.=.=.=.=.=.=.=.=.=.=.=.=.=.=.=.=.=.=.=.=.=.=.=.=.=.=.=.=.=.=.=.=.=.=.=.=.=.=.=.=.=.=.=.=.=.=.=.=.=.=.=.=.=.=.=.*.#.%.K.",
"=.=.=.=.=.=.=.=.=.=.=.=.=.:.=.=.5.Z.wXNXBXBXSXSX{.C. .&.>.>.%.i.=.=.=.=.=.=.=.=.=.=.=.=.=.=.=.=.=.=.=.=.=.=.=.=.=.=.=.=.=.=.=.=.-.-.-.-.-.-.-.9.9.9.9.h.h.h.h.h.0.0.k.h.h.h.j.j.l.l.l.l.l.l.l.l.l.l.l.l.l.l.l.l.z.z.z.z.z.z.x.x.z.z.z.c.c.c.c.c.c.c.c.c.c.c.c.c.B.B.B.B.c.c.c.c.B.B.B.B.B.B.B.B.c.c.B.B.c.B.B.c.c.c.c.c.B.B.B.B.c.c.c.c.c.c.c.c.c.c.c.c.c.z.z.z.x.x.z.z.z.z.z.z.l.l.l.l.l.l.l.l.j.j.j.j.j.j.j.j.j.j.j.j.j.h.h.h.h.h.h.h.h.h.9.9.-.-.-.-.-.-.-.-.=.=.=.=.=.=.=.=.=.=.=.=.=.=.=.=.=.=.=.=.=.=.=.=.=.=.=.=.=.=.=.=.=.=.=.=.=.=.=.=.=.=.=.=.=.=.=.=.=.=.=.=.=.=.=.=.=.=.=.=.=.=.=.=.=.=.=.=.=.=.=.=.*.#.%.K.",
"=.=.=.=.=.=.=.=.=.=.=.:.=.:.=.=.C.uXDXGXAXmXmXFXNX0Xv.| <.:.$.=.=.=.=.=.=.=.=.=.=.=.=.=.=.=.=.=.=.=.=.=.=.=.=.=.=.=.=.=.=.=.=.=.9.9.-.9.9.9.9.9.9.h.h.h.h.h.h.h.k.k.h.h.j.j.j.j.l.l.l.l.l.l.l.l.l.l.l.l.l.l.l.l.z.z.z.z.z.z.z.c.c.c.c.c.c.c.c.c.c.c.c.c.c.c.c.c.B.B.B.B.B.B.B.B.B.B.B.B.B.B.B.B.B.B.B.B.B.B.B.B.B.B.B.B.B.B.B.B.c.c.c.c.c.c.c.c.c.c.c.c.c.c.c.c.c.z.z.z.z.z.z.z.l.l.l.l.l.l.l.l.l.l.l.l.l.l.l.l.j.j.j.j.j.j.h.h.h.h.h.h.h.h.h.9.9.9.9.9.9.-.9.9.=.=.=.=.=.=.=.=.=.=.=.=.=.=.=.=.=.=.=.=.=.=.=.=.=.=.=.=.=.=.=.=.=.=.=.=.=.=.=.=.=.=.=.=.=.=.=.=.=.=.=.=.=.=.=.=.=.=.=.=.=.=.=.=.=.=.=.=.=.=.=.=.*.#.%.K.",
"=.=.=.=.=.=.=.=.=.=.=.:.:.:.=.=.C.uXVXZXFXVXMXMXAXVX*Xp.<.<.+.+.=.=.=.=.=.=.=.=.=.=.=.=.=.=.=.=.=.=.=.=.=.=.=.=.=.=.=.=.=.=.=.=.9.9.9.9.9.9.9.9.h.h.h.h.h.h.h.h.k.k.h.h.j.j.j.j.l.l.l.l.l.l.l.l.l.l.z.l.z.z.z.z.z.z.z.z.z.c.c.c.c.c.c.c.c.c.c.c.c.c.c.B.c.c.c.c.B.B.B.B.B.B.B.B.B.B.B.B.B.B.B.B.B.B.B.B.B.B.B.B.B.B.B.B.B.B.B.B.c.c.c.c.c.c.c.c.c.c.c.c.c.c.c.c.c.c.c.z.z.z.z.z.z.z.z.z.l.l.l.l.l.l.l.l.l.l.l.l.j.j.j.j.j.j.h.h.h.h.h.h.h.h.h.h.9.9.9.9.9.9.9.9.=.=.=.=.=.=.=.=.=.=.=.=.=.=.=.=.=.=.=.=.=.=.=.=.=.=.=.=.=.=.=.=.=.=.=.=.=.=.=.=.=.=.=.=.=.=.=.=.=.=.=.=.=.=.=.=.=.=.=.=.=.=.=.=.=.=.=.=.=.=.=.=.*.#.%.K.",
"=.=.=.=.=.=.=.=.s.o.X.f.H.F.v.5..XoXoXcXbXmXBXSXBXMX=Xg.6.g.~.Q.j.;.@.>.b.:.$.#.=.=.=.=.=.=.=.=.&.=.=.=.=.=.=.=.=.=.=.=.-.-.-.-.9.9.9.9.9.9.9.9.h.h.h.h.j.j.j.j.j.j.j.j.j.j.j.j.l.l.l.l.l.l.l.l.l.z.z.z.z.z.z.z.c.c.c.c.c.c.c.c.B.B.B.B.B.B.B.B.B.B.B.B.B.B.B.B.B.B.C.C.C.C.C.C.C.C.C.C.C.C.B.B.C.C.B.B.C.C.C.C.C.C.C.C.C.C.C.C.B.B.B.B.B.B.B.B.B.B.B.B.B.B.B.B.c.c.c.c.c.c.c.c.z.z.z.z.z.z.z.l.l.l.l.l.l.l.l.l.l.j.j.j.j.j.j.j.j.j.j.j.h.h.h.h.9.9.9.9.9.9.9.9.-.-.-.-.=.=.=.=.a.=.#.a.a.=.%.=.s.$.%.q.q.@.$.s.%.$.$.#.p.>.e.e.=.=.=.=.=.=.=.=.:.&.;.;.q.-.-.>.#.#.<.,.,.,.&.@.&.&.&.&.&.*.*.*.=.=.=.=.=.=.=.=.*.#.%.K.",
"=.=.=.=.=.=.=.=.@.w.[.tXMXvXeX X=X=X=X,XwXwXyXyXZXSXNXuXuXMXVXMXuX[.5.| $.a.*.@.=.=.=.=.=.=.=.=.=.=.=.=.=.=.=.=.=.=.=.-.-.-.-.-.9.9.9.9.9.9.9.9.h.h.h.h.h.j.j.j.j.j.j.j.l.l.l.l.l.l.l.l.l.l.l.l.z.z.z.z.z.z.c.c.c.c.c.c.c.c.c.c.B.B.B.B.B.B.B.B.B.B.B.B.B.B.B.B.B.B.B.B.B.B.B.B.B.B.B.B.B.B.B.B.B.B.B.B.B.B.B.B.B.B.B.B.B.B.B.B.B.B.B.B.B.B.B.B.B.B.B.B.B.B.B.B.c.c.c.c.c.c.c.c.c.c.z.z.z.z.z.z.l.l.l.l.l.l.l.l.l.l.l.l.j.j.j.j.j.j.j.h.h.h.h.h.9.9.9.9.9.9.9.9.-.-.-.-.=.=.=.=.&.%.%.=.>.=.=.>.b.>.#.$.<.a.>.&.*.=.-.-.=.:.&.&.=.=.=.=.=.=.=.=.%.:.<.<.<.<.:.%.$.%.:.a.a.a.#.#.&.&.&.&.=.=.:.>.=.=.=.=.=.=.=.=.*.#.%.K.",
"=.=.=.=.=.=.=.=.3.C.{.tXrXOX.XqXeXeXeXeXeXyXOXOXZXZXmXbXmXBXBXZXFXMX).5...=.>.&.=.=.=.=.=.=.=.=.=.=.=.=.=.=.=.=.>.-.-.-.-.-.-.-.9.9.9.9.9.h.h.h.h.h.h.h.j.j.j.j.l.l.l.l.l.l.l.l.l.l.l.l.z.z.z.z.z.z.z.z.z.z.z.c.c.c.c.c.c.c.c.c.B.B.B.B.B.B.B.B.B.B.B.B.B.B.B.B.B.B.B.B.B.B.B.B.B.B.V.V.B.B.B.B.B.B.B.B.B.B.V.V.B.B.B.B.B.B.B.B.B.B.B.B.B.B.B.B.B.B.B.B.B.B.B.B.c.c.c.c.c.c.c.c.c.z.z.z.z.z.z.z.z.z.z.l.l.l.l.l.l.l.l.l.l.j.l.j.j.j.j.j.h.h.h.h.h.h.h.9.9.9.9.9.9.-.-.-.-.-.-.-.*.*.*.e.,.&.&.>.e.@. .%.%.%.%.>.&.e.e.e.*.=.=.%.=.=.=.=.=.=.=.=.>.<.<.:.:.$.$.:.q.*.-.=.=.p.i.i.=.:.>.>.>.>.>.>.=.=.=.=.=.=.=.=.*.#.%.K.",
"=.=.=.=.=.=.=.=.[.{.eXrXrXcXrXeXcXcXOXOXoXoXoXoXuXtXrXOXOXrXtXtXyXtXwX].w.0.b.a.=.=.=.=.=.=.=.=.=.=.=.=.=.=.=.=.-.-.-.-.-.-.9.9.9.9.9.9.9.h.h.h.h.j.h.h.j.j.j.j.l.l.l.l.l.l.l.l.l.l.z.z.z.z.z.z.z.c.c.c.c.c.c.c.B.B.B.B.B.B.B.B.B.C.C.C.C.C.B.C.B.B.B.B.B.B.B.B.B.B.B.V.V.V.V.V.V.V.V.V.V.V.V.V.V.V.V.V.V.V.V.V.V.V.V.V.V.V.V.V.B.B.B.B.B.B.B.B.B.B.B.B.B.B.B.B.B.B.B.B.B.B.B.B.c.c.c.c.c.c.c.z.z.z.z.z.z.z.l.l.l.l.l.l.l.l.l.l.j.j.j.j.j.j.j.h.j.j.j.9.9.9.9.9.h.-.-.-.-.-.-.-.@.%.*.*.&.&.,.:.| w.{.eXXXZ.q.$.<.:.>.*.*.=.p.p.=.=.=.=.=.=.=.=.<.*.C.(.).t.%.<.e.e.e.q.*.*.%.%.:.>.>.>.>.>.>.>.=.=.=.=.=.=.=.=.*.#.%.K.",
"=.=.=.=.=.=.=.=.n.J.J.V.L.L.L.J.J.J.J.J.J.J.n.n.l.l.w.y.y.J.J.J.t.J.J.J.n.0.;.%.=.=.=.=.=.=.=.=.=.=.=.=.=.=.=.=.-.-.-.-.9.9.9.9.0.0.h.h.h.j.j.j.j.j.j.j.j.j.j.j.l.l.l.l.l.l.l.l.z.z.z.z.z.z.z.z.c.c.c.c.c.c.c.c.B.B.B.B.B.B.B.B.B.B.B.B.B.B.B.B.B.B.V.V.V.V.B.V.V.V.V.V.V.V.V.V.V.V.V.V.V.V.V.V.V.V.V.V.V.V.V.V.V.V.V.V.V.V.V.V.V.V.V.V.V.V.V.V.V.B.B.B.B.C.C.C.B.B.B.B.B.B.B.B.c.c.c.c.c.c.c.c.z.z.z.z.z.z.z.z.l.l.l.l.l.l.l.l.j.j.j.j.j.j.j.j.j.j.j.j.j.j.9.9.9.9.9.9.9.-.-.-.%.%.=.=.=.:.a.a.q.iXHXKXLXDX=Xq.d.i.#.&.&.&.%.%.=.=.=.=.=.=.=.=.c.=XMXDXCXMX[.w.<.:.>.>.e.>.>.&.:.:.:.>.:.>.>.>.=.=.=.=.=.=.=.=.*.#.%.K.",
"=.=.=.=.=.=.=.=.$.$.#.#.#.i.#.#.+.$.$.$.$.$.$.$.$.$.<.,.,.&.:.<.r.@.$.$.#.%. .3.=.=.=.=.=.=.=.=.=.=.=.=.=.=.=.=.9.9.9.9.9.9.9.9.h.h.h.j.j.j.j.j.j.j.j.j.j.j.j.j.l.l.l.l.l.l.l.l.z.z.z.c.c.c.c.c.c.c.B.B.c.B.B.B.B.B.B.B.C.C.C.B.B.B.V.V.V.V.V.V.V.V.V.V.V.V.V.V.V.V.V.V.S.S.V.V.V.V.A.V.V.V.V.V.V.V.S.V.V.V.A.V.V.V.V.V.S.S.V.V.V.V.V.V.V.V.V.V.V.V.V.V.V.B.B.B.B.C.C.C.B.B.B.B.B.B.B.c.c.c.c.c.c.c.c.c.c.z.z.z.l.l.l.l.l.l.l.l.j.j.j.j.j.j.j.j.j.j.j.j.j.j.0.0.h.9.9.9.9.9.9.9.a.p.=.%.=.-.&.%.[.tXGXPXLXKXDXeX......#.:.:.&.%.=.=.=.=.=.=.=.=.pXMXVXBXNXVXkXpXd.d.$.$.$.$.<.i.=.=.=.:.=.:.:.:.=.=.=.=.=.=.=.=.*.#.%.K.",
"=.=.=.=.=.=.=.=.e.e.*.*.*.&.*.e.=.>.>.>.>.>.>.>.:.:.:.<.<.<.<.<.e.>.#.i.#.$.*.e.=.=.=.=.=.=.=.=.=.=.=.=.=.=.>.>.9.9.9.9.9.9.9.9.h.h.h.h.j.j.j.j.l.l.l.l.l.l.l.l.l.l.l.l.l.l.l.l.c.c.c.c.c.c.c.c.B.B.B.B.B.B.B.B.B.B.B.B.B.B.B.B.V.V.V.V.V.V.V.V.V.V.V.V.V.V.V.V.V.V.V.V.V.V.V.V.V.V.V.V.V.V.V.V.V.V.V.V.V.V.V.V.V.V.V.V.V.V.V.V.V.V.V.V.V.V.V.V.V.V.V.V.V.V.V.V.B.B.B.B.B.B.B.B.B.B.B.B.B.c.B.B.c.c.c.c.c.c.c.c.l.l.l.l.l.l.l.l.l.l.l.l.j.j.j.j.j.j.j.j.j.j.h.0.h.h.9.9.9.9.9.9.a.-.%.%.q.j.5.X.}.}.|.nXDXFXHXKXD.6.5.&.a.:.:.&.=.=.=.=.=.=.=.=.VXVXNXNXNXNXVXVXl.v.6.5.5.%.$.$.%.&.&.&.=.=.=.=.=.=.=.=.=.=.=.=.*.#.%.K.",
"=.=.=.=.=.=.=.=.9.%.%.=.>.:.&.&.-.-.-.-.*.*.*.*.q.e.a.p.p.p.-.*.p.p.;.;.-.>.:.<.=.=.=.=.=.=.=.=.=.=.=.=.=.>.>.>.9.9.9.9.9.9.9.h.h.h.h.j.j.j.j.j.l.l.l.l.l.l.l.l.z.z.z.x.z.z.x.x.c.c.c.c.c.c.c.c.B.B.B.B.B.B.B.B.C.C.C.C.B.B.B.V.V.V.V.V.V.V.V.V.V.V.V.V.V.V.V.V.V.V.V.V.V.V.V.V.V.V.V.V.V.V.V.V.V.V.V.V.V.V.V.V.V.V.V.V.V.V.V.V.V.V.V.V.V.V.V.V.V.V.V.V.V.V.V.V.V.B.B.B.C.C.C.C.B.B.B.B.B.B.B.B.c.c.c.c.c.c.c.c.x.x.z.z.x.z.z.z.l.l.l.l.j.l.l.j.j.j.j.j.j.j.h.0.h.h.9.9.9.9.9.9.b.9.q.0.P.U.I.L.=X{.{.{..XcXAXLXFXeXC.9.:.<.$.&.=.=.=.=.=.=.=.=.,XtXnXdXnXbXtXwXoXrXvXtX0X[.l.;.$.$.$.$.&.$.=.=.=.=.=.=.=.=.=.=.*.#.%.K.",
"=.=.=.=.=.=.=.=.=.=.=.=.=.=.=.=.=.=.=.=.=.=.=.=.=.=.=.=.=.=.=.=.=.=.=.=.=.=.=.=.:.:.:.:.=.=.=.=.-.=.=.-.-.-.-.-.h.h.h.h.h.0.0.0.b.9.0.j.j.j.j.j.l.l.k.f.f.k.l.n.t.c.N.N.c.z.l.l.B.B.B.B.B.B.B.B.B.B.C.C.C.B.B.B.B.V.V.V.V.V.V.V.V.V.V.V.V.V.V.A.V.V.V.V.F.F.F.F.F.F.F.F.Z.Z.Z.A.F.F.F.Z.Z.Z.Z.Z.Z.Z.Z.Z.Z.Z.F.F.F.F.F.F.F.F.F.F.F.F.V.V.V.F.F.F.V.V.V.V.V.V.V.V.V.V.V.V.V.V.B.B.B.B.B.C.C.C.B.B.B.B.B.B.B.B.B.B.c.c.x.x.z.z.z.z.l.l.l.l.l.l.l.l.j.j.j.j.j.k.k.k.0.h.0.9.9.9.9.9.5.v.A.[.=X=X{.{.eX{.}.].[.{.XX}.cXyXqX{.!.Z.Z.C.=.=.=.=.=.=.=.=.$.b.K.{.eXoXOX+X0XwXyXtXvXMXMXMXeXwXwX=XA.;.<.<.=.=.=.=.=.=.=.=.*.#.%.K.",
"=.=.=.=.=.=.=.=.=.=.=.=.=.=.=.=.=.=.=.=.=.=.=.=.=.=.=.=.=.=.=.=.=.=.=.=.=.=.=.=.:.:.:.=.=.=.=.=.=.=.-.-.-.-.-.-.h.h.h.h.h.0.h.0.n.j.j.j.k.h.k.j.w.x.z.c.c.n.n.J.C.c.x.x.c.C.c.x.B.B.B.B.B.B.B.B.C.C.C.C.B.B.B.B.V.V.V.V.V.V.V.V.V.V.V.V.V.V.V.V.F.V.V.V.F.F.F.F.F.F.F.F.V.Z.Z.Z.F.F.F.F.Z.Z.Z.Z.Z.Z.Z.Z.F.Z.F.F.F.F.F.F.F.F.F.F.F.F.V.V.V.V.F.F.V.V.V.V.V.V.V.V.V.V.V.V.V.V.B.B.B.B.B.B.C.C.C.C.B.B.B.B.B.B.B.B.c.c.c.x.x.z.z.z.l.l.l.l.l.l.l.l.j.j.j.j.j.k.k.k.h.0.h.9.9.9.9.9.y.L.}.XX.X.XXXXX=XI.w.5.w.J.[.[.{.{.[.[.K.J.J.J.=.=.=.=.=.=.=.=.>.*.;.w.L.{.0XeXoX.X.X+X+XOXcXbXHXGXGXFXVX0XC.3.=.=.=.=.=.=.=.=.*.#.%.K.",
"=.=.=.=.=.=.=.=.=.=.=.=.=.=.=.=.=.=.=.=.=.=.=.=.=.=.=.=.=.=.=.=.=.=.=.=.=.=.=.=.:.:.=.=.=.=.=.=.-.-.-.-.-.-.9.9.h.h.h.h.h.h.h.h.l.l.l.j.k.h.j.n.n.n.l.l.l.n.n.n.J.c.z.c.t.C.B.B.B.B.B.B.B.B.B.B.C.C.B.B.B.V.V.V.V.V.V.V.V.V.V.V.V.V.V.V.V.V.V.V.F.F.F.F.F.F.F.F.F.F.F.F.F.F.F.F.H.H.H.H.H.H.H.H.H.H.H.H.H.H.F.H.F.F.F.F.F.F.F.F.F.F.F.F.F.F.F.F.A.A.V.V.V.V.V.V.V.V.V.V.V.V.V.V.V.V.V.B.B.B.C.C.B.B.B.B.B.B.B.B.c.c.c.c.z.z.z.z.l.l.l.l.l.l.l.l.l.l.j.j.j.j.k.k.h.h.h.h.9.9.9.9.c.J.J.L.L.L.L.y.0.q.%.&.>.9.q.5.q.q.q.@.@.@.@.@.=.=.=.=.=.=.=.=.e.*.$...%.j.K.[.{. X0X XqXqX.X.X[.H.g.g.v.5...$.=.=.=.=.=.=.=.=.*.#.%.K.",
"=.=.=.=.=.=.=.=.=.=.=.=.=.=.=.=.=.=.=.=.=.=.=.=.=.=.=.=.=.=.=.=.=.=.=.=.=.=.=.=.:.=.=.=.-.=.-.-.-.-.-.9.9.9.9.q.h.h.h.h.h.h.h.h.6.l.j.h.j.l.l.l.k.j.N.v.c.c.n.n.v.l.l.x.C.V.B.B.B.B.B.C.B.B.B.B.B.B.V.V.V.V.V.V.V.V.V.V.A.A.A.A.V.V.V.V.F.F.Z.F.F.F.F.F.F.F.F.F.F.F.F.F.F.F.F.F.H.H.H.H.F.H.F.F.H.H.H.H.F.F.F.F.F.F.F.F.F.F.F.F.F.F.F.F.F.F.F.F.F.F.F.F.V.V.V.V.A.A.A.S.V.V.V.V.V.V.V.V.V.V.B.B.B.B.B.B.B.B.B.B.c.c.c.c.c.c.x.z.z.z.l.l.l.l.l.l.l.l.l.l.j.j.j.j.j.j.h.h.h.9.9.9.p.p.p.-.-.&.%.#.%.%.<.a.a.a.%...,.,.:.>.>.>.>.>.=.=.=.=.=.=.=.=.,.>.:.#.$.$.%.q.0.k.j.l.l.0.0.r.<.,.,.,.<.+.<.a.=.=.=.=.=.=.=.=.*.#.%.K.",
"=.=.=.=.=.=.=.=.=.=.=.=.=.=.=.=.=.=.=.=.=.=.=.=.=.=.=.=.=.=.=.=.=.=.=.=.=.=.=.=.=.=.=.=.=.-.=.-.-.9.-.9.9.9.9.9.h.h.h.h.h.j.j.j.f.j.j.j.n.n.l.w.6.g.Z.).~.).g.g.v.v.k.v.J.J.B.c.C.C.C.B.C.C.V.V.V.V.V.V.V.V.V.V.V.V.V.V.A.A.A.A.A.F.F.F.F.F.F.F.F.F.F.F.H.H.H.H.H.H.H.H.H.H.H.H.G.G.G.G.H.H.H.H.G.G.G.G.G.G.G.G.H.H.H.H.H.H.H.H.F.F.F.F.F.F.F.F.F.F.F.F.F.F.F.V.A.A.A.A.V.V.V.V.V.V.V.V.V.V.V.V.S.B.B.B.C.C.B.B.B.c.c.c.c.c.c.c.x.x.x.z.z.z.z.z.l.l.l.l.l.j.j.j.l.j.j.j.h.h.9.9.h.9.9.9.*.*.>.>.p.p.=.=.=.=.p.=.:.:.:.:.:.=.=.=.=.=.=.=.=.=.=.=.:.&.@.*.e.>.:.$.p.s.#.$.$.#.:.:.&.&.%.*.*.&.&.&.=.=.=.=.=.=.=.=.*.#.%.K.",
"=.=.=.=.=.=.=.=.=.=.=.=.=.=.=.=.=.=.=.=.=.=.=.=.=.=.=.=.=.=.=.=.=.=.=.=.=.=.=.=.=.=.=.=.-.=.-.-.9.9.9.9.9.9.h.h.h.h.h.h.j.j.j.h.v.j.j.n.n.l.6.6.yXvXNXDXFXDXBXmX).Z.v.v.c.P.B.c.B.B.B.V.V.V.V.V.V.V.V.S.V.S.A.A.V.V.F.A.A.F.F.F.A.A.F.F.F.F.F.F.F.F.G.G.F.F.F.F.H.H.H.H.H.H.H.H.G.G.G.G.G.G.G.G.G.G.G.G.G.G.G.D.G.G.F.G.F.F.G.G.F.F.F.F.F.F.G.G.F.F.F.F.F.F.A.A.F.F.F.A.A.Z.V.V.A.A.A.V.V.V.V.V.V.V.V.V.V.C.C.C.B.B.B.B.B.B.B.B.x.x.x.x.x.z.z.z.l.l.l.l.l.l.l.l.l.l.j.j.j.h.h.h.0.0.0.0.0.e.e.e.%.%.-.-.-.;.%.%.=.=.=.-.*.*.&.%.=.=.=.=.=.=.=.=.#.&.e.e.e.e.:.#.>.>.>.:.>.:.>.>.a.p.$...%.=.-.-.=.=.=.=.=.=.=.=.*.#.%.K.",
"=.=.=.=.=.=.=.=.=.=.=.=.=.=.=.=.=.=.=.=.=.=.=.=.=.=.=.=.=.=.=.=.=.=.=.=.=.=.=.=.=.=.-.-.-.-.-.-.9.9.9.h.9.h.0.0.0.h.h.j.j.j.j.j.j.h.b.n.n.w.Z.{.BXSXGXKXJXJXJXJXmX<XD.v.v.B.V.V.C.V.V.V.V.V.V.V.V.V.V.V.V.V.A.A.F.F.F.F.F.F.F.F.F.F.F.F.F.F.H.H.G.G.G.G.G.G.G.G.H.H.G.G.G.G.H.G.G.G.G.G.G.G.G.G.G.G.G.G.G.G.G.G.D.D.D.D.D.D.D.D.G.G.H.G.G.G.G.G.H.H.H.F.F.F.F.F.F.F.F.F.F.A.Z.Z.A.A.V.V.V.V.V.V.S.V.V.V.V.V.V.V.B.B.B.B.B.B.B.B.c.c.c.c.c.c.c.c.z.z.l.l.l.l.l.l.l.l.l.j.j.j.h.j.9.9.9.h.h.-.-.-.b.9.9.-.;.-.9.b.&.&.&.*.&.&.&.%.=.=.=.=.=.=.=.=.%.>.b.b.=.%.%.%.&.,.e.e.e.>.*.&.@.*.e.e.>.*.,.*.=.=.=.=.=.=.=.=.*.i.%.K.",
"=.=.=.=.=.=.=.=.=.=.=.=.=.=.=.=.=.=.=.=.=.=.=.=.=.=.=.=.=.=.=.=.=.=.=.=.=.=.=.=.=.-.-.-.-.-.-.9.9.9.h.9.9.h.h.h.0.0.h.j.j.j.j.h.q.q.b.n.l.w.[.uXMXNXBXGXKXHXHXFXJXmX_.g.v.B.L.Z.V.V.V.V.V.V.V.V.V.V.V.V.V.A.A.A.F.F.F.F.F.F.F.F.H.H.H.H.H.H.H.H.G.G.G.G.G.G.G.G.D.D.D.D.G.G.G.G.G.G.G.G.G.G.G.G.G.G.G.G.G.G.G.G.D.D.D.D.D.D.D.D.G.G.G.G.G.G.G.G.H.H.H.H.H.H.H.H.F.F.F.F.F.F.Z.Z.A.A.A.V.V.V.V.V.S.S.V.V.V.V.V.V.B.B.B.B.B.B.B.B.c.c.c.c.c.z.z.c.z.z.l.l.l.l.l.l.l.l.l.l.j.j.j.h.9.j.b.b.j.h.9.q.,.>.e.e.e.*.*.>.=.=.=.:.:.:.:.:.=.=.=.=.=.=.=.=.e.=.$.$.$.#.;.*.:.:.&.%.%.%.=.=.-.-.=.$.$.#.#.#.=.=.=.=.=.=.=.=.*.#.%.K.",
"=.=.=.=.=.=.=.=.=.=.=.=.=.=.=.=.=.=.=.=.=.=.=.=.=.=.=.=.=.=.=.=.:.:.:.:.=.=.=.-.-.-.-.-.9.9.9.9.r.9.p.k.j.0.l.k.s.i.X.g.'.7XbXDXmXcX(.G.f.g.uXNXBXBXBXBXBXBXBXVXHXHXMXg.C.L.Z.f.V.F.F.C.C.C.V.F.V.V.A.F.F.F.F.F.F.F.F.F.F.F.F.F.H.H.H.H.G.H.H.G.D.D.D.D.D.D.D.D.D.D.D.D.D.D.D.D.D.D.D.D.D.G.G.G.D.D.D.D.D.D.D.D.D.D.D.D.D.D.D.D.D.D.D.D.D.D.D.D.G.G.F.F.H.H.H.H.F.F.F.F.F.F.F.Z.F.F.F.F.Z.V.V.V.A.V.V.V.V.V.V.V.B.B.B.C.C.C.B.B.B.B.c.c.z.z.c.c.z.z.z.l.l.l.l.l.l.l.l.j.j.j.j.j.j.j.j.h.h.9.9.9.9.9.-.-.-.-.=.=.-.&.&.=.%.=.=.=.=.=.=.=.=.=.=.=.=.=.=.=.=.=.=.=.=.=.=.=.=.=.=.=.=.=.=.=.=.=.=.=.=.=.=.=.=.=.=.=.*.#.%.K.",
"=.=.=.=.=.=.=.=.=.=.=.=.=.=.=.=.=.=.=.=.=.=.=.=.=.=.=.=.=.=.=.=.:.:.:.=.=.=.-.=.=.-.-.-.9.h.9.9.e.9.h.h.j.0.j.k.5.C.{.MXDXHXKXKXKXHXVXMX|.|.VXSXNXNXBXBXBXBXBXBXxXHXFX`.P.P.C.f.C.A.F.V.C.V.F.F.V.V.F.F.F.F.F.F.F.F.F.F.F.F.F.H.H.H.H.H.G.G.D.D.G.G.G.G.G.G.G.G.G.G.G.G.G.G.G.G.G.G.G.G.G.G.G.G.G.G.G.G.G.G.G.G.G.G.G.G.G.G.G.G.G.G.G.G.G.D.D.D.D.D.G.H.H.H.H.H.F.F.F.F.F.F.F.F.F.F.F.F.Z.Z.V.V.A.A.A.V.V.V.V.V.B.B.B.B.C.C.B.B.B.B.B.c.c.z.z.c.c.c.z.l.l.l.l.l.l.l.l.l.j.j.j.j.j.j.j.h.9.h.9.9.9.9.-.-.-.=.=.=.-.-.&.&.=.=.=.=.=.=.=.=.=.=.=.=.=.=.=.=.=.=.=.=.=.=.=.=.=.=.=.=.=.=.=.=.=.=.=.=.=.=.=.=.=.=.=.=.*.#.%.K.",
"=.=.=.=.=.=.=.=.=.=.=.=.=.=.=.=.=.=.=.=.=.=.=.=.=.=.=.=.=.=.=.=.:.:.=.=.=.-.-.-.-.-.-.-.9.9.9.h.b.h.0.j.b.e.h.p.8.'.MXDXGXJXKXLXKXKXGXFXBXZXFXZXmXCXCXCXNXNXNXBXkXKXJXwXv.c.B.V.C.S.A.A.V.Z.F.F.F.F.F.F.F.F.F.F.H.H.H.H.H.H.H.H.D.G.G.G.D.D.D.D.G.G.G.G.G.G.G.G.G.G.G.G.G.G.G.G.G.G.G.G.G.G.G.G.G.G.G.G.G.G.G.G.G.G.G.G.G.G.G.G.G.G.G.G.G.G.G.D.D.D.D.D.D.D.G.G.H.H.H.H.H.H.H.H.F.F.F.F.F.F.V.V.A.A.V.V.V.V.V.V.V.V.V.B.B.B.C.B.B.B.B.c.c.c.c.c.c.z.z.z.l.l.l.l.l.l.l.l.l.j.j.j.j.j.j.j.h.9.h.9.9.9.9.-.-.-.=.=.-.-.-.&.=.=.=.=.=.=.=.=.=.=.=.=.=.=.=.=.=.=.=.=.=.=.=.=.=.=.=.=.=.=.=.=.=.=.=.=.=.=.=.=.=.=.=.=.*.#.%.K.",
"=.=.=.=.=.=.=.=.=.=.=.=.=.=.=.=.=.=.=.=.=.=.=.=.=.=.=.=.=.=.=.=.:.=.=.=.-.-.-.-.-.-.-.9.9.9.h.h.b.h.0.0.n.b.j.k.|.MXVXCXZXZXVXDXxXlXZXCXmXCXCXgXCXCXCXCXCXBXBXBXCXGXGXyXf.V.V.S.C.B.S.S.A.A.Z.Z.F.F.F.H.F.F.F.F.H.H.H.H.H.G.G.G.D.D.D.D.D.D.D.D.G.G.G.G.G.G.G.G.^.^.^.^.^.^.^.^.G.G.^.^.^.^.^.^.^.^.^.^.^.^.^.^.^.^.^.^.^.^.^.^.^.^.G.G.G.G.G.G.D.D.D.D.D.D.D.D.G.G.G.H.H.H.H.H.F.F.F.F.F.F.Z.Z.A.A.A.A.A.A.A.V.V.V.V.V.V.V.B.B.B.B.B.B.c.c.c.c.c.c.z.z.z.l.l.l.l.l.l.l.l.l.j.j.j.j.j.j.j.h.h.h.9.9.9.9.-.-.-.-.-.-.-.-.&.=.=.=.=.=.=.=.=.=.=.=.=.=.=.=.=.=.=.=.=.=.=.=.=.=.=.=.=.=.=.=.=.=.=.=.=.=.=.=.=.=.=.=.*.#.%.K.",
"=.=.=.=.=.=.=.=.=.=.=.=.=.=.=.=.=.=.=.=.=.=.=.=.=.=.=.=.=.=.=.=.=.=.=.=.=.-.-.-.-.-.-.9.h.h.9.h.a.h.w.l.b.b.z.V.NXVXVXVXCXMXNXVXCXCXCXVXNXMXVXMXNXNXNXBXBXBXBXBXmXAXFXMX'.XX!.f.S.S.B.S.S.V.A.Z.H.H.H.H.H.H.H.H.G.G.G.D.D.D.D.D.G.G.G.G.G.G.G.G.G.G.G.G.^.^.G.G.^.^.^.^.^.^.^.^.^.^.^.^.^.^.^.^.^.^.^.^.^.^.^.^.^.^.^.^.^.^.^.^.^.^.^.^.G.G.G.G.G.G.G.G.G.G.G.G.D.D.D.D.D.H.G.G.H.H.H.H.H.H.H.H.A.A.A.A.A.A.A.V.V.V.V.V.V.V.V.V.C.C.B.B.B.c.c.c.c.c.c.z.c.z.l.l.z.z.l.l.l.l.l.l.l.j.j.j.j.j.j.h.9.9.9.9.9.9.-.-.;.;.-.-.&.&.&.=.=.=.=.=.=.=.=.=.=.=.=.=.=.=.=.=.=.=.=.=.=.=.=.=.=.=.=.=.=.=.=.=.=.=.=.=.=.=.=.=.*.#.%.K.",
"=.=.=.=.=.=.=.=.=.=.=.=.=.=.=.=.=.=.=.=.=.=.=.=.=.=.=.=.=.=.=.=.=.=.=.=.-.-.-.-.-.-.9.h.h.h.h.h.h.k.l.l.h.k.F.=XSXmXmXSXSXmXmXBXBXBXSXSXSXSXVXBXNXNXNXNXNXNXNXNXBXAXFXDXBXmX+X).G.A.C.S.S.S.A.Z.H.H.H.H.H.H.G.G.D.D.D.D.D.D.G.G.G.G.G.G.G.^.^.^.^.^.^.^.^.^.^.^.^.^.^.^.^.^.^.^.^.^.^.^.^.^.^.^.^.^.^.^.^.^.^.^.^.^.^.^.^.^.^.^.^.^.^.^.^.^.^.^.^.^.^.^.G.G.G.G.D.D.D.D.D.D.D.G.G.G.H.H.H.H.H.H.F.F.F.F.F.F.F.F.A.A.A.V.V.V.V.V.V.C.C.C.B.B.B.c.c.c.c.c.z.c.x.z.z.c.z.l.l.l.l.l.l.l.j.j.j.h.h.h.h.h.9.9.9.9.-.-.;.;.;.-.-.&.=.&.=.=.=.=.=.=.=.=.=.=.=.=.=.=.=.=.=.=.=.=.=.=.=.=.=.=.=.=.=.=.=.=.=.=.=.=.=.=.=.=.*.#.%.K.",
"=.=.=.=.=.=.=.=.=.=.=.=.=.=.=.=.=.=.=.=.=.=.=.=.=.=.=.=.=.=.=.=.=.=.=.=.-.-.-.-.-.9.9.h.9.h.h.h.h.0.l.j.p.f.(.NXSXAXmXBXBXmXmXBXSXmXmXmXSXSXBXmXbXbXbXbXbXbXbXbXMXAXKXLXHXHXAXCX=X/.Z.S.S.S.F.G.H.H.G.H.G.G.D.D.G.G.G.G.G.G.G.G.G.G.G.^.^.^././.^.^.^.^.^.^.^.^.^.^.^.^.^.^.).^.^.^.^.^.^.^.^.^.^.^.).^.^.^.^.^.^.^.^.^.^.^.^.^./././.^.^.^.^.^.^.^.^.^.^.G.G.G.G.G.G.G.D.D.G.G.D.D.D.D.G.G.H.H.F.F.F.F.F.F.F.F.A.A.V.V.V.V.V.V.V.V.B.B.B.B.B.B.B.B.c.c.c.z.c.x.c.z.c.z.l.l.l.l.l.l.l.j.j.j.h.j.h.h.h.9.h.9.9.-.;.;.-.-.-.-.&.=.=.=.=.=.=.=.=.=.=.=.=.=.=.=.=.=.=.=.=.=.=.=.=.=.=.=.=.=.=.=.=.=.=.=.=.=.=.=.=.=.*.#.%.K.",
"=.=.=.=.=.=.=.=.=.=.=.=.=.=.=.=.=.=.=.=.=.=.=.=.=.=.=.=.=.=.=.=.=.=.=.-.-.-.-.9.9.9.9.h.9.h.h.h.9.0.l.k.;.f.|.HXVXVXVXCXMXMXMXMXDXDXVXMXjX6XfXbXcXcXcXcXcXcXvXvXuXmXKXLXHXJXJXJXwX{.Z.S.S.S.G.G.H.H.G.G.G.G.D.D.G.G.G.G.G.G.G.G.D.D.^.^.^.^.^.^./././././././.^.).).).).).).).).).).).).).).).).).).).).).).).).).).).).).).).)././././././.^.^.^.^.^.^.^.^.G.G.G.G.G.G.G.G.D.G.D.D.D.D.G.G.G.G.F.F.F.F.F.F.F.F.A.A.A.V.V.V.V.V.V.V.V.B.B.B.B.B.B.B.B.c.c.z.z.c.c.c.z.z.l.l.l.l.l.l.l.l.j.j.j.j.h.h.h.9.h.9.9.9.q.;.-.-.-.-.-.-.=.=.=.=.=.=.=.=.=.=.=.=.=.=.=.=.=.=.=.=.=.=.=.=.=.=.=.=.=.=.=.=.=.=.=.=.=.=.=.=.*.i.%.K.",
"=.=.=.=.=.=.=.=.=.=.=.=.=.=.=.=.=.=.=.=.=.=.=.=.&.=.=.=.=.=.=.=.&.-.-.-.-.-.9.9.q.q.q.q.q.9.9.9.b.j.n.n.j.f.wXBXbXbXvXtXrXrXcXvX7X7XyXvXvXcXrXOXcXcXnXnXcXvXvXuXtXrXyXbXDXHXKXLXGXuXH.S.I.L.].I.H.G.G.G.G.G.G.G.G.G.G.G.G.G.^.^.^.^.^.^.^.^.^.^.).)././././././.(.(.(.(.(.(.(.(.(.(.(.(.(.(.).).).(.(.(.(.(.(.(.(.(.(.(.(.(.).)././././././.).).^.^.^.^.^.^.^.^.^.^.G.G.G.G.G.G.G.G.G.G.G.G.G.G.F.F.F.F.F.F.F.F.F.F.V.V.V.V.V.V.V.V.V.V.S.B.B.B.N.S.Z.V.v.k.l.x.n.c.v.v.v.v.n.m.s.n.w.w.n.h.;.n.j.j.h.j.h.b.b.b.9.9.9.-.-.-.=.=.>.=.=.=.&.&.&.&.=.=.=.=.=.=.=.=.=.=.=.=.=.=.=.=.=.=.=.=.=.=.=.=.=.=.=.=.=.=.=.=.*.#.%.K.",
"=.=.=.=.=.=.=.=.=.=.=.=.=.=.=.=.=.=.=.=.=.=.=.=.=.=.=.=.=.=.=.=.-.-.-.-.-.-.9.9.0.0.0.0.h.h.h.h.k.0.l.j.l.C.wXmXnXnXcXcXrXrXcXcXtXvXvXrXyXcXbXbXmXmXmXmXmXbXvXtXvXcXrXbXBXFXJXJXJXVX_.D.G.Z.D.H.G.G.G.D.G.G.G.G.G.G.G.^.G.^.^.^.^.^.^.^.^.^.^.^.).)./././././.(.(.(.(.(.(.(.(.(.(.(.(.(.(.(.(.(.(.(.(.(.(.(.(.(.(.(.(.(.(.(.(.(.(./././././././.^.^.^.^.^.^.^.^.^.^.^.G.G.G.G.G.G.G.G.G.G.G.G.G.F.F.F.F.F.H.F.F.F.F.A.V.V.V.V.V.V.V.V.V.S.S.B.B.B.C.C.V.P.c.C.Z.!.{.wXuXwX`.g.6.k.l.x.w.0.k.j.j.j.j.h.h.j.h.b.b.9.9.9.-.-.-.=.=.>.>.=.=.=.&.&.&.=.=.=.=.=.=.=.=.=.=.=.=.=.=.=.=.=.=.=.=.=.=.=.=.=.=.=.=.=.=.=.=.*.#.%.K.",
"=.=.=.=.=.=.=.=.=.=.=.=.=.=.=.=.=.=.=.=.=.=.=.=.=.=.=.=.=.=.=.=.-.=.-.-.-.9.9.9.b.b.b.b.j.j.j.h.6.w.l.k.N.S.tXnXnXnXcXcXvXvXvXbXtXMXbXnXnXmXSXSXGXFXFXFXBXbXcXyXcXcXcXcXmXSXHXJXJXHX7X).G.H.H.H.G.D.D.G.G.G.G.^.^.^.^.^.^.^.^.^.).).).).).).).).).).(.(.).(.(.(.(.(.(.(.(.(.(.(.(.(.(.(.(.(.(.(.(.(.(.(.(.(.(.(.(.(.(.(.(.(.(.(.(.(.(.(.(.(.).).).).).).).).).).^.^.^.^.^.^.D.D.G.G.G.G.G.G.G.G.G.G.G.H.H.H.H.H.F.F.F.A.A.V.V.A.V.V.V.V.V.S.B.B.v.C.V.P.x.C./.wXDXFXHXHXFXBXbXcXZ.v.l.l.q.j.n.q.j.j.j.j.j.j.h.h.9.9.9.9.-.-.-.=.=.=.=.=.=.=.=.=.=.=.=.=.=.=.=.=.=.=.=.=.=.=.=.=.=.=.=.=.=.=.=.=.=.=.=.=.=.=.=.=.*.#.%.K.",
"=.=.=.=.=.=.=.=.=.=.=.=.=.=.=.=.=.=.=.=.=.=.=.=.=.=.=.=.=.=.=.-.-.-.-.-.9.9.9.9.b.b.b.j.j.j.h.h.x.l.m.k.k.V.tXcXbXvXrXrXrXtXvXvXeXrXrXnXmXSXFXHXJXJXJXHXFXBXnXyXcXcXcXrXcXbXNXSXKXSXyX!.G.G.G.H.D.D.G.G.G.^.^.^.^.^.^.^.^.^.^.^.).).).).).).).).(.(.(.(.(.(.(.(.(.(.(.(.(.(.(.(.(.(.(.(.(.(.(.(.(.(.(.(.(.(.(.(.(.(.(.(.(.(.(.(.(.(.(.(.(.(.(.(.).).).).).).).).^.^.^.^.^.^.^.^.G.G.G.G.G.G.G.G.G.G.G.G.D.D.G.G.F.F.F.F.A.A.A.A.A.V.A.V.V.S.B.B.C.B.P.J.C.D.wXVXKXKXKXJXJXJXJXHXrXD.f.k.k.w.l.k.j.j.j.j.j.j.j.j.9.9.9.9.9.-.-.-.=.=.=.=.=.=.=.=.=.=.=.=.=.=.=.=.=.=.=.=.=.=.=.=.=.=.=.=.=.=.=.=.=.=.=.=.=.=.=.=.*.#.%.K.",
"=.=.=.=.=.=.=.=.=.=.=.=.=.=.=.=.=.=.=.=.=.=.=.=.=.=.=.=.=.=.=.-.-.-.-.9.9.9.9.9.h.h.h.h.h.h.k.k.n.b.m.p.k.C.eXcXvXrX.XXXXX.X X X.X+X+XmXFXHXHXJXKXKXJXJXHXSXmXbXtXtXtXtXtXyXnXnXnXbX XZ.V.I.[.[.G.G.G.G.^.^.^.^.^.^.^.^.).).).).(.(.(.(.(.(.(.(.(.(.(.(.(.(.(.(.(.(.(.(.(.(.(.(.(.(.(.(.(.(.(.(.(.(.(.(.(.(.(.(.(.(.(.(.(.(.(.(.(.(.(.(.(.(.(.(.(.(.(.(.(.~.).).).).).).).).).).^.^.^.^.G.G.G.G.G.G.G.D.D.D.D.D.H.H.F.F.F.A.A.A.A.A.A.V.S.V.B.B.C.B.c.C.[.uXCXZXZXAXLXLXLXLXLXGXHXyXS.k.z.x.0.j.l.j.j.j.h.j.j.j.h.h.h.9.9.-.-.-.=.=.=.=.=.-.-.-.=.=.=.=.=.=.=.=.=.=.=.=.=.=.=.=.=.=.=.=.=.=.=.=.=.=.=.=.=.=.=.=.*.#.%.K.",
"=.=.=.=.=.=.=.=.=.=.=.=.=.=.=.=.=.=.=.=.=.=.=.=.=.=.=.=.=.=.=.=.-.-.9.9.9.9.h.h.9.9.h.h.j.l.l.l.b.b.b.k.C.!.tXvXtXoX|.}.|.XX}.}.XX+XdXGXJXKXKXJXKXKXKXKXKXGXSXBXtXtXtXtXtXcXnXfXtXtX0XZ.A.I.^.[.G.G.^.^.^./././.^.).).).).).).).~.~.~.~.~.~.~.~.(.(.(.(.(.`.(.(.`.`.`.`.(.(.`.`.`.`.`.`.(.(.(.(.`.`.`.`.(.(.`.`.`.`.`.`.`.`.`.`.`.`.`.(.(.(.(.(.(.(.~.~.~.~.~.~.).).).).).).).).^.^.^.^.^.^.^.^.G.G.G.D.G.D.D.D.G.H.H.H.F.F.F.A.A.A.A.A.S.S.S.B.V.V.B.Z.wXVXDXZXDXVXCXZXCXGXHXHXJXFX,Xf.l.n.l.l.l.l.j.j.j.h.j.j.h.h.h.h.9.9.-.-.=.=.=.=.=.=.=.-.=.=.=.=.=.=.=.=.=.=.=.=.=.=.=.=.=.=.=.=.=.=.=.=.=.=.=.=.=.=.=.=.*.#.%.K.",
"=.=.=.=.=.=.=.=.=.=.=.=.=.=.=.=.=.=.=.=.=.=.=.=.=.=.=.=.=.=.>.>.-.9.9.h.9.h.h.h.q.0.h.j.l.z.c.B.n.q.k.Z.XXdXSXZXbXnXdXdXnXnX+X|.+XcXSXHXKXKXKXHXHXHXJXKXKXKXFXGXvXrXyXcXbXBXBXZXVXNXvX'.H.H.H.(.G.^.^.^././././.).).).).).(.(.(.~.~.~.~.~.~.~.~.(.(.(.(.`.`.`.`.`.`.`.`.`.`.`.`.`.`.`.`.`.`.`.`.`.`.`.`.`.`.`.`.`.`.`.`.`.`.`.`.`.`.(.(.(.(.(.(.(.(.(.(.~.~.~.~.(.(.(.).).).).)./././.^.^.^.^.^.G.G.G.G.G.G.G.G.G.G.H.H.H.F.F.F.A.A.A.A.V.V.V.S.P.V.S._.nXSXDXVXmXNXBXDXDXFXHXHXKXJXVX!.w.n.n.l.l.l.l.j.j.j.h.j.h.h.h.h.9.-.-.-.-.-.=.=.=.-.-.-.=.=.=.=.=.=.=.=.=.=.=.=.=.=.=.=.=.=.=.=.=.=.=.=.=.=.=.=.=.=.=.=.*.#.%.K.",
"=.=.=.=.=.=.=.=.=.=.=.=.=.=.=.=.=.=.=.=.=.=.=.=.=.=.=.=.=.>.>.>.9.9.9.h.9.h.h.h.0.0.j.l.x.J.J.J.J.5.f.'.SXJXJXLXSXSXGXHXHXHXBXnX+XBXHXJXLXLXHXHXHXJXJXJXKXJXHXHXbXcXdXdXBXHXJXJXJXJXSX|.).H.g.).^.^.^.^.)./././.).).).).(.(.(.(.(.(.(.(.(.(.(.(.(.(.(.(.`.`.`.`.`.`.`.'.`.`.`.`.`.'.`.`.`.`.`.`.`.`.`.'.`.`.`.`.`.`.`.`.`.`.`.`.`.`.`.(.(.(.(.(.(.(.(.(.(.~.~.~.(.(.(.(.).).).).).).).)././.^.^.G.G.G.G.G.G.G.G.G.G.G.H.H.H.F.F.A.F.A.A.S.V.V.V.K.C.g.1XFXHXBXMXBXBXBXBXSXGXKXJXLXKXHXqXw.p.M.n.l.l.l.l.j.j.j.j.h.h.h.h.9.-.-.-.-.-.-.=.=.-.-.-.=.=.=.=.=.=.=.=.=.=.=.=.=.=.=.=.=.=.=.=.=.=.=.=.=.=.=.=.=.=.=.=.*.#.%.K.",
"=.=.=.=.=.=.=.=.=.=.=.=.=.=.=.=.:.&.&.=.p.=.=.e.9.q.9.9.a.#.=.9.e.e.0.k.k.h.e.r.b.s.a.6.pXKXKXHXHXGXCXBXSXGXKXJXHXHXHXHXHXKXKXKXKXKXJXJXJXKXKXGXKXKXKXJXJXJXJXJXNXcXyXyXbXFXJXJXKXLXKXKXZX|.!.U.).)././././././.).).~.~.~.~.~.~.(.(.(.(.(.(.(.(.(.(.`.`.`.`.`.`.`.`.`.`.$X$X$X$X'.'.'.'.'.'.'.'.'.'.'.'.'.'.'.'.$X$X$X$X`.`.`.`.`.`.`.`.`.`.`.(.(.(.(.(.(.(.(.(.(.(.(.(.(.(.).).).).).).)./././.).^.^.G.G.G.D.D.G.G.F.F.H.H.H.H.K.L.Z.g._.<X6X7XG.g.).uXVXBXSXAXVXVXNXNXCXSXFXHXLXKXJXMXg.f.f.7.B.v.f.f.f.0.e.b.b.n.r.0.h.;.p.b.9.9.9.-.-.-.=.=.=.=.=.=.=.=.=.=.=.=.=.=.=.=.=.=.=.=.=.=.=.=.=.=.=.=.=.=.=.=.=.=.*.#.%.K.",
"=.=.=.=.=.=.=.=.=.=.=.=.=.=.=.=.#.=.e.9.>.=.=.&.s.a.&.-.-.9.r.4.a.6.g.wXMXwX!.8.6.0.n.{.CXLXLXHXFXBXCXCXBXSXGXJXLXKXKXKXKXKXKXKXHXJXJXJXKXHXHXHXHXHXHXKXKXKXKXKXFXDXbXyXnXmXFXHXHXFXFXHXFXcX(.S././././.(.(.(.(.~.~.~.~.~.~.(.(.(.(.(.(.(.(.(.(.(.(.`.`.`.`.`.`.`.`.`.`.$X$X$X$X'.'.'.'.'.'.'.'.'.'.`.'.'.'.'.'.$X$X$X$X`.`.`.`.`.`.`.`.`.`.(.(.(.(.(.(.(.(.(.(.(.(.(.(.(.(.(.(.).).).).).).)./.^.).^.G.G.G.D.D.D.D.G.G.H.H.H.H.F.Z.~.tXDXFXHXJXMXyXyXbXMXMXbXnXMXBXDXSXZXZXCXFXKXKXJXnXQ.~.uXNXmXBXVXuX$XF.k.;.h.b.e.0.q.;.p.b.9.9.9.-.-.-.=.=.=.=.=.=.=.=.=.=.=.=.=.=.=.=.=.=.=.=.=.=.=.=.=.=.=.=.=.=.=.=.=.=.*.#.%.K.",
"=.=.=.=.=.=.=.=.=.=.=.=.=.=.=.=.#.=.e.e.,.=.<.:.=.-.9.-.p.p.h.0.f.&XFXJXJXJXJXFX|.!.!.tXHXKXAXDXnXyXyXyXnXCXBXFXKXKXJXJXJXHXGXSXBXSXSXGXGXGXBXmXmXmXSXGXHXHXJXJXJXHXFXbXnXnXbXNXmXnXfXNXDXMX{.g.^.^.^.).(.(.(.`.~.~.~.~.(.(.(.(.~.~._._._._._._.`.`.`.`.'.'.'.'._._._.'.$X$X$X$X$X'.'.'.'.'.'.'.'.'.'.'.'.'.'.'.$X$X$X$X'._._._.'.'.'.'.'.'.'.`._._.~.~._._._._.(.(.(.(.(.(.(.(.(.(.).).).)././.).).).^.^.G.G.G.D.D.D.D.D.D.G.G.g.$XMXFXJXKXKXKXJXHXZX+X+XyX<X,X7XnXBXVXBXCXGXGXxXKXJXJXBXDXJXJXKXJXJXKXFXMX&Xg.k.0.b.h.-.k.h.9.9.9.9.-.-.-.=.=.=.=.=.=.=.=.=.=.=.=.=.=.=.=.=.=.=.=.=.=.=.=.=.=.=.=.=.=.=.=.=.=.*.#.%.K.",
"=.=.=.=.=.=.=.=.=.=.=.=.=.=.=.=.#.%.*.*.&.:.:.:.*.q.e.>.a.s.p.%.Q.nXFXLXLXKXJXKXHXmXdXmXHXJXBXbXoXoXeXeXtXMXCXVXHXHXFXBXNXbXbXcXnXnXbXmXmXbXnXyXcXcXbXmXSXFXHXHXKXJXHXBXnXOXrXrXyXyXnXnXbXbX0X).D.D.^.).(.(.(.`.~.~.~.~.~.(.(.(.`.`.`.`.`.`.`.`.`.`.'.'.'.'.$X$X'.'.'.$X$X$X$X$X$X$X$X$X$X$X$X$X$X$X$X$X$X$X$X$X$X$X$X$X$X'.'.'.$X$X'.'.'.'.'.'.`.`.`.`.`.`.`.`.(.(.(.(.(.(.~.~.(.(.(.(.(.(.(.).).).).^.^.^.G.G.D.D.D.D.D.D.D.D.Q.uXFXKXLXKXJXHXJXJXmX+XoXwX0X0X+XyXrXbXBXDXDXSXBXHXJXHXFXFXKXKXKXKXLXLXKXJXGXpXv.q.b.b.;.h.0.9.9.9.9.-.-.-.=.=.=.=.=.=.=.=.=.=.=.=.=.=.=.=.=.=.=.=.=.=.=.=.=.=.=.=.=.=.=.=.=.=.*.#.%.K.",
"=.=.=.=.=.=.=.=.=.=.=.=.=.=.=.=.#.%.@.*.,.=.&.%.i.=.=.=.a.b.n.w.vXcXZXHXHXFXSXSXKXJXJXHXGXmXcXoXeXeXqXqXwXyXyX7XVXMXyX+X|.XX X.XvXvXvXcXcXcXvXtXeXrXrXvXbXmXNXBXJXHXSXnXyXyXtXtXrXvXvXvXcXyX'.Q.).^.).).~.(.(.(.~.~.~.~.~.~.~.~._._._._._._._._.'.'.'.$X$X$X$X$X@X@X@X$X$X$X$X$X$X$X$X$X$X$X@X$X$X$X$X$X$X$X@X$X$X$X$X$X$X@X@X@X$X$X$X$X$X'.'.'._._._._._._._._.(.(.(.(.(.(.(.(.(.(.(.(.(.(.(.(.).).).).^.^.^.^.G.G.G.G.G.G.G.G.yXNXSXAXAXHXDXMXmXBXvXeXtXeXqXqXeXqX0XeXtXMXNXmXBXBXmXnXmXCXGXGXCXDXHXKXKXKXKXKXZ.5.b.b.h.j.0.9.9.9.9.9.-.-.-.-.=.=.=.=.=.=.=.=.=.=.=.=.=.=.=.=.=.=.=.=.=.=.=.=.=.=.=.=.=.=.=.=.*.#.%.K.",
"=.=.=.=.=.=.=.=.=.=.=.=.=.=.=.=.=.&.*.>.a.%.X.5.c.C.C.w.X.X.w.K.0XeXmXGXBXoX,XiXZXmXFXFXbXOXoXoXqXqXqX XXXXX<X|.qX.XXX{.{.{.{.{.eXrXrXrXrXrXeXeX X.X.XeXrXcXvXvXmXmXbXnXcXbXvXrXrXtXtXvXcXrX|.Q.~.~.~.~.~.~.~.~.~.~._._._.`.`.`._._._._._._._._.$X$X$X$X$X$X$X$X@X@X@X$X$X$X$X$X$X$X%X%X%X%X#X%X$X$X%X%X%X%X#X%X$X$X$X$X$X@X@X@X$X$X$X$X$X$X$X$X_._._._._._._._.`.`.`.`.(.(.(.(.(.(.(.(.(.~.~.~.~.~.).).).^.^.^.^.^.^.^.G.G.G.G.MXNXBXBXbXrX<X=XXXXX X0XqX.XXXoXqX.XXXXXoXcXmXSXBXBXNXNXNXCXMXMXCXmXSXHXHXHXFXHX0X6.h.b.h.l.q.h.h.h.9.9.-.-.-.-.=.=.=.=.=.=.=.=.=.=.=.=.=.=.=.=.=.=.=.=.=.=.=.=.=.=.=.=.=.=.=.=.*.#.%.K.",
"=.=.=.=.=.=.=.=.=.=.=.=.=.=.=.=.-.*.>.a.p.;.v.^.VXVXNXuX/.C.F.=X0XeXcXnXcXtX0XXXrX+XnXbXeX.XqXeXXXeXeX.XqXeXeXqX'.XXqXeXeXqX XXX{.XX.XeXoX.XXX{.{.XXXX X.X.XeXeXeXeXrXcXvXbXvXOXcXtXtXvXvXbXtXwXXXXX'.'.'.`.(.~._._._._._._._._._._._._.@X@X_._.'.'.$X$X%X%X%X%X@X$X$X$X%X%X%X%X$X$X%X%X%X%X%X%X$X%X%X%X%X%X%X%X$X%X%X%X%X$X%X@X$X$X$X$X%X$X'.'._._._._.@X_._._.`.`.`.`.`.`.`.`.(.(.(.(.(.(.(.(.~.~.~.).).).^.^.^.^.^.^.^.G.G.G.yXvXMXNXrXXXXXqX.X.X.XqXXXOXnXnXyXyXeXeXcXNXFXJXJXFXSXBXmXBXVXCXSXBXNXBXDXFXGXZXMX8.k.b.j.n.q.b.h.h.9.9.-.-.-.-.=.=.=.=.=.=.=.=.=.=.=.=.=.=.=.=.=.=.=.=.=.=.=.=.=.=.=.=.=.=.=.=.*.#.%.K.",
"=.=.=.=.=.=.=.=.=.=.=.=.=.=.=.=.q.*.:.i.$.;.^.MXxXfXfXMXMXwXXXoXoX+X<XwXiX XOXmX0XXXyXrX.X0XeX.XwXeXeXoX.XoXqX XqXqXqXeXoXoXOX+X XXXXXXXXXXX{.{. X X X XXX{.{.{.0X0XeXoXrXcXbXcXcXrXyX+X+X+XqXiXeXqXwX,X%X`.`.(._._._._._._._._._._._._._._._._.$X$X$X$X%X%X%X%X$X$X$X%X%X%X%X%X%X%X%X%X%X%X%X%X%X%X%X%X%X%X%X%X%X%X%X%X%X$X%X%X$X$X$X$X%X%X$X$X_._._._._._._._.'.'.'.`.`.`._._.(.(.(.(.(.(.(.(.~.~.~.).).).).).^.^.^.^.^.^.G.G.+XyXtXyXOXOXoXoXcXrXrXeXOXbXFXGXDXCXnXbXBXHXJXKXKXLXHXJXJXKXFXSXmXDXVXCXBXHXJXKXDX8.q.b.j.n.q.b.9.9.9.9.-.-.-.-.=.=.=.=.=.=.=.=.=.=.=.=.=.=.=.=.=.=.=.=.=.=.=.=.=.=.=.=.=.=.=.=.*.#.%.K.",
"=.=.=.=.=.=.=.=.&.=.=.=.=.=.*.=.i.s.p.;.v.[.iXuX.X.X.X.X.X.X.XoX X X.X.X.X.X.X.X.X.X.X.X.XoXoXoX0X X X X X X X XqXqXqXqXqXqXqXqX{.{.{.{.{. X X X{.{.{.{.{.XXXXXX{.{.{. X X X X X{.{.{.{.XX{.{.{.XXXXXXXX.XoXeXeX'.'.'.'.'.'.@X'.$X$X$X$X$X$X$X$X%X%X%X%X%X%X%X%X%X%X%X%X%X%X%X%X%X%X,X,X%X%X%X%X%X%X,X,X%X%X%X%X%X%X%X%X%X%X%X%X%X%X%X%X%X%X%X%X$X$X$X$X$X$X'.'.'.'.$X`.'.`.'.'.|.'._.).(.=X=X{.Q.~.~.(.(.[.[.[.g.).(.[.[.G.D.H.XXXXqXeXoX.XoXoX X X+XmXFXJXJXJXHXKXKXKXmXyXrXMXFXDXNXcXOXOXbXNXyXeXvXNXBXmXKXJXNX8.l.b.w.f.k.m.l.5.X.;.k.p.*.*.-.=.=.=.=.=.=.:.=.=.=.=.=.=.=.=.=.=.=.=.=.=.=.=.=.=.=.=.=.=.=.=.*.#.%.K.",
"=.=.=.=.=.=.=.=.&.&.&.&.*.=.*.*. .r.w.L.{.eXrXOX{.{.{.{.{.{.{.{.{.{.{.{.{.{.`.`. X=X0X0X0X0X0X0XoXeXeXoXoX.XoXoXXXXXXXXXXXXXXX.X X X X X X X X.XXXXXXXXXXXXXXXXXXXXXXXXXXXXXXXXXXXXXXXXXXXXXXXXXXXXXXXXXXXXXXXXX'.'.'.'.'.'.'.'.$X$X$X$X%X%X%X%X%X%X%X%X%X%X%X%X%X%X%X%X%X%X%X%X#X%X,X,X%X%X%X%X#X%X,X,X%X%X%X%X%X%X%X%X%X%X%X%X%X%X%X%X%X%X%X%X%X$X$X$X'.'.'.'.'.'.'.$X'.'.'.'.&X$X~.).~.`.`.).(.(.-X$X$X(.).!.-X).).(.(.^.D.G..X.XXX X X X X}.XXeXNXFXHXJXJXJXHXKXKXGXbXOX.XeXnXyXyXOXXX+X+XOXeXoXeXbXBXSXGXJXtXg.f.c.w.r.r.k.q.q.0.h.k.j.0.e.-.-.=.=.=.=.=.=.=.=.=.=.=.=.=.=.=.=.=.=.=.=.=.=.=.=.=.=.=.=.=.=.*.#.%.K.",
"=.=.=.=.=.=.=.=.>.>.>.>.>.b.e.e.K.I.[.{. XXX}.}.{.{.{.{. XXXXX0X.X.X.X.X.XqXeXoX XqXqXqXqXqXqXeXoXoXoXoXoXoXoXoXeXeXeXeXeXeXeXeXqXqXeXeXeXeXeXeXeXoXeXeXeXeXeXeXoXoXoXoXoXoXoXoXoXoXoXoXoXoXoXoXqX0X0X X X{.{.'.'.'.$X'.$X$X$X@X$X$X$X%X%X%X%X%X%X%X%X%X%X%X%X%X#X#X;X;X#X#X#X#X,X,X,X,X,X,X,X,X,X,X,X,X,X,X,X,X#X#X;X;X#X#X#X#X%X%X%X%X%X%X%X%X%X%X$X$X$X$X'.'.$X$X$X'.$X_._._.~.).).~._.'.Q.Q.!.^.^./.).~._.Q.D.).wXVXVXyX~.).+XXXXXXX X X{.{.+XbXFXHXHXHXHXKXHXJXJXHXNXoXXXoX|.XXXXqX0XwXXX|.eXXX+XtXNXBXGXLX/.Q.bXMXU.b.e.J.b.b.0.q.0.j.j.9.-.-.-.=.=.=.&.&.=.=.=.=.=.=.=.=.=.=.=.=.=.=.=.=.=.=.=.=.=.=.=.=.*.#.%.K.",
"=.=.=.=.=.=.=.=.=.=.=.=.=.=.-.-.X.X.5.w.x.C.V.L.[.[.[.{.{.{.{.{.{.{. X XqXeXeXeX.X.X.XoXoXoXoXoX X X X X X XXXXX{.{.{.{.{.{.{.{.{.{.{.{.{.{.{.{.0X0X0X0X0XqXqXqX0X0X0X0X0X0X0X0XwXwX0X0XwX0XwXwX=X=X{.{.'.`.'._.$X$X$X$X$X$X@X@X#X#X%X%X%X%X%X%X%X%X%X%X%X%X%X%X,X,X,X,X,X,X,X,X;X;X,X,X,X,X,X,X;X;X,X,X,X,X,X,X,X,X,X,X,X,X,X,X%X,X%X,X%X%X%X%X%X%X%X%X%X%X@X@X$X$X$X$X$X$X'.'.~._.@X1XyXjXnXMXoX|.'.~.~.(.$X=X_.<XCXHXJXSXbXvXNXNXbXcX+XXX}.{.BXSXAXZXAXGXGXGXHXKXKXHXBXrXOXcXeXeXqXqXwXwXqX.XeX.XOXyXbXNXCXGXMXAXKXJX(.d.%.w.b.b.b.0.0.9.;.;.9.-.-.-.-.=.=.=.=.=.=.=.=.=.=.=.=.=.=.=.=.=.=.=.=.=.=.=.=.=.=.=.*.#.%.K.",
"=.=.=.=.=.=.=.=.&.&.&.&.&.*.*.*.a.=.p.a.a.=.%.-.;.;.;.q.0.0.k.k.v.v.c.B.V.A.I.I.[.[.[.}.}.}.{.{.[.[.[.[.].].].].Z.Z.Z.Z.G.G.G.G.Z.Z.Z.Z.Z.D.D.D./././.(.(.(.(.(.~.~.~.~.~.(.(.(.`.`._._._._._._.`.`.`.'.`.'.'.'.$X$X%X%X%X%X@X@X#X%X%X%X%X%X%X%X,X,X,X,X,X,X;X;X;X;X;X;X;X;X;X;X;X;X;X;X;X;X;X;X;X;X;X;X;X;X;X;X;X;X;X;X;X;X;X;X,X,X,X,X,X,X,X,X%X%X%X%X%X%X%X%X$X$X$X$X$X@X'.'.@X%XyXMXVXDXFXHXHXDXMX1X$X(./.[.pXCXHXKXLXLXHXHXHXJXHXGXmXOXOX.XHXGXZXZXZXAXSXSXGXLXLXHXFXmXmXAXmXbXOX.XXXXX.X.X.X.XeXeXtXnXNXVXJXJXKXKXZXQ.g.j.q.5.0.b.b.%.%.p.9.9.-.-.=.-.&.=.=.=.=.=.=.=.=.=.=.=.=.=.=.=.=.=.=.=.=.=.=.=.=.=.*.#.%.K.",
"=.=.=.=.=.=.=.=.=.=.=.=.=.=.=.-.&.&.&.>.e.>.>.b.-.>.a.b.b.b.b.b.j.0.j.w.l.l.l.l.v.c.c.c.c.c.B.B.Z.V.V.V.V.V.V.V.S.S.S.S.A.A.S.A.H.F.F.G.G.H.D.D.H.H.D.D.D.D.D.D.).).).).).).).).~.~.~.~.~.~.~.~.`.'.'.$X%X%X%X%X$X$X%X%X%X#X@X@X#X#X#X#X,X,X%X%X,X,X,X,X,X,X,X,X;X;X;X;X;X;X;X;X;X;X;X;X;X;X;X;X;X;X;X;X;X;X;X;X;X;X;X;X;X;X;X;X2X,X,X,X,X,X,X,X,X,X,X,X,X#X#X#X%X%X$X$X%X@X@X@X'.<XcXBXSXSXSXFXJXHXFXCXuX,X!.!.fXFXJXJXKXKXKXKXKXKXKXJXHXDXMXtXFXSXCXVXVXNXNXBXBXmXAXSXDXDXHXJXKXGXmXOX+X}.XX.X.X.XeXqX.XeXvXNXLXGXDXHXKXKXBXtX=XZ.6.q.a.p.p.p.9.9.-.-.-.-.-.-.=.=.=.=.=.=.=.=.=.=.=.=.=.=.=.=.=.=.=.=.=.=.=.=.*.#.%.K.",
"=.=.=.=.=.=.=.=.&.&.%.&.&.&.*.*.e.e.e.e.e.e.e.b.0.0.0.0.0.0.w.0.n.J.n.J.J.C.C.t.l.l.l.l.l.l.v.v.B.B.B.B.B.B.B.B.S.S.S.S.S.S.S.S.G.G.G.G.D.D.G.G././././././././.(.(.(.(.(.(.(.(.$X$X$X$X$X$X$X$X~._._._._._.@X@X%X%X%X%X%X%X#X#X#X#X#X#X%X%X,X,X;X;X;X;X;X;X;X;X;X;X;X;X;X;X;X;X:X:X:X:X:X:X:X:X:X:X:X:X:X:X:X:X;X;X;X;X;X;X;X;X;X;X;X;X;X;X;X;X,X,X,X,X%X#X%X%X%X%X%X%X$X$X%X@X<XyXNXDXSXSXBXBXBXSXHXHXFXBXnXyXBXDXFXSXGXFXHXKXJXJXJXJXJXSXnX+XZXNXNXVXNXMXMXbXeXyXyXyXvXNXGXLXKXJXHXNXOXXXXX X.X.X XXXXX.XeXrXMXVXBXSXGXGXJXJXHXvX!.5.;.b.h.5.9.9.9.-.-.-.-.-.=.=.=.=.=.=.=.=.=.=.=.=.=.=.=.=.=.=.=.=.=.=.=.=.*.#.%.K.",
"=.=.=.=.=.=.=.=.>.>.>.>.>.>.9.9.b.9.>.-.-.;.;.-.h.k.k.k.k.k.k.k.h.j.k.j.l.l.l.l.n.J.J.J.J.J.B.C.V.V.V.B.B.B.B.B.V.V.V.Z.V.V.V.V.D.D.G.G.G.G.^.^.).).)./././././.).).).).(.(.(.(.`.`.`.`.'.'.'.`.$X@X@X@X@X@X@X@X%X%X%X%X%X%X#X#X,X,X,X,X,X,X,X,X;X;X;X;X;X;X;X;X;X;X;X;X;X;X;X;X:X:X:X:X:X:X:X:X:X:X:X:X:X:X:X:X;X;X;X;X;X;X;X;X;X;X;X;X;X;X;X;X,X,X,X,X,X,X,X,X%X%X%X%X%X$X%X%X|.yXNXVXBXNXMXMXrXbXAXKXKXKXGXGXbXdXOXvXMXBXBXZXZXGXJXJXHXmXyX+XdXbXMXvXvXMXbXcX=X0XXXXXeXMXDXLXLXKXHXDXvXXX{.{..XXX}.}.{. X.XXXdXvX6XnXSXGXJXLXLXJXMXI.0.e.n.w.9.9.9.9.-.-.-.-.=.=.=.=.=.=.=.=.=.=.=.=.=.=.=.=.=.=.=.=.=.=.=.=.*.#.%.K.",
"=.=.=.=.=.=.=.=.&.=.=.=.=.=.=.=.-.-.-.-.-.-.9.9.h.h.h.h.j.j.l.l.l.l.l.l.z.z.z.z.x.x.x.c.c.c.B.B.C.S.V.S.S.V.V.V.A.A.F.F.F.H.F.G.G.G.G.G.G.^.^.^./././.^.^.).).).~.~.~.~.(.(.(.(.(.(.`.$X$X'.'.'.@X@X@X@X$X$X$X$X%X%X%X%X%X%X,X,X,X,X,X,X,X,X2X2X;X;X;X2X2X2X2X2X2X2X2X2X2X<X<X<X;X;X;X;X;X:X:X:X;X;X;X;X:X;X;X;X<X<X<X2X2X2X2X2X2X2X2X2X2X2X2X2X#X#X#X#X#X#X#X#X$X$X$X@X#X'.|.|.bXbXbXvXvXcXcXcXrXcXcXvXbXbXvXcXcXcXcXcXcXcXcXcXyXbXNXBXnXOX.XqX.X.X.X.X.X.X.X.XOXeXyXrXrXrXtXvXDXSXNXbXrXoX XXX X X XXXXX{.{.{.XXXXXXyXnXNXGXJXLXLXFX,XX.{ s.,.i.a.b.e.e.q.q.l.>.>.>.-.=.-.*.*.=.=.=.=.=.=.=.=.=.=.=.=.=.=.=.=.*.#.%.K.",
"=.=.=.=.=.=.=.=.=.=.=.=.=.=.=.=.-.-.-.-.-.-.9.9.h.h.h.h.j.j.l.l.l.l.l.l.z.z.z.z.x.x.c.c.c.B.B.B.B.S.V.S.V.V.V.V.A.A.F.F.F.F.G.H.D.G.D.G.G.^.^.^./././.^.).).).).~.~.~.(.(.(.(.`.(.(.`.`.$X$X'.'.@X@X@X@X%X%X%X%X%X%X%X%X%X,X,X,X,X,X,X,X,X2X2X2X;X;X;X;X:X:X:X:X:X:X:X:X<X<X<X<X:X:X:X:X:X:X:X:X:X:X:X:X:X:X:X:X<X<X<X<X:X:X:X:X:X:X:X:X:X:X:X:X:X2X2X2X2X2X2X2X@X#X#X2X1X7XyX6XcXnXnXcXvXvXvXvXcXcXvXvXvXcXrXyXqXqXqXqXeXeXeXqXeXvXNXbXnXOX.XqX.X.X.X.XeXeXoXeXOXOX.XoXoXeXeXeXnXyXyXyXeXqXqX.XXXXXXXXX{.{.{.{.XXXX XqXrXbXBXSXHXKXKXmXQ.^.=X}.5.5.%.$.s.s.i.$.=.=.=.=.=.=.=.=.=.=.=.=.=.=.=.=.=.=.=.=.=.=.=.=.*.#.%.K.",
"=.=.=.=.=.=.=.=.=.=.=.=.=.=.=.=.-.-.-.-.9.9.9.9.h.h.h.h.j.j.l.l.l.l.l.l.z.z.z.z.c.c.c.c.c.B.B.C.B.B.V.V.V.V.V.V.A.F.F.F.H.G.H.G.D.G.D.G.G.^.^.^././.^.^.).).(.~.~.(.(.(.(.(.(.`.@X@X_._.'.'.$X$X@X@X@X$X%X%X%X%X#X#X#X#X,X,X,X,X;X;X;X;X;X;X2X2X;X;X;X;X:X<X<X<X:X:X<X<X<X<X<X<X:X:X:X:X:X:X:X:X:X:X:X:X:X:X:X:X<X<X<X<X<X<X:X:X:X:X:X:X:X:X:X:XyXyX1X<X;X,X|.'.;X;X:X3X6XMXMXMXnXcXcXtXtXyXtXyXrXtXtXtXyXyXOX+X{.{.{.{.{.{.{.{.oXrXvXcXOXOX X X X.X X X.X.X X X.X.X.XqXqXqXeXeXeXeXeXeXqXeXqXqXqXqXqXqX0X0XqX.X{.{. X X.XrXvXbXmXAXKXKXDXDXHXKXBXeXZ.q.=.a.e.e.=.=.=.$.$.$.$.$.=.=.=.=.=.=.=.=.=.=.=.=.=.=.=.=.*.#.%.K.",
"=.=.=.=.=.=.=.=.=.=.=.=.=.=.=.-.-.-.-.-.9.9.h.9.h.h.j.h.j.j.l.l.l.l.l.l.z.x.z.z.c.c.c.c.B.B.B.B.B.V.V.V.V.V.V.F.A.F.F.H.G.H.D.D.D.D.D.G.G.^.^./.^.^./.).).(.~.~.~.(.(.(.(.`.(.`.@X_._.'.'.$X'.$X'.'.%X%X%X%X%X%X;X;X#X,X,X,X,X,X;X;X;X2X2X2X2X2X;X;X;X:X:X<X<X<X:X:X1X1X1X1X1X1X>X>X>X>X>X>X>X>X>X>X>X>X>X>X>X>X1X1X1X1X1X1X:X:X:X:X:X:X:X:X:X:X|.;X:X:X<X<X<XwXyXyXyXyXyXnXnXnXvXvXrXeXeXXXXXXX.X.XoXoXoX.XXXXX{.{.{.{.{.{.{.{.XXoXoXyXOXXX{.{.{.{.{.{.{.{.{.{. X X X.X.X.X.X.X.X.X.X.X.X.X.X.XeXoXoXeXoXoXoXoXXXXXXXXXXX.XoXeXuXMXmXBXDXDXLXLXFXVX=X6.X.%.*.&.%.%.%.&.=.=.a.a.=.=.=.=.=.=.=.=.=.=.=.=.=.=.=.=.*.#.%.K.",
"=.=.=.=.=.=.=.=.=.=.=.=.=.=.=.-.-.-.-.9.9.9.9.9.j.h.j.j.j.j.j.j.l.l.l.l.z.x.x.x.c.c.c.B.B.B.C.C.V.V.V.V.V.V.F.F.F.F.F.H.H.D.D.D.D.G.G.G.^.^.^././.^.).).(.~.~.~.~.~.~.~.`.`.`.`._.@X@X@X@X@X@X$X%X%X%X%X%X%X%X%X;X;X;X;X;X;X;X;X:X:X:X:X:X:X<X<X:X:X:X<X<X1X1X1X1X1X1X1X1X1X1X1X>X>X>X>X>X>X>X>X>X>X>X>X>X>X>X>X1X1X1X1X1X1X1X1X1X1X1X1X<X1X1X1X<X1X1X5XyXyXyXuXMXMXMXMXbXbXbXvXrXrXoX.X X{.}.}.}.{. X X X XXX{.XXXX X X X XXXXXXX X.XXXXX{.{.{.{.{.{.{.{.{.{.{. X X X X X X X XXXXX X.X.XoXoXoXoXoXoXoXoXoXoXoX.X.XXXXXXX.X.X0X0XwXeXeXyX7X7X7X7XMXMXqX}.].I.B.q.q.q.;.*.*.&.&.=.=.=.=.=.=.=.=.=.=.=.=.=.=.=.=.*.#.%.K.",
"=.=.=.=.=.=.=.=.=.=.=.=.=.=.=.=.-.-.-.9.9.9.9.9.j.j.j.j.j.j.l.l.l.l.l.x.x.x.x.c.c.c.B.B.B.C.B.V.V.V.V.V.V.A.F.F.F.F.H.H.G.D.G.G.D.G.G.G.^.^.^./.).).).(.~.~.~.~.~.~.(.`.`.`.`.'.@X@X@X@X@X@X@X@X%X%X%X%X%X%X%X%X;X;X;X;X;X;X2X2X:X:X:X:X:X:X1X1X>X>X>X>X>X>X1X1X>X>X1X1X1X5X3X3X>X>X>X>X>X>X>X>X>X>X>X>X>X>X>X>X3X3X3X1X1X>X>X>X>X>X>X>X>X>X>X>XuX9X6XyX<X<X|.|.XXXXXXXXXXXXXXXX.X.X X X{.{.{.{.}.}.{.{.{.{.{.{. X X XXX X XXXXX{.{.{.{.{.{.`.(.}.}.}.[.[.[.[.[.{.{.{.{.{.{.{.{. X X{.{. X XXXXX X X X X X X XXX X X XXXXX{.{.=X}.XXXXXX X X X0X XeXrXOXoX.X{./.I.P.P.n.n.e.e.*.=.=.=.=.=.=.=.=.=.=.=.=.=.=.=.=.*.#.%.K.",
"=.=.=.=.=.=.=.=.=.=.=.=.=.=.>.>.-.9.-.9.9.9.0.0.j.j.j.j.j.j.l.l.l.l.l.l.x.x.c.c.B.B.B.B.C.C.V.V.V.V.V.V.V.F.F.F.F.F.H.H.D.G.G.G.D.G.G.G.^.^././.).).(.~.~.~.~.~._._.~.@X@X$X$X'.@X@X@X@X@X@X@X'.%X%X%X%X%X%X,X,X;X;X;X;X;X;X;X;X:X:X:X:X1X1X1X1X>X>X>X>X1X1X1X1X1X1X1X1X3X3X5X5X3X3X3X3X3X3X3X3X3X3X3X3X3X3X3X3X5X5X3X3X1X1X1X1X1X1X1X1X1X1X1X1X;X;X;X;X2X2X,X,X,X|.,X,X,X,X,X,X'.|.'.|.'.'.XXXX{.{.{.{.{.{.'.`.{.{.{.{.{.{.{.{.`.`.(.(.(.(.(.~.^.^.^.^.^.^.^.^./.^.^.^.G.G.G.G.[./.].G.G.Z.Z.Z.Z.Z.Z.F.Z.Z.Z.Z.I.^.].].].L.I.I.[.[.[.[.].].L.J.P.c.l.5.5.q.k.k.w.w.0.9.-.=.&.&.=.=.=.=.=.=.=.=.=.=.=.=.=.=.=.=.*.#.%.K.",
"=.=.=.=.=.=.=.=.=.=.=.=.=.>.>.>.-.9.9.9.9.9.0.h.j.j.j.j.j.l.l.l.l.l.l.l.x.x.c.c.B.B.B.B.C.V.V.S.V.V.V.A.V.F.F.F.F.F.H.G.D.G.G.G.D.D.D.^.^.^.).).).(.(.~.~.~.~.~._._.@X@X$X$X$X'.@X@X@X@X#X@X#X%X,X,X,X,X,X,X,X,X;X;X;X;X;X;X;X;X:X:X:X:X1X1X1X1X>X>X>X>X>X>X>X>X3X3X3X3X3X3X3X3X3X3X3X3X3X3X3X3X3X3X3X3X3X3X3X3X3X3X3X3X3X3X3X3X3X3X3X3X3X3X3X3X<X<X<X<X1X1XwXwX2X2X2X2X;X;X#X#X2X2X;X;X,X#X'.|.%X,X,X,X%X@X_._.`.`.`.`.`.`.`.`.`.(.(.).(.(.(.).^.^.^.^././././.G.G.F.F.S.S.S.S.C.C.C.V.V.V.B.B.B.B.c.c.c.c.c.c.c.c.x.w.w.w.x.n.l.j.l.l.w.v.k.;.0.0.-.p.i.a.>.>.q.q.q.-.-.%.#.#.=.=.=.=.=.=.=.=.=.=.=.=.=.=.=.=.*.#.%.K.",
"=.=.=.=.=.=.=.=.=.=.=.=.-.-.9.9.9.9.9.9.0.j.j.j.j.j.j.l.l.l.l.l.z.z.z.c.c.B.B.B.B.C.C.B.V.V.V.V.V.V.A.V.A.A.F.F.H.H.G.D.G.G.G.D.G.G./././.)./.(.~.~.~.~.~.~.~._.$X$X$X$X$X$X@X@X@X@X@X%X%X,X,X,X;X;X;X,X,X,X,X,X2X<X<X<X<X<X<X<X:X:X:X:X1X1X1X1X>X>X>X>X1X1X1X3X3X3X3X3X3X3X3X3X3X3X3X3X3X3X3X3X3X3X3X3X3X3X3X3X3X3X5X5X3X3X3X3X3X1X1X1X>X>X>X>X1X1X1X1X:X:X:X:X<X<X<X2X2X2X2X2X,X,X,X,X;X;X;X;X%X%X%X%X$X$X$X@X_.@X_.`._.`.(.(._.~.~.~.~.~.~.~.(./.)./././.G.G.G.G.G.G.D.G.H.H.F.F.A.A.V.A.V.V.V.V.V.V.B.B.B.B.B.B.B.c.c.z.z.z.l.l.l.l.l.j.j.j.0.0.h.0.9.9.9.9.9.9.-.-.-.-.=.=.=.=.=.=.=.=.=.=.=.=.=.=.=.=.=.=.*.#.%.K.",
"=.=.=.=.=.=.=.=.=.=.=.=.-.-.-.9.9.9.9.9.0.j.j.j.j.j.j.l.l.l.l.l.z.c.z.c.c.B.B.B.B.C.C.B.V.V.V.V.V.V.V.A.A.F.F.F.H.G.D.D.G.G.G.D.G./././././.(.(.~.~.(.~.~.~.~._.$X$X$X$X$X$X@X@X@X@X%X%X%X,X,X,X;X;X,X,X,X,X,X,X;X:X:X:X<X<X<X7X:X:X:X:X1X1X1X1X>X>X>X1X1X3X3X3X3X3X3X3X3X3X3X3X3X3X3X3X3X3X3X3X3X3X3X3X3X3X3X3X3X3X3X3X3X3X3X3X3X3X3X1X1X>X>X>X1X1X1X1X:X:X:X:X<X<X<X<X:X:X:X:X,X,X,X,X;X;X;X;X,X%X%X%X%X$X$X$X_._._._.`.`.(.(._._.~.~.~.(.~.~.(.(./././././.G.G.G.G.G.D.D.H.H.F.F.F.A.A.V.V.V.V.V.V.V.V.B.B.B.B.B.B.c.c.z.z.z.l.l.l.l.l.j.j.j.h.0.h.0.9.9.9.9.9.9.-.-.-.-.=.=.=.=.=.=.=.=.=.=.=.=.=.=.=.=.=.=.*.#.%.K.",
"=.=.=.=.=.=.=.=.=.=.=.=.-.-.-.9.9.9.9.9.j.j.j.j.j.j.l.l.l.l.l.z.x.x.x.c.c.B.B.B.C.C.B.B.V.V.V.V.V.V.V.A.A.F.F.F.H.H.D.D.G.G.G.D././././.).(.(.(.~.~.(.(.~.~._._.$X$X$X$X$X@X$X@X@X@X$X%X%X%X,X,X,X;X;X;X;X;X;X;X;X:X:X<X<X<X<X<X:X:X1X1X1X1X1X1X3X3X3X3X3X3X3X3X3X3X3X3X3X3X3X3X5X5X5X5X5X5X5X5X5X5X5X5X5X5X5X5X5X5X5X5X5X5X5X5X3X3X3X3X3X3X3X3X1X1X1X1X1X1X:X:X<X<X<X<X<X:X:X:X;X;X;X;X;X;X;X,X,X,X%X%X%X%X%X%X@X@X_._.`.`.`.(._._.~.~.(.(.~.~.(.(.(.)././././.G.G.G.G.D.D.H.H.H.F.F.A.A.V.V.V.V.V.V.V.V.B.C.C.B.B.B.c.c.z.c.z.l.l.l.l.l.j.j.j.h.h.h.0.9.9.9.9.9.9.-.-.-.-.=.=.=.=.=.=.=.=.=.=.=.=.=.=.=.=.=.=.*.#.%.K.",
"=.=.=.=.=.=.=.=.=.=.=.=.-.-.9.9.9.9.9.9.j.j.j.j.j.j.l.l.l.l.l.z.x.x.c.c.c.B.B.B.C.B.B.B.V.V.V.V.V.V.A.A.F.F.F.H.H.D.D.D.G.G.G.^./.^./.).(.(.(.(.(.(.(.(.~.`._.@X$X$X$X$X@X$X@X@X@X#X#X#X%X,X,X,X;X;X;X;X;X;X2X2X;X:X:X:X:X<X<X<X>X>X>X>X>X1X1X>X3X3X3X3X3X3X3X5X5X5X5X5X5X5X5X5X5X5X5X5X5X5X5X5X5X5X5X5X5X5X5X5X5X5X5X5X5X5X5X5X5X3X3X3X3X3X3X3X1X1X3X>X>X>X>X>X1X1X1X:X:X:X:X:X2X2X;X;X;X;X;X;X,X,X,X%X#X#X#X#X@X@X@X_._.`.`.`._._.`.~.(.(.(.(.(.(.(.(././.^./.^.G.G.G.D.D.G.H.H.H.F.F.A.A.V.V.V.V.V.V.V.B.B.C.B.B.B.c.c.c.c.x.l.l.l.l.l.j.j.j.j.h.h.h.9.9.9.9.9.9.-.-.-.-.=.=.=.=.=.=.=.=.=.=.=.=.=.=.=.=.=.=.*.#.%.K.",
"=.=.=.=.=.=.=.=.=.=.-.-.-.-.9.9.9.9.9.9.h.j.j.j.j.l.l.l.l.l.l.z.x.c.c.c.c.B.B.B.B.B.V.V.V.A.V.V.V.A.A.F.F.F.H.H.D.D.D.D.G.G.^.^././.)./.(.(.(.(.(.(.(.(.`.`._._.$X$X$X@X$X@X#X#X#X#X#X,X,X,X,X,X;X;X;X;X;X;X;X;X:X:X:X1X1X1X1X3X3X3X3X3X3X3X3X3X3X3X3X3X5X5X5X5X4X4X4X5X5X5X4X4X6X6X6X6X6X6X6X6X6X6X6X6X6X6X6X6X6X6X6X6X6X6X6X6X5X5X5X5X3X3X3X3X3X3X3X3X3X3X3X3X1X1X1X<X1X:X:X:X;X;X;X;X;X;X;X;X,X,X;X,X,X#X#X#X#X@X@X@X@X$X@X$X_._.`.`.(.(.(.(.(.(.(.(.).).^.^.^.^.^.G.D.D.G.F.H.H.H.F.F.A.A.A.V.V.V.V.V.V.B.B.B.B.B.c.c.c.c.x.z.l.l.l.l.j.j.j.j.j.j.h.9.h.9.9.9.9.-.-.-.=.=.=.=.=.=.=.=.=.=.=.=.=.=.=.=.=.=.=.*.#.%.K.",
"=.=.=.=.=.=.=.=.=.=.-.-.-.-.9.9.9.9.h.h.j.j.j.j.j.l.l.l.l.l.l.z.x.x.c.c.c.B.B.B.B.B.V.V.V.A.V.V.A.A.F.F.F.H.H.H.D.D.D.D.G.^.^.^.).)./.(.(.(.(.(.(.(.(.(.`.'._.$X$X$X@X$X@X@X#X#X#X#X#X,X,X,X,X,X;X;X;X;X;X;X;X;X:X:X:X>X>X>X>X3X3X3X3X3X3X3X3X3X3X3X5X5X5X5X5X5X4X4X4X4X4X4X4X4X6X4X4X4X4X4X4X4X4X4X6X6X4X4X4X4X4X4X4X4X4X4X4X4X5X5X5X5X5X5X3X3X3X3X3X3X3X3X3X3X>X>X>X>X>X>X>X>X;X;X;X;X;X;X;X;X;X;X;X;X,X,X#X#X#X#X#X@X@X@X$X$X'._.'.`.(.(.(.(.(.(.(.(.(.)././.^.^.^.G.D.D.D.F.G.H.H.F.F.F.A.A.V.V.V.V.V.V.B.B.B.B.B.c.c.c.x.x.z.l.l.l.l.l.j.j.j.j.j.j.h.h.9.9.9.9.-.-.-.=.=.=.=.=.=.=.=.=.=.=.=.=.=.=.=.=.=.=.*.#.%.K.",
"=.=.=.=.=.=.=.=.=.=.-.-.-.-.9.9.9.9.h.h.j.j.j.j.j.l.l.l.l.l.l.z.x.x.c.c.c.B.B.B.B.B.V.V.V.A.V.A.F.F.F.F.H.H.G.H.G.D.G.D.G.^.^.^.)./.).(.(.(.(.~.(.(.(.(.'.'.'.'.$X$X$X@X@X#X#X#X#X#X,X,X,X;X;X;X;X;X:X:X:X:X:X:X:X:X:X>X>X>X>X3X3X3X3X3X3X3X5X5X5X5X5X4X4X6X6X6X4X4X4X4X4X4X4X4X4X4X4X4X4X4X4X4X4X4X4X4X4X4X4X4X4X4X4X4X4X4X4X4X6X6X6X4X4X5X5X5X5X5X3X3X3X3X3X3X1X>X>X>X>X>X>X>X:X:X:X:X:X:X;X;X;X;X;X;X,X,X#X#X#X#X#X@X@X@X@X$X'.$X'.`.`.(.(.(.(.(.(.(.(.).)./.^.^.^.G.D.G.D.G.G.G.H.H.F.F.Z.Z.A.V.A.V.V.V.B.B.B.B.B.c.c.c.x.x.z.l.l.l.l.l.l.j.j.j.j.j.h.h.9.9.9.9.-.-.-.=.=.=.=.=.=.=.=.=.=.=.=.=.=.=.=.=.=.=.*.#.%.K.",
"=.=.=.=.=.=.=.=.=.=.-.-.-.-.9.9.9.9.h.h.j.j.j.j.l.l.l.l.l.z.z.x.x.x.c.c.B.B.B.B.B.B.V.V.V.A.A.A.F.F.F.F.H.G.G.H.G.D.G.G.G.^.^.^./.).).(.~.(.~.(.(.(.(.`.'.'.'.'.$X$X$X@X#X#X#X#X#X#X,X,X,X;X;X:X;X:X:X:X:X:X:X:X:X:X:X>X>X>X>X3X3X3X3X3X3X5X5X5X5X4X4X4X6X6X6X6X4X4X4X4X4X4X4X4X4X4X4X4X4X4X4X4X4X4X4X4X4X4X4X4X4X4X4X4X4X4X4X4X6X6X6X6X4X4X4X5X5X5X5X3X3X3X3X3X3X3X3X3X3X7X>X>X:X:X:X:X:X:X;X;X;X;X;X,X,X,X#X#X#X#X#X#X@X$X@X@X$X'.'.'.`.`.(.(.(.(.(.(.(.)./.).^.^.^.G.G.G.D.G.D.G.G.H.F.Z.F.Z.A.A.A.V.V.V.B.B.B.B.B.B.c.c.x.x.z.l.l.l.l.l.l.j.j.j.j.j.h.h.9.9.9.-.-.-.-.=.=.=.=.=.=.=.=.=.=.=.=.=.=.=.=.=.=.=.*.#.%.K.",
">.>.=.=.&.&.%.%.-.-.-.9.9.9.9.9.h.h.0.h.j.l.l.l.l.l.l.l.z.z.z.z.c.c.c.B.B.B.B.C.V.V.V.S.V.V.V.F.F.F.H.H.G.D.D.D.G.G.G.^././././.).(.(.~.(.(.(._.`.`._.@X_.@X@X@X&X%X$X'.'.%X%X,X#X#X2X2X1X<X<X;X:X:X:X:X>X>X>X>X>X>X>X>X>X3X3X3X5X5X5X5X5X5X5X5X5X8X8X8X9X9X9X9X4X4X4X4X4X4X4X4X4X4X4X4X4X4X4X4X4X4X4X4X4X4X4X4X4X4X4X4X4X4X4X4X9X9X9X9X8X8X8X5X5X5X5X5X5X5X5X5X3X>X>X>X>X>X>X>X:X:X:X:X:X:X:X:X:X:X;X,X;X,X,X|.%X#X#X#X#X#X#X@X@X@X@X@X@X_.~.~._.~.~.~.~.).)././././.^.^.G.G.G.G.G.D.G.H.H.F.Z.F.V.V.V.V.V.V.V.C.B.B.B.B.c.c.c.z.z.z.z.l.l.l.l.l.l.j.j.h.h.h.h.9.9.9.9.-.-.=.=.=.=.=.=.=.=.=.=.=.=.=.=.=.=.=.=.*.#.%.K.",
">.>.=.=.%.&.%.%.-.-.-.9.9.9.9.9.h.0.0.h.j.l.l.l.l.l.l.l.z.z.z.c.c.c.c.B.B.B.B.C.V.V.V.S.V.V.A.F.F.F.H.H.G.D.G.G.G.G.G.^././././.(.(.(.(.(.(.(._.'._.'.'.'.'.'.'.$X%X%X,X,X,X%X%X#X#X,X<X1X<X<X;X:X:X:X:X>X>X>X3X>X>X>X>X>X3X3X3X5X5X6X6X6X6X6X6X4X4X4X4X9X9X9X9X4X4X4X4X4X4X8X8X4X4X4X4X4X4X4X4X4X4X4X4X4X4X4X4X8X8X4X4X4X4X4X4X9X9X9X9X4X4X4X4X6X6X6X6X6X6X5X5X3X3X3X>X>X>X>X>X>X:X:X:X:X:X:X:X:X:X;X;X,X,X|.|.%X%X#X#X#X@X#X#X@X@X@X@X@X_.~.~._.~.~.~.~.~.)./././././.^.G.G.G.G.D.D.G.H.H.F.Z.F.F.V.V.V.V.V.V.C.B.B.B.B.c.c.c.c.z.z.z.l.l.l.l.l.l.j.j.h.h.h.h.9.9.9.9.-.-.=.=.=.=.=.=.=.=.=.=.=.=.=.=.=.=.=.=.*.#.%.K.",
">.>.=.=.%.&.-.*.-.-.-.9.9.9.9.9.h.h.0.h.j.j.l.l.l.l.l.l.z.v.c.c.c.c.c.B.B.B.B.B.V.V.V.V.V.V.F.F.F.F.H.H.H.D.G.G.G.G.G.^./.)./.).(.(.(.(.(.(.`._.~.~.~._._._._._.%X#X#X'.|.,X,X,X#X#X,X;X2X<X<X<X:X:X:X>X>X>X>X3X>X>X>X>X3X3X5X5X6X6X6X6X6X6X6X6X4X4X4X8X9X9X9X9X4X4X8X8X8X8X8X8X4X4X4X4X4X4X4X4X4X4XgXgX4X4X4X4X8X8X8X8X8X8X4X4X9X9X9X9X9X4X4X4X6X6X6X6X6X6X6X6X3X3X3X3X3X3X3X3X>X>X>X:X:X:X:X:X:X:X:X;X,X,X,X,X%X%X%X#X#X@X@X@X@X@X@X@X@X_.(.~._.(.~.~.~.(.~.).)./.)./.^.G.G.G.G.G.D.G.H.H.F.F.F.F.V.V.V.V.V.V.B.B.B.B.B.c.c.c.c.c.z.z.l.l.l.l.l.l.j.j.h.h.h.h.9.9.9.9.-.-.=.=.=.=.=.=.=.=.=.=.=.=.=.=.=.=.=.=.*.#.%.K.",
">.>.=.%.%.&.=.-.-.-.-.-.9.9.9.9.j.h.h.h.j.l.l.l.l.l.l.l.z.c.c.c.c.c.c.B.B.B.B.B.V.V.V.V.V.A.F.F.F.F.H.H.G.D.G.G.G.G.G.^./.).(.(.(.(.(.(.(.`.`.`.(.(.`.$X$X$X@X@X#X#X|.|.|.|.;X;X'.;X;X;X<X<X<X<X:X:X:X>X>X>X>X3X>X3X3X3X5X5X5X5X6X6X6X6X6X6X6X6X4X4X4X4X8X8X8X8X4X4X8X8X8X8XgXgXgXgXgXgXgXgXgXgXgXgXgXgXgXgXgXgX8X8X8X8X8X8X4X4X8X8X8X8X4X4X4X4X6X6X6X6X6X6X6X6X5X3X3X3X3X3X3X3X>X>X>X>X>X>X:X:X:X:X:X:X;X2X,X,X,X%X%X%X#X#X#X@X@X@X@X@X$X@X`.(._.(.(.(.~.(.(.).).).)./.^.^.G.G.G.G.D.D.H.H.F.F.F.F.A.V.V.V.V.V.B.B.B.B.B.c.c.c.c.c.c.z.l.l.l.l.l.l.j.j.h.j.h.h.9.9.9.9.-.-.=.=.=.=.=.=.=.=.=.=.=.=.=.=.=.=.=.=.*.#.%.K.",
">.>.&.%.%.=.-.9.-.-.-.-.9.9.9.9.j.h.j.j.j.l.l.l.l.l.l.l.z.c.c.c.c.c.c.B.B.B.B.V.V.V.V.A.A.F.F.F.F.F.H.H.G.D.G.G.G.^.^.^.).).).).(.(.(.(.(.`.`.`.).~.$X$X$X$X@X~.#X:XyXMXMXyX<X|.;X;X;X;X;X:X<X<X:X:X:X>X>X>X1X3X3X5X3X3X5X5X5X6X6X6X6X6X6X6X4X4X8X8X8X8X8X8X8X8XgXgXgXgXgXgXgXgXgXgXgXgXgXgXgXgXgXgXgXgXgXgXgXgXgXgXgXgXgXgXgXgX8X8X8X8X8X8X8X8X4X4X6X6X6X6X6X6X5X5X5X5X5X5X5X3X1X1X>X>X>X>X>X>X:X:X:X:X:X<X;X2X,X,X,X%X%X#X#X#X%X@X@X@X'._.$X`._.`.(.(.~.(.(.(.).)./.).^.^.^.^.G.G.D.D.H.H.H.H.F.F.F.A.A.V.V.V.V.B.B.B.B.c.c.c.c.c.c.z.l.v.l.l.l.l.j.j.j.j.h.j.9.9.9.9.-.-.-.-.=.=.=.=.=.=.=.=.=.=.=.=.=.=.=.=.*.#.%.K.",
">.>.%.%.%.=.>.b.-.-.-.-.9.9.9.9.j.j.j.j.j.l.l.l.l.l.l.l.c.c.c.c.c.c.B.B.B.B.B.V.V.V.V.A.A.F.F.F.F.F.H.D.D.D.G.G.^.^./.^.).).(.(.(.(.(.(.(.`.`.'.~._.'.,X,X|.#X_.6XMXNXVXVXNXnXnX1X1X:X:X:X:X:X<X:X:X>X>X1X1X1X3X3X5X5X5X6X6X6X6X4X4X4X4X4X4X4X4X4X4X8X8X8X8X8X8XgXgXgXgXgXgXgXgXgXgXgXgXgXgXgXgXgXgXgXgXgXgXgXgXgXgXgXgXgXgXgXgX8X8X8X8X8X8X4X4X4X4X4X4X4X4X4X4X5X5X5X5X5X5X5X5X1X1X1X1X>X>X>X>X>X:X:X:X:X:X<X<X,X,X,X,X%X%X%X#X%X%X@X'.$X'.'.'._.`.(.(.(.(.(.(.).(./.).^./.^.^.G.G.D.D.G.H.F.H.F.F.F.A.A.V.V.V.V.B.B.B.B.B.c.c.c.c.c.c.l.v.l.l.l.l.j.j.j.j.j.j.9.9.9.9.-.-.-.-.=.=.=.=.=.=.=.=.=.=.=.=.=.=.=.=.*.#.%.K.",
">.>.%.$.%.-.b.b.-.-.-.-.9.9.9.9.j.j.j.j.j.l.l.l.l.l.l.l.c.c.c.c.c.B.B.B.B.B.B.V.V.V.V.S.A.F.F.F.F.F.H.D.D.D.G.G.^.^././.).).(.(.(.(.(.(.(.`.`.'.1XyXnXbXMXnX6X5XVXVXBXBXBXBXVXVXuX6X5X1X:X:X:X<X:X>X>X1X1X1X3X3X5X5X5X6X6X6X6X6X4X4X4X4X4X4X4X4X8X8X8X8X8X8XgXgXgXgXgXgXgXgXgXgXgXgXgXgXgXgXgXgXgXgXgXgXgXgXgXgXgXgXgXgXgXgXgXgXgXgX8X8X8X8X8X8X4X4X4X4X4X4X4X6X6X6X6X6X6X5X5X5X3X3X1X1X>X>X>X>X>X>X:X:X:X:X:X<X,X,X,X,X,X%X%X%X%X%X@X$X'.'.'.'.`.`.`.(.(.(.(.(.(.(.).)././.^.^.G.G.D.D.G.H.F.H.F.F.F.A.A.A.S.A.V.B.B.B.B.B.B.c.c.c.c.c.l.v.l.l.l.l.j.j.j.j.j.j.9.9.9.9.-.-.-.-.=.=.=.=.=.=.=.=.=.=.=.=.=.=.=.=.*.#.%.K.",
">.>.%.%.%.-.b.b.-.-.-.9.9.9.9.9.j.j.j.j.l.l.l.l.l.l.l.l.c.c.c.c.c.B.B.B.B.B.B.V.V.V.V.A.A.F.F.F.F.F.D.D.D.D.G.G.^./././././.(.(.(.(.(.(.(.`.`.'.MXNXDXFXFXDXBXCXNXBXBXSXSXSXBXBXMXuX6X3X:X:X:X<X:X>X>X1X1X1X3X3X5X5X5X6X6X6X6X6X4X4X4X4X4X4X4XfXgXgXgXgXgXgXgXgXgXgXgXgXgXgXgXgXgXgXgXgXgXgXgXgXgXgXgXgXgXgXgXgXgXgXgXgXgXgXgXgXgXgXgXgXgXgXgXgXfXfX4X4X4X4X4X4X6X6X6X6X6X6X6X6X3X3X3X3X3X3X3X3X>X>X>X:X:X<X:X:X,X,X,X,X,X%X%X%X%X%X%X'.'.'.'.'.`.`.`.(.(.(.(.(.(.(./.)./././.^.G.G.D.D.G.G.F.F.F.F.F.A.A.A.S.A.V.B.B.B.B.B.B.c.c.c.c.c.l.l.l.l.l.l.j.j.j.j.j.j.9.9.9.9.-.-.-.-.=.=.=.=.=.=.=.=.=.=.=.=.=.=.=.=.*.#.%.K.",
"s.+.4.|.GXJXJXJXJXJXKX|.f.s.a.r.5.p.a.e.J.5.X.c.6.w.x.n.n.c.v.g.w.C.v.C.I.L.C.P.S.A.F.C.Z.G.G.F.G.G.D.D.^.^.^././.)./.).(.~.~.~.(.(.~._._._._._.wXwXwXwXwXwXyXyX'.'.,X<X7XuXMXMXMXuX9X5X5X1X:X:X3X3X3X5X5X5X5X5X5X5X5X5X5X6X6X6X4X4X8X4X8X8XgXgXgXgXgXgXgXgXjXjXjXjXjXjXjXjXjXjXaXaXaXgXhXZXZXZXgXgXgXgXgXgXkXkXgXgXgXgXhXgXgXfXfXgXjXjXjXjX9X4X8XgX8X8X4X4X4X4X6X6X6X6X5X5X5X5X5X5X5X5X1X1X>X>X3X>X>X>X:X:X:X:X;X;X;X;X;X,X;X;X,X#X#X%X#X'.'.'.@X@X_.~.~.~.~.~.(.(.).(.).).^.^.^.^.^.G.G.G.G.G.H.H.H.Z.F.V.V.V.B.B.B.B.B.B.B.B.C.V.B.c.c.B.c.z.f.v.N.v.l.k.k.p.q.t.XXVXJXKXKXHXAXyXg.;.$.:.a.$.>.>.>.:.:.:.>.>.$.=.q.K.",
"<.b.{.NXGXKXKXKXJXKXGXDXqXC.q.b.v.l.n.j.5.Z.wXuXuXwX{.G.V.B.c.c.C.B.c.B.L.L.V.A.H.S.S.g.Z.H.H.H.I.G.G.G./.^.^.^./.)././.(.~.~.(.(.(.~.`._._._._.'.'.'.'.'.'.'.'.#X#X,X;X<X3X5X7X6X5X5X3X>X:X:X:X3X3X5X5X5X5X5X5X4X6X6X6X6X6X6X9X4X4X4X8X8X8XgXgXgXgXgXgXgXjXjXjXgXgXgXgXgXgXgXgXaXgXkXCXCXDXDXFXkXhXhXhXhXhXgXgXfXgXhXhXkXkXkXhXgXgXjXgXgXjXjXgXgXgX8X8X8X4X4X4X4X6X4X6X5X5X5X5X5X5X5X5X5X1X>X>X3X>X>X>X:X:X:X:X;X;X;X;X;X;X;X;X,X#X#X%X#X'.'.$X@X@X_.~.~.~.~.~.(.(.~.).).).^.^.^.^.^.G.G.G.G.G.H.H.H.Z.F.V.V.V.B.B.B.B.C.B.B.B.V.B.v.v.v.c.x.l.w.w.w.w.w.w.e.e.L.0XVXDXGXLXKXJXJXHXNX!.X.o.a.r.;.;.%.%.%.%.;.-.#.=.r.K.",
" .[.MXFXKXKXKXKXJXHXFXJXJXmXG...n.t.w.k.g.BXJXJXLXHXHXNX|.Z.c.M.B.P.P.B.V.Z.V.A.U.A.A.F.F.S.S.A.I.F.F.G.G.D.^.(.).).).).(.~.(.(.(.(.~.`._.'._.@X'.'.'.'.#X#X#X#X#X#X;X,X;X;X;X;X>X>X:X:X:X:X:X:X3X5X5X5X5X5X5X5X6X6X6X6X9X9X9X9XgXgXgXgXgXgXgXgXgXgXgXgXjXgXjXjXhXhXhXhXhXhXhXhXkXkXCXCXDXDXFXFXBXDXDXSXSXZXZXZXCXBXDXDXFXFXFXFXkXkXjXgX8X8XgXgXgXgXgXgXgXgXgXgX4X4X4X6X9X5X5X5X5X5X5X5X5X3X>X>X3X1X>X>X>X:X:X:X;X;X;X;X;X;X,X;X,X,X#X%X%X$X'.$X@X@X_._.~.~.(.~.(.(.(.).).).^.^.^.^.^.G.G.G.G.G.G.H.H.H.F.A.Z.V.V.V.V.V.C.C.C.C.J.B.l.l.l.l.l.l.M.j.j.h.b.b.i.$.yXbXMXnXZXZXFXKXLXKXJXGX{...o.e.$.%.=.=.=.=.%.$.<.<.@.K.",
"8.wXVXGXKXJXJXHXKXHXFXLXKXJXMXg.9.n.q.v.uXJXKXKXKXKXKXKXFXvX(.C.C.P.P.B.C.C.S.S.z.c.C.F.I.A.A.P.F.F.I.I.G.D.^.$X).).).(.(.~.(.(.(.(.`.`._.'.@X@X%X%X%X%X%X,X,X,X,X%X#X;X;X;X;X;X:X:X:X:X:X>X>X>X5X5X5X5X5X5X5X5X4X4X4X4X4X9X9X4XgXgXgXgXgXgXjXjXgXgXgXgXjXjXjXjXhXhXhXhXhXhXhXhXCXCXBXBXBXSXBXSXGXFXHXHXHXFXGXCXCXBXSXGXFXFXFXFXCXkXkXgX4X8XgXgXjXjXgXgXgXgXgXgX4X4X4X4X8X8X4X4X6X6X5X5X3X5X3X>X3X1X>X>X>X:X:X:X:X:X;X;X;X;X,X,X,X,X,X%X%X$X$X$X_.@X_._._.~.(.(.(.(.(.(.).).^.^./.^.^.G.G.G.G.G.G.G.H.H.F.F.F.V.S.S.V.V.V.C.C.C.B.c.n.n.n.l.w.C.Q.,XuXwXg.8.g.G.mXnXyXrXvXnXmXSXKXxXxXJXAXw.<.a.e.e.e.e.e.e.e.e.%.;.3.L.",
"|.vXmXZXGXHXFXHXGXKXLXLXKXJXFXmXa.a.-.].VXDXZXJXJXLXLXKXJXHXnX|.C.C.c.P.B.V.S.S.!.`. XwXXX|.'.Q.D.D.G.[.[.G.D.).)./.(.(.(.(.(.(.`.`.`.`.'.$X@X@X@X@X@X@X@X@X$X$X,X,X;X;X;X;X:X;X:X:X:X>X1X3X5X5X3X3X5X5X5X5X5X5X4X4X4X4X4X4X9X9XgXgXgXgXgXjXjXjXgXgXgXgXhXhXkXkXhXhXhXhXhXhXhXhXCXCXNXBXmXBXmXmXZXmXSXGXGXGXSXBXmXmXmXmXmXmXZXmXVXCXkXgXgXgXgXhXjXjXjXgXgXgXgXgXfXfX4X4X9X8X8X8X6X6X6X5X5X3X5X3X3X3X1X>X>X:X:X:X:X:X;X;X;X;X;X,X,X,X%X%X%X$X$X$X_._._._.`._.(.(.(.(.(.(.).).).)./.^.^.^.^.G.G.G.G.G.H.H.F.F.F.F.A.A.V.V.V.V.V.V.c.c.n.n.c.C.G.{.JXJXKXFXFXFXBXNXdXnXvXvXeXoXOXnXJXCXzXKXAXc.o.+...$.p.b.b.p.$...<.:.*.P.",
"NXCXmXCXSXZXZXSXmXAXLXLXGXFXKXJXP.X.v.rXBXMXCXVXSXFXJXJXKXLXKXHX!.g.c.P.J.V.S.S.7XCXFXFXGXLXLXxX6X|.Q.Z.G././.)././.(.(.(.(.(.(.`.`.`.$X'.$X$X$X%X%X%X%X%X%X%X%X,X2X2X2X<X<X1X1X:X>X>X3X3X5X5X5X5X5X5X5X5X5X5X5X4X4X4X4X4X8X8X8XgXgXgXgXjXjXjXjXgXhXhXhXhXhXhXhXhXhXhXhXhXhXhXhXCXZXNXBXBXBXVXDXmXCXBXSXSXSXDXBXVXVXBXBXNXNXBXBXBXCXCXjXjXjXhXhXjXjXjXjXgXgXgXgXgXgXgX4X8X8X8X8X6X6X6X6X5X5X3X3X3X3X1X1X>X:X:X:X:X:X;X;X2X;X,X,X,X,X%X%X%X$X%X$X'.'.'._.`.`.`.(.(.(.(.(.(.).).).).^.^.^.^.G.G.G.G.G.H.H.F.F.F.F.A.A.A.V.V.V.V.V.c.z.z.v.C.^.eXVXnXNXVXVXvXyXiXuXOXcXrXeXeXbXNXmXCXCXHXKXNXf.X.4.|.yXbXVXVXMXyX|.j.l.w.P.",
"DXCXBXVXBXmXmXCXkXBXSXBXDXFXJXKXvXQ.|.VXBXBXVXnXDXVXDXFXHXJXKXKXwXD.C.B.J.V.V.S.Q.|.tXMXCXBXFXHXHXBX+XQ.g.G././././.(.(.(.(.(.(.`.`.`.$X$X$X$X$X%X%X%X%X%X,X%X%X<X<X<X<X<X<X1X1X>X>X>X3X3X5X5X6X5X5X5X5X5X4X4X5X4X4X4X4X8X8X8X9XgXgXgXjXjXjXjXjXhXhXhXhXhXhXhXhXhXhXhXhXhXhXhXhXCXCXCXBXBXVXVXVXNXNXCXCXNXNXNXNXNXMXMXMXMXMXNXNXmXmXNXCXMXkXhXhXjXjXjXjXjXgXgXgXfXgX4X4X4X4X4X4X6X6X6X6X6X5X3X3X3X3X3X1X>X:X:X:X:X:X:X;X2X2X,X,X,X%X,X%X%X$X$X$X@X'.'._.`.`.(.(.(.(.(.(.(.)././.)./.^.^.^.G.G.G.D.G.H.H.F.F.F.F.A.A.V.V.V.V.V.V.B.c.v.C.^.wXBXHXDXSXBXBXmXbXcXyXtXtXrXnXmXHXHXHXFXFXGXGXVXQ.~.MXHXJXKXKXKXKXJXJXKXKXLXKX",
"DXNXNXVXNXNXVXBXkXCXVXSXSXAXGXKXJXKXFXVXkXZXAXNXZXVXVXBXmXmXFXJXVX(.g.B.J.B.A.S.n.n.I.[.].!.{.qXJXHXVX,XD.H.H.H././.(.(.(.(.(.(.`.`.`.$X$X$X$X$X,X,X,X,X,X,X,X,X<X<X<X<X:X:X:X:X:X>X>X>X3X3X5X5X5X5X5X5X4X4X4X4X4X4X4XgXgXgXgXgXgXgXjXjXjXjXjXjXhXhXhXhXhXhXhXkXhXhXhXhXhXhXhXhXCXCXCXCXNXCXkXnXMXMXMXnXfXfX6X6X6X7X7X6X6XyXMXMXmXbXNXNXCXCXkXhXjXjXjXjXjXjXgXgXgXgXgXgX8X4X8X8X6X6X6X6X6X5X5X3X3X5X3X1X>X>X:X:X:X:X;X;X2X2X,X,X,X,X%X%X%X%X$X$X'.'.'.'.'.`.(.`.(.(.(.(.(.(././.)./.^./.^.G.G.G.D.D.G.H.H.F.F.F.A.A.A.V.V.V.V.V.A.V.B.F.=XMXGXLXGXKXKXKXKXKXGXGXeXyXbXSXHXLXLXKXKXKXGXZXHXAXGXDXGXHXKXJXJXKXHXFXJXJXKXJX",
"VXVXBXBXBXBXBXBXBXBXBXBXVXVXVXVXSXVXVXBXBXBXBXBXVXVXVXBXBXNXNXNXJXAX7X).V.V.A.I.D.H.S.S.S.S.F.G.g.vXJXmX(.S.H.}.*X/.D.).~._.'.'.}.`.'.$X_.'.%X,X%X%X%X%X,X,X2X;X;X:X:X:X:X>X>X>X>X>X3X3X3X5X5X5X5X4X6X4X4X4X4X4X8X8X8X8X8XgXgXjXgXgXgXgXgXhXhXhXhXhXhXhXhXhXhXhXhXlXlXlXlXlXlXlXhXhXhXhXhXhXhXhXhXhXhXhXhXhXhXhXkXhXkXkXhXhXhXhXhXhXhXhXhXhXhXhXhXhXhXgXgXgXgXgXjXgXgXgXgX4X4X4X4X4X4X4X4X4X4X5X5X5X5X3X3X3X>X>X;X:X1X1X<X:X;X;X'.|.,XwXwX,X$X_._.'.%X%X_._._.$X{.{.`.).).).).D.).)./.^.^.D.G.G.G.F.F.F.F.H.G.G.f.%XSXKXKXJXJXJXJXJXHXSXCXCXCXCXLXLXKXHXHXHXJXJXKXJXHXFXGXSXDXFXJXJXGXSXBXCXMXMXGXGXKXJXJXJXJXKXKXKXJXLX",
"BXBXBXNXBXNXNXNXmXmXmXNXNXNXCXCXBXBXBXBXBXBXBXBXBXBXBXBXBXNXNXNXGXHXFXNXXX!.V.A.I.A.S.g.g.D.Q.'.Q.7XZX+XQ.H./.`.(.(.(.(.~.~.~.~.$X(.@X$X&X%X%X'.%X%X%X,X,X,X;X;X;X:X:X:X:X>X>X3X>X>X3X3X3X5X5X5X5X6X6X4X4X4X4X4X8X8X8X8X8XgXjXjXgXgXgXgXhXhXhXhXhXhXhXhXhXhXhXkXlXlXlXlXlXlXlXlXlXlXlXlXlXlXlXlXkXhXhXhXhXkXkXhXhXkXkXkXhXhXhXhXkXhXhXhXhXhXhXhXhXhXhXgXgXgXgXgXjXjXgXgXgXgX4X4X4X4X4X4X4X4X4X5X5X5X5X3X3X3X>X>X;X:X1X1X1X1X:X:X<X1X1X2X,X%X%X@X$X$X_._.'.$X$X$X(.(.`.`.`.`.`.`.).).)./.^.D.G.G.^.G.G.G.Z.L.L.L.Q.yXVXVXkXjXkXAXmXNXBXCXCXCXBXBXVXVXVXBXBXBXDXFXGXAXAXAXGXGXAXAXGXGXGXSXBXCXmXmXDXDXFXHXJXJXJXJXJXJXKXGX",
"NXNXbXbXbXbXbXbXbXbXbXbXbXbXbXMXmXmXNXNXBXBXBXBXBXNXNXNXNXNXNXNXNXDXHXHXmX+XD.f.J.V.F.).,XMXDXHXCXDXDXCX3X#X~.Q.`.(.(.(.(.(.~.).~.~.Q.Q.@X%X%X'.%X%X%X,X,X;X;X;X2X:X:X:X:X>X>X3X>X>X3X3X5X5X5X5X5X6X6X4X4X4X4XgX8X8X8X8XgXgXjXjXgXgXgXgXhXhXhXhXhXhXhXhXhXhXkXkXlXlXlXlXlXlXlXlXlXlXlXlXlXlXlXlXzXzXzXzXzXzXzXzXzXzXzXlXzXlXhXhXkXkXhXhXhXhXhXhXhXhXhXhXgXgXgXjXjXjXgXgXgXgXgXgXgX8X4X4X4X6X4X5X5X5X5X5X3X3X>X>X:X:X<X1X1X1X1X<X1X1X2X#X@X#X@X@X&X$X_.`.$X%X$X~.~.~.(.(.(.).).).).).).).^.D.G.G.Q.!.D.g.V.A.A.P.vXNXSXBXCXNXVXBXNXNXmXmXBXAXGXKXMXMXMXCXxXxXxXzXCXCXCXCXVXVXCXkXZXxXGXGXGXGXAXAXAXAXGXFXNXfX;XQ.0X{.L.I.",
"vXvXcXcXcXcXcXcXcXcXcXcXvXvXvXvXbXbXbXmXNXNXBXBXCXBXBXBXBXBXBXBXVXNXZXLXHXVXwX).Z.!.`.,XyXmXGXKXJXHXHXHXFXCX7X_.~.).(.(.(.'.%X,X>X>X>X;X#X'.$X&X%X,X,X,X;X;X:X:X2X:X:X:X1X>X>X3X>X>X3X3X5X5X6X6X5X6X6X4X4X4X4X4X8X8X8XgXgXjXjXjXgXgXgXhXhXhXhXhXhXhXhXhXhXhXhXhXlXlXlXlXlXlXlXzXlXlXlXlXlXlXlXlXzXzXzXzXzXzXzXzXzXzXzXzXzXzXzXhXhXhXhXhXhXhXhXhXhXhXhXhXhXgXgXjXjXjXjXgXgXgXgXgXgX8X4X4X4X6X4X5X6X6X5X5X3X3X>X>X<X1X1X1X<X<X:X:X;X#X#X#X#X#X#X@X%X$X$X$X%X$X_.Q.Q.Q.~.~./././.(.).).).).^.^.G.G.H.H.H.).~.$X,XwXGXAXmXmXbXtXwXXXD.D.Q.~.$XiXuXuXFXGXAXAXGXGXSXSXMXtXeXeXeXoXoX+X0X0X0X0X=X{.{.{.I.K.J.n.>.<.o.O.;.X.X.n.",
"rXyXrXyXyXyXyXyXrXrXcXcXvXvXvXvXcXcXbXbXbXNXNXNXNXBXBXBXBXBXBXBXmXmXZXxXxXCXNXbXMXNXNXVXVXDXGXGXKXKXKXJXJXKXSXMX).(.-X(.~.|.nXBXHXHXHXSXjX7X;X#X%X%X,X,X;X;X:X:X2X:X<X:X1X>X1X3X>X>X3X3X5X5X6X6X6X6X6X4X4X4X4XgX4X4XgXgXjXjXjXjXgXhXhXhXhXhXhXhXhXhXhXhXhXhXhXhXlXlXlXlXlXzXzXzXxXxXxXxXxXxXxXxXzXzXzXzXzXzXzXzXzXzXzXlXzXlXlXlXlXlXhXhXlXhXhXhXhXhXhXhXhXhXhXjXjXjXjXjXgXgXgXgXgX9X8X4X4X6X6X5X6X6X5X5X3X3X3X>X5X3X1X:X:X:X;X;X#X|.:X1X1X1X>X:X|.'.$X$X_.'.,XwXnXyX,X_.~.)./.*X).).).).^.G.^.G.f.S.~.7XZXGXJXJXKXmXwXD.S.g.S.^.%X%X$X`.(.D.g.g.Z.F.I.I.I.P.n.j.k.5.k.m.p.-.9.q.*.@.@.+.+.$.<.<......... .@.q.q.i.%.;.P.",
"yXeXeXeXeXeXeXeXrXrXrXtXtXvXvXvXcXcXcXcXbXbXbXbXNXNXNXNXBXBXBXBXmXBXCXCXkXmXBXSXDXSXBXNXBXBXBXVXJXJXJXJXKXKXKXFXiX$X).).,XcXBXGXJXJXJXJXHXCX6XpX,X,X,X;X;X:X:X:X2X:X<X1X1X>X1X3X3X3X3X3X5X5X6X6X6X6X9X4X4X8X4XgXgXgXgXgXjXjXjXjXhXhXhXhXhXhXhXhXhXhXhXhXhXhXhXhXlXlXlXlXzXzXzXzXxXxXzXzXzXzXzXzXzXzXzXzXzXzXzXzXzXzXzXzXzXlXlXlXlXlXlXhXlXlXhXhXhXhXhXhXhXhXhXjXjXjXjXjXgXgXgXgXgX9X8X9X4X6X6X5X6X6X5X5X3X3X3X3X5X5X1X>X>X:X7X7X:X5XuXMXMXMXMXjX+X|.,X'.'.<XvXVXHXDXnX;XQ.~.~.Q.(.(.).).^.^.^.^.+XdXAXJXJXJXKXLXiX(.S.S.Z.}..XvXdXdXbXbXcXcXrXeXiX[.t.3.3.q.x.J.U U Q.eXwX0XwXwXiX=X[.L.x.q.;.;...;.j.n.P.J.n.w.0.0.w.K.",
"eXeXeXeXqXqXqXqXeXeXeXrXrXrXrXrXcXcXcXcXcXcXcXcXbXbXbXbXNXNXNXNXBXBXVXVXVXBXBXBXFXDXSXNXNXNXCXNXBXSXGXKXJXJXHXGXVX1XQ.'.tXVXVXZXAXAXKXJXJXHXGXZX,X,X;X;X;X:X:X:X2X<X<X1X1X1X1X3X3X3X5X5X5X5X6X6X6X9X9X4X9X8X8XgXgXgXgXgXjXjXjXjXhXhXhXhXhXhXhXhXhXhXhXhXhXhXhXzXlXlXlXzXzXzXzXzXxXxXxXxXxXxXxXxXzXzXzXzXzXzXzXzXzXzXzXzXzXlXlXlXlXlXlXlXlXlXlXhXhXhXhXhXhXkXhXjXjXjXjXjXgXgXgXgXgX9X9X9X4X6X6X5X6X6X5X5X5X3X3X3X1X1X3X7X6XyXnXnXkXMXCXVXVXVXVXBXnXnX7X7X7XnXBXDXAXBXMX7X|.7X6X7X(.).).).^.^.^.^.KXJXJXHXVXyX$XD.f.f.S.[.OXdXcXrXuXuXtXtXtXtXtXtXnXyXiX-X-XQ.T.U @ @ T.pXfX7XnXnXbXnXnXnXcXtXuXuXbXbXbXbXcXtXyXiXNXbXbXbX",
"qXqXqXqXqXqXqXqXqXeXeXyXyXyXyXyXnXcXcXcXcXcXrXcXnXnXnXcXbXbXMXMX6XnXbXbXbXnXbXMXbXbXmXBXBXCXZXZXMXNXAXAXFXHXFXGXSXbXyXwXuXMXkXxXCXVXFXKXKXKXJXJX,X,X;X;X:X:X:X:X<X<X<X1X1X1X1X3X3X3X3X5X5X5X6X6X9X9X9X9X9X8X9XgXgXgXgXjXjXjXjXjXhXhXhXhXhXlXhXlXhXhXhXhXhXhXzXzXlXlXlXzXzXzXzXzXxXxXxXxXxXxXxXxXzXzXzXzXzXzXzXzXzXzXzXzXzXlXlXlXlXlXlXlXlXlXlXlXlXhXhXhXhXjXkXkXjXjXjXjXjXgXgXgXgX9X9X9X4X9X6X6X6X6X5X5X5X3X3X3X1X1X3X6XnXMXBXVXVXBXBXBXBXSXSXSXBXNXMXMXVXVXBXmXmXDXVXkXkXDXFXAX(.(.).).^.^./.^.@X@X@X_.~.D.A.n.!.L.P.M.B.C.S.S.$X,XyXrXcXcXdXdXmXbXvXtXOXIX- & = * T.dXbXcXcXcXeXrXtXbXbXbXbXcXcXcXbXbXmXbXbXbXtXtXbXdX",
"eXeXeXeXeXeXeXeXeXeXeXeXeXeXoXeXcXcXcXcXcXcXcXcXnXnXnXnXnXnXnXnXrXrXrXcXcXvXvXvXcXcXcXcXcXcXbXbXBXBXBXBXBXBXBXBXCXCXCXCXBXBXBXBXSXSXSXGXGXGXGXGXMXuX5X<X;X:X<X7X3X7X>X:X;X:X:X1X3X3X3X5X4X4X4X8X4X4X4XgXgXgXgXgXgXaXgXgXgXhXhXhXaXaXaXsXsXlXlXlXlXlXzXzXzXzXzXzXxXxXxXxXxXxXxXxXxXxXxXxXxXxXxXxXzXzXzXzXzXzXzXzXDXGXxXxXZXlXlXlXxXxXxXxXxXlXlXlXhXhXhXhXhXhXkXkXkXkXkXjXjXjXjXjXjXfXfXfXgXgXgXgX6X6X6X6X4X4X4X4X>X3X6XjXnXNXBXBXbXbXmXNXBXBXSXSXBXBXBXNXNXCXmXmXbXCXmXSXGXHXJXJXmX7XQ.Q.).-X/.D.).D.V.A.F.[.eXcX7XuXiXuXrXOXrX'.|.eXyXcXbXbXcXvXdXcXvXbXfXT.* * @ = * @ = IXnXyXbXOXOXcXOXcXvXeXcXcXcXcXcXrXrXcXcXcXcXcX",
"qXqXqXqXqX0XqX0XqXqXqXqXqXqX.X.XeXeXeXeXyXyXrXrXvXvXvXvXvXvXvXvXrXcXcXcXcXcXcXcXcXcXcXcXcXvXvXvXcXcXcXcXcXcXcXcXmXmXbXbXbXbXmXmXNXBXBXBXBXBXBXBXSXBXNXNXNXBXBXSXMXjX6X5X3X>X>X>X3X5X5X5X5X5X5X5X9X9X8X8X9X9XjXjXjXjXjXjXjXjXkXkXhXhXhXhXhXhXhXhXhXhXhXkXkXkXkXkXzXzXzXzXzXzXzXzXxXzXzXzXzXzXzXzXxXxXxXxXxXxXxXxXxXxXxXzXzXzXlXlXxXxXxXlXhXhXaXaXzXkXhXhXhXhXhXhXgXgXgXgXgXgXgXgXgXgXgXgXgXgXgXgX5X5X5X5X5X3X3X3X<X<XyXyXtXvXvXbXtXtXvXvXbXbXbXmXbXbXvXvXcXcXcXcXvXbXbXNXBXSXSXGXDXVXMXiX~.Q.).`.'.~.=X=X).tXmXT.W.ZXbXNXOXbXvXtXtXrXyXcXvXcXrXcXoXvXNXnXW.> * * = * @ @ @ # T.7XtXyXrXcXrXrXvXtXcXcXcXcXcXcXcXcXvXvXvXvX",
"qXqXqXqXqXqXqXqX X X X X X X X XqXqXeXeXeXeXeXeXeXeXrXrXeXeXeXeXOXOXOXyXyXrXrXrXyXyXyXyXyXyXtXrXrXrXrXrXrXrXrXrXcXcXcXcXcXcXcXcXcXcXcXcXcXcXcXcXmXnXnXmXmXmXBXSXVXBXCXjX6X3X3X3X1X1X5X5X5X5X5X5X4X4X8X8X8X9X9XjXjXjXjXjXjXjXjXjXjXjXjXjXjXjXkXkXhXhXhXhXkXkXkXkXxXxXxXxXxXxXxXxXxXxXxXxXxXxXxXxXxXxXxXxXxXxXxXxXsXsXzXzXzXzXzXzXsXsXzXzXzXzXzXCXkXkXkXhXhXaXaXaXgXgXgXgXgXaXgXaX4X4X4X4X4X4X4X4X>X>X1X1X1X1X1XwXXXwX.XqXqXqXeXeXqXqXqXeXeXrXrXrXrXrXrXtXtXtXtXtXrXrXcXcXvXbXbXbXmXmXMXtXwX<XeXtXyXMXuXyXnXZXIX= @ = IXPXmXrXrXrXbXrXrXtXeXoXyXrX{.tXfXIX= = * * = @ @ @ @ o # T.eXtXeXeXeXoXOXyXcXcXvXvXvXvXvXvXcXcXcXcX",
"oXoXoXoXoXoXoXoXeXeXeXeXeXeXeXeX.X.X.X.XoXoXoXoX.X.X.X.X.X.X.X.XrXrXrXrXrXrXtXtXcXrXrXcXcXcXvXcXrXrXrXrXrXrXrXrXcXcXcXcXcXcXbXcXvXvXvXvXvXvXvXvXyXyXyXtXvXMXMXMXSXBXNXnXjX6X7X3X6X6X9X9X9X9X9X9XaXgXgXgXjXjXkXkXkXkXkXkXkXkXkXkXkXkXkXkXkXkXkXkXzXzXzXzXzXxXxXxXxXxXxXxXxXxXxXxXxXxXxXxXxXxXxXxXzXzXzXzXzXzXzXzXxXxXxXxXxXxXxXxXsXsXsXzXkXkXCXCXfXfXjXjXkXkXzXzXkXkXkXkXkXkXkXkXgXgXgXgXgXgXgXgX7X7XyXyXyXyXeXeXeXeXeXeXeXqXqXqXqXqXqXeXeXeXeXeXrXrXtXtXtXvXtXvXcXcXcXcXcXvXvXvXmXnXyXrXvXbXcXcXeXMXcXdXIXT.: = * X = > pXyXtXrXyXoXtXtXeXyXcXnXyX7XIXT.* = = * @ @ @ @ @ @ @ @ Q.oXeXXXqXeXeXrXoXoXoXOXoXeXoXoXrXrXrXrX",
"rXrXrXrXrXrXrXrXoXoXoXoXoXoXoXoXeXeXeXeXeXrXrXrXrXrXrXrXrXrXrXrXoXoXoXoXoXoXoXoXOXOXOXOXOXOXrXrXvXvXvXvXvXvXvXvXcXcXcXcXcXcXcXcXcXcXcXcXcXcXcXrXyXeXeXrXrXrXtXrXmXmXbXbXMXvXuXuX4X4X4X4X4X4X4X4XaXaXaXaXaXhXhXhXaXaXhXhXhXhXlXlXlXlXlXlXlXlXlXlXsXsXsXsXsXsXsXsXaXaXaXaXaXaXaXaXaXaXaXaXaXaXaXaXsXsXsXsXsXsXzXzXxXxXxXxXxXxXZXlXxXxXxXhXfXfX7X+XOXOXOXOXnXnXnXnXjXjXfXfXfXfXfXfXfXfXfXfXfXfXfXfXyXyXyXoXoXoXoXoXoXoXoXoXoXoX.X.X.X.X.X.XoXoXeXyX+X+XOXoXOXOXOXOXcXcXcXrXrXrXyXyXOXOXOXrXrXOXOXOXqXoXnXdXT.* = @ = - * * U MXeXXX|.XXeXeXOX7X+XW.pXT.T.= & @ @ @ @ @ @ @ @ @ @ & U pXvXeX0XqXOXOXeXeXeXeXeXeXeXeXoXoXoXoX",
"oXoXoXoXoXoXoXoXeXeXeXeXeXeXeXeX.X.X.X.XoXoXoXoXeXeXeXeXeXeXeXeXqXqXqXqXqXqXqXqXoXoXoXoXoXoXeXrXoXoXOXOXoXoXoXoXrXrXrXrXrXrXrXrXyXyXeXyXeXeXyXyXoXoXoXoXoXoXoX.X+X+XoXoXeXqXqXwX7X7X6X6X6X6X6X6X4X9X8XgXgXgXgXgXhXhXhXhXhXhXlXlXzXzXzXzXzXzXzXzXxXxXxXxXxXxXxXxXxXxXxXxXxXxXxXxXxXxXxXxXxXxXxXxXLXLXLXLXxXxXxXxXCXCXkXkXnXnXnXyXCXMXMXvXrXyXoXoXoXoXoXoXoXoXoXoXyXyXyXyXyXyXyXyXyXyXyXyXyXyXyXyXeXeXoXoXoXoXoXoXrXeXeXeXeXeXeXeXeXeXeXeXeXeXeXeXoXoXeXeXeXeXoXoXrXrXrXrXeXeXeXeX.X.XeXeXrXrXrXrXtXNXdXT.= * = @ * - * * # W.+XeX.X.X.XeXyXpXT.= = = = & @ @ @ @ @ @ @ @ @ @ @ @ # T.nXvXqXqXqXeX.X.X.X.XqXqX.X.XeXeXeXeX",
"0X0X0X0X0X0X0X0XqXqXqXqX0X0XqXqX0X0X0X0X0XqXqXwX0X0X0X0X0X0X0X0X0X0X0X0X0X0X0X0X0X0X0X0X0X0X0X0X0X0X0X0X0X0X0X0XqXqXqXqXqX0X0X0XqXqXqX0X0XwX0X0X X.X.XoXoX.X X X0X0XqXwXeXeXqXqX0X0XwXwXwXwXwXwXwXwXiXiXuX9X9X9X9X9XjXjXjXjXjXjXkXkXkXkXkXkXkXkXCXCXCXCXCXCXCXCXGXGXGXGXGXGXGXGXGXGXGXGXGXGXGXGXCXCXCXMXMXvXtXtXwXwXwXwXwX0X0X0XwXwXwX0X0X0X0XwXwXwX0X0X0X0X0X0X0X0X0X0X0X0X0X0X0X0X0X0X0X0X0X0X0X0X0X0X0X0X0X0X0XqXqXqXqX0XqXqX0XqX0XqX0X0X0X0XwXqXqX0X0X0XqXqX0X0X0X0X0XqXqXqXiX0X0XqXqXeXwXqXOXdXT.@ & & @ @ & @ & @ * @ W.MXrXeXqXeXdXIX- & X @ @ @ @ @ @ @ @ @ @ @ @ @ @ X X = T.+XXX0XeXtXwXwXwXwXeXwXwXwXwXwXwXwX",
"8.8.8.8.8.8.8.8.y.y.y.y.y.y.y.y.8.t.8.8.8.8.t.t.8.8.8.8.8.8.8.8.8.8.8.8.8.8.8.8.].].].G.].].].].L.L.L.L.L.L.L.L.L.L.L.L.L.].].].!.!.!.!.G.G.Z.Z.V.F.L.].].L.I.F.Z.L.!.!.!.!.!.!.].].].].].].].].[.[.[.[.(.~.~._.#X#X;X;X;X;X;X;X;X;X;X:X:X:X:X:X:X:X:X:X:X<X1X1X&X&X&X&X&X&X&X&X&X&X&X&X&X&X&X&X2X2X&X$X(./.[.I.(.(.(.[.[.[.*X*X/././.[.[.[.[.[././././.[.[.[.[.[.[.[.[.[.[.[.[.].].].L.].L.L.L.].].].].].].!.!.].].].].].!.!.!.].].].].].].].!.].].].].!.L.Z.Z.L.L.L.L.].].].].Z.].!.!.!.!.[.{.pX# o X & X @ @ @ @ X * & X # T.}.{.{.|.W.> % % X & @ @ @ @ @ & @ @ @ & @ @ @ @ & X # U 8.8.8.8.8.8.8.8.8.8.8.8.8.8.8.8.",
"W W W W W W W W Y Y Y Y Y Y ! ! ! ! ! ! ! ! ! ! T T T T Y Y Y Y W W W W Y Y Y Y | | | | | | | | %.%.$.%.%.$.$.$.+.@.@.@.+.$.$.$.<.<.<.<.<.<.<.<.$.#.#.:.=.#.$.$.=.=.=.=.%.%.%.%...$.%.%.p.p.b.b.p.p.p.s.s.s.s.s.s.s.s.m.m.N.M.M.m.m.m.m.m.N.N.N.M.M.M.M.M.M.M.M.M.M.M.M.M.M.M.M.m.m.m.m.m.m.m.m.N.N.N.M.M.M.M.M.M.M.M.M.m.m.m.m.p.p.a.a.m.a.m.m.b.b.b.b.b.a.a.a.b.a.a.a.a.=.#.$.$.$.$.$.$.$.$.%.=.=.=.$.$.$.$.$.$.$.$.$.$.$.$.$.$.$.$.$.$.$.$.#.#.#.#.#.#.#.#.#.=.$.$.$.$.$.#.#.$.$.$.$.$.$.$.$.L L _ 7.7.7.L K M L I I I I I I Y T R ( ) _ 2.2.I I I I I I I I B B B B B B B I B C I L K G F H x x x x v v x x S S S S ",
"Q Q Q Q Q Q Q Q | ` ` ` ` ` ` ` ` ` ` ` ` ` ` ` ` ` ` ` ` ` ` | ` ~ ~ ~ ~ ~ ~ ~ ~ ~ ~ ~ ~ ` ` ` ~ ~ ~ ~ | | | | ~ ` | +.+.+.+.+.&.&.&.%.=.:.a.a.$.=.:.a.a.>.>.:.b.b.a.a.a.a.a.a.a.a.a.a.a.a.a.a.p.p.k.b.m.m.b.a.m.m.m.m.N.N.N.N.m.M.M.M.M.M.M.M.Y.M.M.M.M.N.N.N.Y.Y.Y.Y.Y.Y.Y.Y.P.P.P.P.P.P.P.P.M.M.M.M.M.M.M.M.M.M.m.m.m.b.p.p.m.m.a.p.p.p.=.=.p.p.p.p.p.p.p.p.a.a.a.i.#.$.$.$.=.=.=.=.=.=.=.=.:.:.:.:.:.:.a.a.:.:.:.:.a.a.a.a.>.:.=.%.$.+.+.| +.+.%.%.&.:.>.>.>.>.=.=.&.>.>.>.>.>.>.b.b.b.b.b.l.0.0.q.w.w.w.0.n.n.q.3. .) / / ~ ~ ( ` _ _ 2.2. . . . ._ ' _ _ / / / / K M M M M M M K K / Q Q ` ` ( Q R E T A E E R R ",
"` ` ` ` ` ` ` ` ` ` ` ` ( ( ( ( Q ( ( ( Q Q ( ( E R R Q Q ( ` ` ( ( ( ( ( ( ( ( Q Q Q Q Q Q Q Q ! ! ! ! ! ! Q Q Q Q Q Q ~ ~ ~ ~ ( ` |  .@.@.+.| %.%.%.%.+.+.| | | ....$.%.%.=.=.:.:.:.:.=.%.%.%.h.h.b.b.b.b.b.b.b.b.b.m.m.m.M.M.M.M.M.M.M.M.M.M.N.N.M.M.Y.Y.Y.Y.M.M.M.M.M.M.M.M.Y.Y.M.Y.Y.Y.Y.Y.Y.Y.M.M.M.M.M.M.k.k.k.k.m.m.m.m.m.m.m.a.a.p.#.#.#.#.=.=.#.#.#.#.$.$.$.$.$.$.$.$.$.$.$.$.$.$.$.$.+.+.| [ [ [ ~ ~ | | +.+.$.$.$.&.&.&.+.+.| ` ~ ~ ! ! ! Q Q Q Q ~ | | | ` ` `  .|  . .` ` ( ( ( ( | Q T Y Y T T E S Y Y ! ~ ~ ~ ~ F F F F F G K K S S S S S S Y Y ! ! ! T T Y A A R R R F F G n n l l z z z z z z z z z n ",
"z b b b z z z b b z b b n D D D D D D D D D D D R R R Q Q ( ( ( ( ( ( ( ( ( ( ( Q ( ( ( ( ( ( ( ( ` ` ` ` `  . .| ` ` Q Q Q ` ` Q Q R T ! Q ` | | | | | | ~ ~ ~ ! ! [ [ | ..$.$.+.+.+.+.+.+.+.+.[ [ | | | | | [ ..$.$.%.=.=.p.p.b.b.b.m.m.m.M.M.N.N.N.N.N.N.N.N.M.M.M.Y.M.M.M.M.Y.Y.Y.Y.Y.Y.Y.Y.M.M.M.M.M.N.N.N.b.b.b.b.m.m.m.m.%.%.%.$.$.$.$.$.{ { { { { { { { { { o.o.{ o.o.o.{ { [ [ [ [ [ [ [ [ [ [ ~ [ ~ ~ ~ [ [ [ [ [ [ | | | | | [ [ [ [ | | | | | | | | ~ ~ ! Q Q Q ( ( R Q ( ( ` ` `  .~ Q Q | +.| | @.q.q.q.@.@.` ( ( F F F F D D D D E E E E E E E E D D F F F D D D S v v x z z k k k k k k k z z z k k k z ",
"x x x x x x x x l l l x v v v b c c c c c c c c x x l l l l l l l l l x x x x x F F T R R R R R ( ) ( ( ( ( ( ( Q Q Q Q Q Q Q Q Q Q Q Q ! ! Y Y T T ! ! ~ ~ [ [ ! ~ ! ! ~ ! ! ! ~ [ [ [ [ [ [ [ [ [ { { o.o.{ { { { { { { { { { ....$.i.p.s.s.m.M.M.M.Y.Y.Y.Y.Y.M.M.M.M.M.M.M.M.P.P.P.M.P.P.P.P.M.M.M.m.m.m.m.m.m.m.b.a.p.p.#.#.$.$.$.#.#.i.p.s.i.i.i.i.i.i.i.i.$.$.$.$.$.$.#.#.i.#.#.$.$.$.$.$.+.+.+.+.+.[ [ [ [ [ [ [ [ [ [ [ [ [ ] [ [ [ [ [ ] ] [ [ [ [ [ [ [ [ ! ! ! Q Q Q Q Q Q R T A S S Q R Q |  . .` ` ) ( / / / ( ) ) ( ( Q Q Q ! ! ! / / / n n n j h m m m m m m m m k k k k l z z z p p p k k k k k z c b b ",
"x x x x x x x x S S v x x x x x x x x x x x x x b b x x l l l l l l l x x S S S f f f f f x c c f f f f f f f f c A R Q / R D n Q Q ` ` ~ Q Y Y ! ! ! ! ~ ~ [ [ $.$.$.$.%.$.$.$.+.+.| | [ [ [ [ { { { o.o.o.o.{ { { o.o.o.o.o.o.{ o.o.o.o.o.d.d.....$.i.p.p.p.p.m.m.m.m.m.m.m.m.m.m.m.m.m.m.m.m.p.p.p.p.p.p.p.p.p.p.p.#.$.$.{ { o.o.o.o.{ { { { $.$.$.$.$.$.$.$.$.i.i.i.i.i.i.i.o.o.o.{ { [ [ [ +.+.[ [ [ ] ] ^ [ [ [ ] ~ ~ ~ ~ ] ] ] ] ] ] ] ] o.o.{ [ [ [ [ [ [ ! ! W Y ! ! ! Q Q ~ ~ ` | | |  .) ) ) ) / / K ! ! ! ! ! Q ` `  . . .| ` | | ` A c c g f s u u l l l l z z b b m n z z k f f f n n n n n n n n F T T R ",
"b b b b S S S v v v x x x l l l l l l l l l l l x x x x x x x x f x x c c c A A A A A A D D D D R R ( ) `  . .@.*.q.0.0.n.0.w.0.q. .` ) ) `  . .+.| | [ [ [ [ [ [ | | | +.+.$.$.$.$.$.%.%.%.%.%.$.$.#.i.i.i.i.i.{ { { { o.o.o.o.o.o.o.o.{ { { { $.$.$.o.{ { { { { { { { { { { { { { { { { { { { { { { { { { { o.{ { { { { o.o.o.o.o.o.o.o.o.o.o.o.o.o.o.o.o.o.o.o.o.o.o.o.o.{ { $.$.$.o.o.{ { [ ~ ~ ] ] [ [ [ [ [ [ [ [ [ [ [ [ { [ { { [ [ [ [ $.$.$.| [ ~ Q ! ~ ~ ! T T F T T T T T A A S A A F F A c c D F D S S A F F F F F D D D D A A A A R ! R R ! Q Q Q S S J J J J J J ) ( ( ( ( Q Q Q D D c c f s u u u u u u ",
"z z z z c c z z l l l x c b b b S S S S S S S S l l x x x S S A D G E E R R / / R R R Q Q Q Q Q R R R R F D D D S S G G K _  .5.4.6.w.w.w.w.w.6.| | [ ~ ~ ] ] ] ~ ~ ~ ~ ~ ~ ~ ~ W ! ! [ [ | ......$.%.%.%.%.%.$.i.#.#.#.$.$.o.o.{ { o.o.o.$.$.$.O.O.O.O.o.o.o.o.o.o.o.o.o.o.o.o.a.a.p.p.p.p.a.a.o.o.o.o.o.o.o.o.o.o.o.o.o.o.o.o.O.O.O.O.o.o.o.o.o.{ o.o.o.o.o.o.o.o.o.o.o.o.o.o.{ { { [ ] ] } } { { [ [ [ [ [ [ ~ ~ [ [ [ [ [ { [ [ | [ | | | | [ [ [ ~ Q ! R E ( / R F D D D D ( ( ( ( ( ( ( ( Q Q T Y Y Q Q T ( E E n n E E E E E E T T T F F T T T E E E E E E Y V V b b k k d d d f f f f f s s s s s s s s s s s h ",
"x x l x c D G R _ _ / K K K K K M M M M K K K K / / / _ ' '  . .` ) ( Q R R R R W Y ! Y Y H S S T F F S A A F F ) / ) ) ) ) ) ` T R R R Q ( ( ` | | | | | | [ [ ~ ~ ! ! } } } [ ~ [ [ [ [ [ [ [ o.o.o.o.O.o.o.o.[ ....$.i.i.i.i.i.i.i.#.%.$.$.$.$.$.$.$.$.$.$.$.o.o.o.o.d.i.i.i.o.o.O.O.O.o.i.s.a.a.p.p.i.i.s.s.` h.p.$.s.s.i.i.#.p.a.a.=.=.:.>.h.h.h.h.-.;.;.;.@.@.@.@.;.;.;.;.q.q.q.q.q.q.q.q.+.+.[ [ [ [ ~ ~ [ [ [ [ ] } } ] [ ] [ [ [ [ ~ ~ W W [ [ [ [ W H T E E R Q Q ` ` R R R R R T F F ~ ~ ~ ~ Q Q Q ! Y Y T T T T T T A F F F F A A A A A S S S S A Y A F F T R R R ( T T T T T T T T v v x x x x l l b b c c ",
"s c F ) ' ' ) / w 9 9 9 9 7 7 7 5 4 4 5 8 8 8 8 u u p i j j j n G G G G G F R (  . .@.*.q.q.*.*.@.q.j.n.n.n.n.l.0.e.q.@. .` ( R Y Y Y A v v x x z b n n D E R R ^ ^ 1.O.O.O.O.] | | [ [ [ [ [ [ } } } } { { { { <.o.o.O.O.O.o.o.o.$.$.#.i.i.i.i.s.s.s.i.i.i.#.#.=.=.=.=.=.=.=.&.....+.$.$...| | $...{ { { { { { d.] ] o.o.{ [ [ ..........| | | [ [ [ [ [ [ [ ~ } } } } ] ] ] ] [ [ [ [ [ [ { { [ [ [ [ [ [ [ [ [ [ [ | | | | | ! ! ! [ [ [ [ [ [ [ [ [ ~ [ [ [ E E R Q R R F D T T F T T D A D D D D D D D A A T T R R R R T T F F F R F F F A G G / )  . .;.q.@.@. .` ( ( R E c c c c c c c c x x x v x x x x b b b b ",
"3.' K j 8 3 2 2 7 7 7 3 3 3 3 3 3 3 3 3 3 7 3 3 8 8 8 9 i i y y 8 8 8 i p h n n a j n / '  .3.3._ ) ) / / / / / f f g g x c c S v S S S S S S A l x x x x x v v v v l l v Y ^ ~ } } } } } } } } ~ ~ ~ ~ [ [ ~ [ o.o.o.o.o.o.o.o.o.o.o.o.o.o.o.o.{ { { { { { o.o.o.o.o.o.o.o.o.o.o.o.d.o.o.o.{ { ] O.O.O.o.o.O.O.[ <.o.] o.o.O.O.o.o.o.O.] ] ] O.[ ] [ ] ] ] ] ] ~ ~ ~ ~ ~ ~ ~ ~ +.| [ [ [ ~ ~ ~ [ [ ~ ! ! ! W W R R R R Q Q ( ( | | | | | [ [ [ ~ ~ [ | | | | | D D D D F F F F A A A A D T T T G G G G D D D D D D D D D D D D / G G G G ) q.0.P.J.n.0.3._ K G p p p p p p p p p f p f f p p p l l l l x c c c b c c c ",
"a 9 3 2 2 4 q q 7 7 7 7 q q q q 9 9 9 9 9 9 9 9 y y y y y y y y y y y 9 y y y i q 9 9 8 9 j n K ) '  . ._ K j u g g g f f f f f x x g f f f f f Z Z g g f f s s t M L _ 7.6.6.w.J.J.J.n.n.n.n.n.C.x.x.x.x.C.C.C.M.M.M.N.N.k.k.5.{ +.o.o.o.o.o.o.{ { o.o.o.o.o.o.....$.$.o.o.o.o.o.o.o.o.o.o.$.$.{ ..............d.d.{ { ..[ [ a.{ ] } W W W ^ ] [ [ [ ~ ! ! ! ~ ] ] [ [ [ [ [ [ } } } } ^ W ^ ^ ) ) ` ` | | | | @. . . . . . . .) ) ( ( Q ! ! ! ! ~ | +.@.| | ` ( ( R F F G G G ) ) ) ) ) '  . ._ _ _ ) ) ) ) ) ) ) ) ) ) ) ) ) X. .l.J.P.n.0.q.G G G h h h h h l l l l z z z z k k k k z k k k f f z z z z b b ` ` ` ` ",
"4 4 7 7 7 4 4 4 4 4 7 7 q q q q 9 9 9 9 9 9 9 9 y y y y 9 9 9 9 a a a a y 9 8 8 j a 0 8 8 0 h h S c d h A /  .;.@.@.@.@.@. . . . . . .3. .3.3.3._ 3.3.w.y.K.[.[.*X*X*X[.I.F.S.C.3. . .' ) ) / K W W W W W W W W J J J J ) X.;.k.m.m.b.p.p.%.....$.$.o.o.o.{ { { ..{ { { o.o.o.O.o.o.o.o.o.o.o.o.O.O.O.O.O.O.O.O.[ X.k.5.5.P.P. .6.C.I.[.I.F.C.6.;.;.;.q.q.q.;.;.| | | | | | | | ! ) | X.%.;.9.h.0.r.r.3. .' ) / F F F F A A A S G G D D D A A S l l x S A A S b / (  .@.0.l.n.n.I.I.I.I.U.U.U.U.I.I.P.P.P.P.J.J.0.0.0.0.0.0.0.0.n.0. .) D h s s v x l f f l l x T b b b b z z z z z z z z z z z p p z z z z z z p p l l ",
"q q 4 4 4 4 q q 7 7 7 7 7 q q q 9 9 9 9 9 9 9 9 y y y y y y y y y y y y y y y 8 8 0 u s d g g Z S S S Z g d s s h h n D R / ) ) ) _ _ _  .3.3.3.7.7.3.2._ _ _ _ F F J Z S S H H W H W W H H H H J J J J J J J J W W W Y Y H H H Z S H H ! | | ....$.$.$.#.i.s.s.{ { { { ] ] ] } { { ] ] ] ] ] ] O.O.] ] O.O.O.<.[.=XZ.g.=XC.X.U.*XL.4.L K K L L ) ) _ _ X.X.X.X.q.q.q.q.q.q.q.q.J.J.w.w.3.3.2.2.K K K K G G G G F F F F F T T T G F G F D A S S v v x l x c A A x c c c c c c g j j G G G G G G G G G G h h h s f f f f f f f f s s s s f c D D x v v S Y S S v v x x x l l l l k k k k k k k k p p p z z z z z l z z z ",
"q q q q q 7 7 7 4 4 4 4 7 7 7 7 5 5 9 9 9 8 8 9 9 9 9 9 9 9 9 9 y y i a j h p p p h c D A A x g A A g f f x A F c c c x g f f f h c h h f f f f d d d g g g g g S Y Y W ^ W W Y Y Y W W W ~ ! ~ W W W W W W W W W W ^ ^ ^ ^ W W W W W H H H S S H H W W } [ [ | b.b.b.n.n.n.J.J.c.c.x.w.w.w.C.C.g.g.D.).~.@X%X&XX.7.*XiX{.[.[.4.T A S Y ! ! W W A A H F ! ! ! ! H H H H H H H H H H H H ! ! ~ `  .` ` ) ( ( R R A A D D D D D F Q Q R T T A b v l l x x c x x f b b x f f g c A f f g g g g f g c c c c x g g g c c c c c c c c c c c c c x f f x v S S S v l l S v v l f f f f l l k k k k l z f f f f h z p f l l l z ",
"a 7 2 1 1 2 9 y 9 9 9 9 9 7 7 7 7 7 7 7 9 9 9 9 i i i y i y i i 8 8 u i p u u 0 5 8 u u f l c S c c c c c l l l S S S Z Z x x x S S v v v v v v z l z b b A A A Q Q ! Y W W W W ! W W W W W Y Y W W W W W W W W ! ! F F H ! ! ! W W W W W W W ^ H H H H H H H H H H J ) X.X.5.5.g.Z.^.*X*X*X/.^.A.A.F.I.G.G.Z.Z.K.[.Z.8.Z.v.X.;.| ~ W H H W H H Y Y W W W W W W W Y W W W W W W W W W W W ! T T S S A A F T T T R R R E E D D D S S S S v v v v S v x v c c x x l x v v v v x x Y Y Y Y v v v v l l x x v S S S v v v v v v v v x x l x x x x x G c c h d h c c g x x g g g l l b b b b b b b b l l l f p p p p z z z z ",
"[.[.[.L.t.2.L w u y u p p h j j a m j j j n n n j a a a q 9 9 9 a w q q q y 9 9 9 9 9 i i i y y x x v v v v v v x x x x x x x x v v v x S S S S A S S H H W W W W W W W W W W W } W W W W W ! ! ~ ] W W W W W ^ W W W W W W W W W W W W W W W W ! W W W W W W ^ H H H H H H H H Z S S S H H Y Y W W W W W W W W Y Y Y Y Y W W W ! W W W W ^ ^ ^ ] ] ^ ^ ^ ^ W Y W W W W W H H H W W W ! W ! T T R R R R F F F D D D A A c c g g g l l l l l l l v v v x x x x x v v v v S S S S g g g c c v v v f l x c b c h f x v v S v c b D v v x v S Y v l v v v v v v v v x x v S S S v v z z z z z z z z b b z z k p p p w K L 7.",
"r t I 6.L.[.[.[.K.t.7.K a 7 7 4 8 8 9 9 9 y y y a i i i i y y y 8 8 8 8 y y p p 8 u u u p h h z S S x g g l x S A A A A c c c c S S S A H ! ! W ! ! ! W W W W W W W W W W W W W Y Y Y H H H F F A ! ) | | ) ! F Y H Y H H H H H W W W W W W W W W W ^ ^ ^ W W W ^ ^ ^ ^ ^ 1.1.1.H H W W W W W ^ W W W W W W W W ! ! W W H H H H W ! W W W W W W H H H H H H H H H H H H W W W W W W H H H H H H A A A D D D F F R R R T F D D D T T T T D A A A g g g g x x x c g g x g g f g g d g l l c x l l v x x l x x c A A A c g f s s u u f f c c c c c u u u u s s s s s s e e e s d c f f f p u u u u 5 u p n / '  .@.r.w.w.w.",
"w w 4 2 2 2 2 4 I 2.4.t.L.y.t.8.2._ _ K M a q 7 5 5 8 8 y y y i u p p p h z z z b b z z l f f f g g g g g d d s c c c c c g g g T ! ! ! ~ [ | [ ` ) Q ! ! W H H S S S S S S S S d f f f f f f f h e e e h K X.5.` ` ` ` ` ` ` ` W W W W W W W W J J J J J J J J ! ! W W W W W W W W W W W W W W H H H H H H H H H H W W W W ! ! W W W W W W H H } W W H W W W W H H H H H W Y Y Q Q ` | |  . . .@. . . . . . . .Q Q Q R R R R T R R R R T T T T ( ) ( ) ) ) ) ) F G F G G G n c A b x f f f c c x x v v v x x g d d h J _ 3.q.w.5.w.w.6.5.3.5.w.t.C.w.w.x.x.C.C.P.P.P.P.P.J.J.J.e.q.q. .` ( / R  . .` ` / E E n k k p u ",
"4 w M K _ 2.2.2.L L M t w w t t _ _ _ L L L L L K K M j a 9 7 3 2 3 3 3 8 8 8 8 h j G / '  .3.q.q.q.0.0.q.q.3. .) ) ) ) ) ) ) ) ) ) ) ( Q ! ! ! D D D A S g g d f f f f s s u u u s s u s s s s h G K _  ._ ) K ( ( ( ( ) ) ) ) ..| | ~ ! H S S Y Y W ^ ^ ^ W W H H H H H H H H W W W W ! ! ! ! W } W W W W } } ^ ^ ^ ^ ^ ^ W W ^ ^ ^ W W H H S A S S A F ( |  .5.5.5.0.0.n.n.n.n.n.0.q.@. .' ' Q Q R R R T F F R R R F F F F F D D F F T T T T F R R R R R F F D D D F T T T T E R ( `  . . . .;. . .) ) )  . .v.c.B.P.P.J.w.5.l.J.P.U.U.U.U.U.*X*XU.U.U.U.*X*XU.U.I.P.c.w.7.X.( Q R F D D A c l f p p f p p p k k k z ",
"w q 4 2 2 2 4 q M M _ 2.4.4.4.4.7.4.4.4.4.4.4.4.6.6.w.t.C.J.L.L.L.L.L.J.J.J.J.J.J.J.J.J.C.t.t.t.3.3._ _ _ _ _ _ _ _ _ _ _ _ _ _ 3. .' _ ) / K K f f f s s s s u f f f f u u u u u u p f s f f f R F c f f f f g c g c g g d d d s f c F (  . .q.@. .` R A A A A S S Y Y W W W W H H F A A S S S Y Y Y Y Y Y Y Y S S S S A A A F G J K _ 5.6.C.A.!.}.{.=X=X=X=X{.U.U.P.n.9.@.| | } } W W W H H H A D D D D F F F F F F D D D F D R R R F F F F F Y Y T Y Y v x l v v v v x x x l D b b l f s s s j K L 3.v.A.I.I.I.U.I.v.7.7.c.U.n.;.F s e h F ) 5.5.5.5.q.q.q.q.( F G h h u u e s s f d g c c S b c c z l z f p k l z b ",
"2 2 4 q q q 3 2 3 3 3 3 3 5 5 5 M M L L 2.4.6.w.6.6.6.6.6.6.w.t.8.8.8.6.6.6.4.4.4.4.4.4.7.7.2.2.3.3.3.3.2.2.2.2./ / K K K K K K n j j j j j i i s s f f f f f f f f f f f s s s p p p f f f f f x v v v x x x x g x g g g g g g h h c n G G / / 8.g.(.0X0X`.g.8.3.3.3.7.7.2.2.2.) L ) ) L L L L L L L L L L L L 7.7.6.8.g.S.Z.G.$X$X%X%X=X=X=X=XU.U.U.I.A.v.5.5.} } } } } } } W [ [ ~ ! Y S S S F F F F F F F F F F F F T T R R R R F F D A A A Y T T T T Y v x v x x x l l l f 0 0 u s n F )  .C.V.I.U.*XI.I.F.6.7.X.5.J.P.w. .T A x x x v x l g g g g g g l g l l l x v A Y Y D A A c c x x g l l l l f f f f z z b b ",
"7 4 4 3 3 4 q q q 7 4 3 3 3 3 4 3 3 2 2 2 2 2 2 1 1 2 2 2 3 3 4 2 3 3 3 3 3 3 3 7 7 7 7 3 3 3 3 8 8 p p p u 8 8 p p u u u u u u p i p p u i s s s s s s s s s s s s f s s s s s f f f g c c c A S S S A S S S S S v v v v v v v g g g g x c c c e e j G _ 0.P.I.(.{.{.`.'.'.}.}.[.*X*X*X*X*X*X*X-X-X-XiXiXiXiXiX*X*X*X*X*X*X*X*XG.G.H.V.C.C.6.6.$.o.{ ] ] ] ] ] } } } } ^ ^ ^ ^ b A D E R / / / R R R F F D D A F F F F T R R R F F F F F F R R A D F R R F D A G G G / ) '  . .5.w.n.P.P.P.P.P.0.q. ._ _ _ X.7.z.J.P.l. .F c c E R T Y A v l f x x x x l x x x x v S A S v x l v v v v x x x x x l l l l f f f z z z z ",
"7 7 7 4 4 4 4 7 q r 4 4 4 r w w a a a 9 9 9 9 9 a a y y y y y 5 8 y y i i p k p i p p p p p i i f f f f f f f x f f f f f f f f h h f f f f f f d d f f f f s s d d d d f f f f u s s f d g g x g g g d d d d g b v v x x x l l x x x x x l x x S x g g g S H ! X.;.f.f.c.S.F.G.}.(.!.Z.8.6.4.7.l.l.n.n.n.n.n.n.J.J.n.n.l.l.j.h.:.:.#.$.O.O.1.] ~ ~ ! ! [ [ [ [ ` ` ( Q R R R G T T T T T E R R F F F T R R R R D D D D F F F F F F ( ( `  . .@.5.q.w.z.c.c.z.l.C.C.C.C.C.J.J.J.5.5.X.) K G G G A D T R ( ) ) ) / G G A D E Q Q R R R D c f c A x x x x c c c c v x l l l l x x x x x v v v A S c x x x z z z z k z z n ",
"4 4 4 4 7 7 7 7 5 5 9 y y y y y p p p p p i i y y y y y p u p p a a a 9 q q 9 9 7 7 0 0 0 u u h f f f f f f f d e e e e e u u u d e e d s s f p s s s s s s s s d s s e e e s s f f l l v v A A c c c c c c c c x x x c c c c c b c c x x x x l c c v v v c v v Q ! ! ~ ~ ] ] ] 0.0.J.I.[.[.[.{.J.B.l.5.X.) J H W W ^ ^ ^ ^ ] ] ! ! ~ [ [ [ ~ ] ~ [ [ | ..+.+.+.F F F F F F F F A A A F D A A A A A A A A A A A F F F T T R R R D D T T T F A A Z S F F F A F F R F D A c c c c A D D F F D D A G G G G G G G F A F T R R R E E J J S T Y Y V V x v V V v v S S s M U = % o + Y Z b V v Z j h V A c c z z z z m k k k z ",
"4 4 4 7 7 7 7 7 4 4 4 4 7 7 7 7 3 3 7 7 7 9 q a q q 9 9 7 3 3 3 3 3 3 3 3 3 3 3 7 7 9 9 0 0 0 0 8 0 u u u f f h k z l f u u f x u f h c s u s x f f f f f s s s 0 e u s s s s s l l l l c c v v x x x l l f f f l l v v c S S S v v v v v v v c l l l l x x x x f g S H ! [ | $.} W W H ! | X.;.w.w.n.J.P.P.P.U.I.I.P.J.w.6.5.3.-.%.%.......+.+.$.=.>.>.%.| ! A A A A A A A A A c g c g g g g g c c S c S S S S F F F T R R R Q T T T T F F F F R E E R R R E A S S Y Y Y Y Y Y Y Y Y Y Y Y ^ ! R R E T T A A A F A A c c D E R Y Y Q ( G h c F j h x S x h a a B T.T.* % % # t Z c z x x c c x b c c l l k k k l z z b ",
"4 4 4 7 7 7 7 7 4 4 4 4 4 7 4 7 r r 7 r 4 2 2 2 q w w j M K L L / / / / / / / / ' ' / / K K K G K K G n n h h p l f u 8 s j a a l z m a j h h d c c f f u u 0 0 c A R ( `  . . .` ` ` ` ` ` ` ` ! ! ! ! ! ! ! ! Y A S S S S x x S S S x x v c x l l l l l l l l s s d g Z S S H O.] ] ] ] ] ] } W W W } } } } } X.X.X.5.f.l.c.c.m.b.b.>.=.&.&.=.b.&.| F g f g g g g g d g g d d d d d d d d d d f f f f f f d d e s s g S A F T S S A F T R R / ! Y Y Y Y Y Y Y Q R E E D D E E K G G G G G G G Y Y Y Y Y Y ! ! D G R Q Q R Y A ^ E E / K n g l v l f h t B T.E.R.R.= @ % & & @ z g g c v Y x h x x x x x v v v g c c A ",
"4 4 4 7 7 7 7 7 3 3 3 3 7 7 7 7 a 9 7 9 j K ' 4.3.3. ._ _ / K K F F D D D D D D h n G K ( ) '  .3.3.q.q.q.q.q.q.y.t.4.L G e e e u u 5 5 5 8 0 2 0 0 u s f c A D A D F T R R T T T T T T F F F F Q ! ! ~ [ [ | | | [ [ [ ~ ~ ~ ^ W W H S S A c c S A v v v v l x d d d d d d d d S Y ! [ | | [ [ { { ] ] ] ] ] ] [ ] ] ] ] ^ ^ ^ ..%.%.-.9.9.9.-.R F S g s s f g d d d d d d d d g g g g g g g g s s s s s s s d d d g g g g g Z ! T T T F F D n / / / / / / n n A S S S S S S S v S A Y Y Y Y A G D D D c c g d G G D D D T R ! G D A Y Y Y Y v S j t B T.E.E.< < & X @ * % X @ t e Z v b v Z h c x x x l l l l f f l v ",
"4 4 7 7 7 7 7 7 p p p h h h h h n / ) ' ' ( D c f f f f l x x x c c c c x x x x A A A S g d f s s f g A A T R Q J ) X.q.l.n.J.w.5.q.r.r.r.r.5.5. .| ` ( Q F D D Q R T F F F T T T T F F F F A A S S A A F T R R ! ! ! ~ ~ [ [ [ [ [ ~ ! ! T T D F F F A A S S S d d d d d d d d 0 e s h c D F T Q Q ~ ~ ` ` `  .+.+.+.+.+.+.<.<.9.-.@.| ( F g s e d d Z Z S c c d d g d d d d d g g g g g g g g g g g g g g g g d d d d d d d e g g c G G / ' ' J S d d Z J J J 2.7.6.y.L.L.L.L.[.[.[.[.^.Z.Z.8.w.w.w.w.w.w.w.w.' ' ) / R R T T P J ^ 1.Y x j t # T.E.E.R.R.: : @ X X X X X @ @ # t S v n h Z v v v v v v S S S v v A Y ",
"4 4 7 7 7 7 7 7 h h h h h h h h n n c x l x x v v v v v v v v v l l g g g g g g g x x Z S S S S x x Z Z x x Z Z n A S S Y W H Z I L L L ) / / K A A D F F R R R D D A A D F R Q F F F F F F A A R R R R F F F F ! ! ! ! ~ ~ ` | | | [ [ ~ ~ Q Q Q R R R T T A A A A S c d d s s Z Z d d d d d g x v c S S A S A A A A A F F F F T F A Z g g g h d d d d s d c h d d d d d d d d d d d d d d d d g g g g g g g g Z Z g g g d d d h s e e h j K ) 6.C.L.K.L.L.K.I.I.I.I.I.I.B.x.6.K K n j 0 0 8 8 6 6 r w t M M M ' ' ' ' ( R A c ! W S f w B T.T.R.R., , , R.- % @ @ & % % & & @ & # h v z h g v x x x v c c c c l l b n ",
"4 4 4 7 7 7 7 7 3 3 3 8 8 8 8 8 p p h h c g g g v v v S S A A A S S v S v v v v S v v v v x l l v v v x l l x x Y Y S s 0 t U W.@ o + r J F A A F F F F F F F F F F A Z Z Z Z Z A A A F F F F F R R R T F D D D A A A Z c c g g ! ! ! ! Q Q ~ ~ Q Q Q R R T T Y F F F F F F F F Z Z Z Z Z Z Z Z Z Z Z Z Z Z Z Z Z Z Z Z Z Z Z Z Z g d d d d d g d d Z Z Z g d d g g g g g g Z g d d d d d d d d d d d d d d d d d d d d h h j j L _ _ 7.6.C.P.I.P.J.c.5._ X.w.P.t.6.2.L w 4 2 O r 4 4 2 2 r r w 3 4 4 7 9 9 0 9 s u 0 0 u p h n 0 t B U T.E.E.R.R.R.R., , - % % @ @ % & & & & @ % @ t h x l z z v v x l f f s s n n G K ",
"4 4 4 7 7 7 7 7 4 4 4 7 7 7 7 7 9 7 8 0 0 0 s s c c c c g d d d v v v x x x x x f f l l c b n n c c c b c x c x E b j L U T.> % . . $ + h g x Y Z Z c c c g g g d d d g g d d e g c S Z S A A A S S S S A A A A h d d d d d d d f f x S F T ! ! Q Q Q R R T T Y F F F F F F T T T T D D D D n n n n h h d d e e c c g g f f f s d d g Z Z d d d d d g g g g g g d d d d d d d d g g g g d g g g d d e e e e e d g Z J _ 5.x.J.I.[.[.*X*XI.V.6.6.' _ 2.4.r.4.' M h h h h h n G G n n n n n z k p p p u u f f f f e s s s p p u 8 B T.T.R.< < , : , , , , - @ @ # @ @ & @ @ @ @ % X & # w Y V z j f l v D Q ) '  .B.B.J.V.",
"7 7 7 4 4 4 3 3 3 4 9 q 9 4 2 2 7 7 q q 7 4 4 3 y y y y a j h h Z S x v b n n k f l v S S x g Z V Y Y x g z V C UX> R.E.R.= o $ X     $ O Y E h d d d d d d d d s d h h S Z c h g g d d s s s s 0 e d d d d d e f g g S S S g g Z g g d d g Z S x x S A T ! Q Q Y Y Y Y Y Y T E ! T A A c c h h h h P G K K L L L L L L L L L L L L L L L M M M K G j e e e d h d d d e e e e d s s h h h h Z G K K L _ 3.5.x.B.J.K.I.I.K.J.w.r.3.' / K G / `  .*.@. .` Q R Q Q / K G j j a 9 7 0 0 e u s s d e f f l x l f s e ^ v u 2 t B T.T.R., , , R.R., , : R.: * X X X % % % X X X % % X @ & & B } ` 2.X.5.5.5.3.3.3.3.3.c x x c ",
"4 4 7 7 7 7 q 7 q q q q 7 7 4 4 3 4 4 7 q 7 7 4 3 3 3 3 5 9 i i m a p s d Z P P f l S S S x g g M i f h t B T.T.T.E.E.- X .   o .   o o + e v n d g Z S S Z g d Z g d d e d d g d d d d g g d d g g g g g Z Z Z d e e e e e Z P g g d d d d s e d g g c c g f s c c d d d c S S h G K _ 5.w.J.J.J.J.J.C.t.t.t.t.7.7.7.7.7.7.7.7.4.6.t.t.L.K.[.[.J.J.J.J.n.x.x.l.5.5.q.0.0.q.5.5.6.6.w.w.w.x.x.x.P.K.K.K.P.J.B.x.r.r.r.3.' G h u n /  .q.e.q. .` ) ( ( ( R n n z u u u u u u u p Z g f f f f z c 2 0 s f u u s c O + B U T.T.R.R.E.R., , , , , , R.: * & & & @ X & & & & & & & & @ @ @ # t A n h h h h h h h h h c v v A ",
"7 7 7 4 4 4 4 4 4 4 4 7 7 4 4 4 4 7 7 7 7 4 4 4 7 7 7 7 9 9 9 9 O O O 2 7 5 8 8 r 3 7 u f p k p t I U T.T.E., : E.- @ . .       .     . X + d k u s s h d c h c s d d g g Z Z g S Z d d d d d d S g d s s s d g h h c h h s s e j j e e e e e e e e e e h G ) _ _ _ X.3.5.w.v.c.I.I.L.C.t.4.2.I q q 7 4 6 1 1 1 2 2 2 2 2 2 2 2 2 2 2 2 2 4 7 7 K _ 4.J.K.K.K.J.J.J.J.J.K.I.I.I.[.[.[.[.*X*X*X*X[.[.[.I.I.K.K.K.J.n.r.3. . . .@. . .` Q R R ( ( n n n h p i i i u f c c f f f f p l z m m m m y d d f f 9 w w t T.T.T.E.R.: : - : : , , , : R.R.= & X @ @ @ @ @ @ @ @ @ @ @ @ @ @ @ @ o + d H k A A c c c c c c A c c A ",
"7 7 q q q w q w 4 4 4 4 4 7 7 q 4 4 4 7 7 7 7 7 7 7 q w 7 6 2 2 4 7 q q 7 N N N 2 9 w 6 O O B U T.T.R.E.E.- * : * X . .   o     $   o o   $ + e h h s s u s s s Z c d d s h d d 0 e e e e e e e h e e e e e e e d d d d Z Z S H P L L 2.7.7.7.7.w.z.P.I.K.B.w.3.L 7.6.t.w.4.2.L w w r r 2 1 1 1 2 2 2 6 6 6 N N 7 7 7 7 7 7 7 7 4 4 7 q 7 q q q 3 3 4 7 j K _ 2._ L K M M M M K M M M L L L L L L L K M M M M M h D R ( ( ( ( Q R Q ( ( R n h p a i y 8 5 8 y y 8 u p s s s h d w w 0 e e e e e v p 5 6 t B T.T.: : : : - - - : - : * X X * : * .   o X X   o @ X X X X X X X X       . o r H b l l l l l g l f c g g S ",
"2 2 4 4 4 4 4 7 4 4 2 2 2 4 7 q q q q 7 4 4 3 3 4 4 4 4 2 2 4 w C C M M y 3 2 2 u 3 6 B T.R.R., < < , *   * - X .   o                   $ . o + 0 0 i j j i 0 8 2 2 7 0 0 0 0 0 K _ 5.w.w.w.w.C.C.C.Z.G.[.*X*X*X'.'.=XwXwXwX0XwXiXiX=X*X[.I.I.L.5.7.L K K L 2.7.L.w._ j 4 2 2 2 7 7 4 2 2 4 4 7 5 4 7 7 7 7 4 q 7 7 7 7 7 7 7 4 3 3 3 3 4 4 4 4 2 4 4 4 4 2 2 2 w a M M L _ _ _ I 2.2.2.2.2.2.2.L L _ _ L L M M G G ( ) ) ( E b n n p u 8 y i a y y i i i i y 5 w 7 2 2 3 0 0 0 f f f g d d e e t B U T.T.: - - : : : : : - - * X . . - R.= o . .                               o . . . . + e l v S v v v v v v c g g A ",
"w w w 7 4 6 2 2 4 4 q w w w r 4 q q 7 4 4 4 4 4 7 2 2 2 2 4 j L c.P.U.I.L.8.7.2.U T.T.E.R., , , : - . X T.= .                 . .     # # # @ # 3 9 j K _ 2.2.7.4.4.4.4.7.2._ L L 2.7.4.4.6.t.C.g.Z.G./.[.[.[.[.*X*X*X*XG.H.S.g.6.7.I L K K L L 4.w.C.C.t.7.L t 2 2 2 3 4 4 4 7 3 5 9 9 9 9 5 3 3 3 7 7 3 3 3 3 4 4 4 4 4 4 4 4 a a q q 7 4 4 3 a q 4 2 2 2 4 q q q q q q q 7 4 a a a a a a a a j j M M M M M M n j h p u u p p i i i y y 5 5 5 p p p a a p i i w w w j K L K K 3 5 u i a t t t * * * & % & * - @ X o   . . . .   = R.: @                                       o         o + d x v v v x x x l n c c D ",
"w w w 7 4 2 2 2 2 2 2 4 4 2 2 1 2 2 2 2 4 q a j M M M M M M _ 4.K 7.8.Q.W.T.T.R.< < < < , R.T.T.o o - : . .                     o $ $ O 0 P I 8.C.t.t.6.4.2.2.L L L L L 7.6.L.I.*X*XU.I.I.[.I.I.Z.C.C.8.6.7.7.7._ / K j j M K _ _ 7.6.C.J.J.J.B.K M 7 2 1 2 2 7 3 3 5 7 7 9 4 3 2 3 4 7 7 7 4 3 4 7 7 7 7 7 7 7 4 4 4 4 4 4 4 4 3 4 3 3 4 4 4 4 3 4 q w q q 4 2 7 4 4 2 3 4 7 q q q 4 4 4 4 4 4 4 4 2 2 2 3 4 4 2 2 3 7 0 8 8 8 i i i p p h h j z z k k k k k z 8 p n / ' 3.3.3.g.8.7.I U B # # X @ @ # T.T.W.W.W.W.W.T.T.T.> > T.> @ o       o                                             + r v v v v v v c c h h h n ",
"2.2.2.7.4.4.4.4.2.2.L M M M L 2.a w q 4 3 2 3 3 1 1 2 7 3 2 2 0 B B T.T.: , < < R.R., , < : % . ; - @         .   . . .         o .   6 k 8 2 2 t M L 2.2.7.7.2.5.6.C.F.I.I.I.I.U.I.I.U.*XI.C.7.3.3.3.3.3.6.6.w.C.C.A.L.A.C.w.6.3._ L K j 0 3 2 2 3 4 q q 7 4 2 7 7 7 7 7 7 7 7 4 4 2 2 2 4 7 r w q q 4 4 2 2 2 7 4 7 7 7 4 7 7 4 4 4 4 4 4 4 4 7 7 7 4 4 4 4 4 3 4 7 7 7 9 7 3 7 7 7 7 3 3 3 3 2 4 4 7 7 7 7 7 7 4 4 3 4 9 9 y p p p f f f f f p k z b b z k p l l l p u p z n M / 3.w.t.4.I I I 2.8.8.6.7. .| 3.w.P.*X=XiXuXuXIXT.@   . .                 $ $ . . . . . . . . . $ $     . $ + g g g g g g g g p u u h ",
"O 1 6 t M 2.4.y.y.y.L.L.[.[.[.[. X X{.{.!.y.y.4.2.2.2.4.4.8.8.8.T.T.T.T.U U U U B U U B # # B T.# # # # # # # # # # # # # # # # + + 6 r 0 d Z S S S S S S Y T T D F ( ) `  . . .3.3.' '  .3.3.3.3.3.3.3.3.3.3.3.G G j h e 0 3 3 3 3 3 4 4 4 4 4 4 4 4 4 4 4 4 4 4 4 4 4 4 4 4 4 7 7 7 7 7 4 4 4 4 4 4 4 4 4 2 2 2 2 3 3 7 7 9 9 7 7 7 7 7 7 7 7 3 3 4 4 7 7 q q 9 q q q q q 9 q 9 9 9 9 9 9 9 9 4 4 4 4 7 7 4 4 9 9 7 7 7 4 4 4 9 9 9 9 9 9 9 9 h h h h h f f f b b b b b b b b l l l l l l l l T T T R E ! Q Q E / ' 3.4.t.L.L.[.[.{.{.{.[.!.Z.8.8.8.8.8.4.4.4.8.W.W.W.8.U U U B + + + O O + + 9 7 7 7 3 3 3 3 w w w w ",
"6 1 1 O 1 1 6 6 M L 2.4.6.6.4.4.8.8.y.y.y.y.y.y.y.y.y.y.y.y.y.y.8.y.y.4.4.4.u.2.3.3.7.2._ _ 7.6.w.w.w.6.6.4.4.4.3.' ' K M j j j j h h f l V E ( ( Q R R R R ( ( / / / G G G G G j j 9 2 2 2 2 2 3 3 3 2 2 2 2 2 7 7 7 7 7 9 9 9 4 4 4 4 4 4 4 4 7 7 7 7 7 7 7 7 7 7 7 7 7 7 7 7 7 7 7 7 7 7 7 7 9 9 9 9 9 9 9 9 7 7 7 7 q q q q 7 7 7 7 7 7 7 7 3 3 3 4 7 9 9 9 9 9 9 9 9 9 9 9 y y y y y 9 9 9 7 7 7 7 9 9 9 7 7 7 7 4 4 4 4 4 9 9 9 9 9 9 9 9 i i i i i i p p h h p p p p h h z n n n n n n n h h z z c n n b n n n n M M M M t t t t t t w r w r 6 1 2 r t t t L I 8.g.!.8.8.8.4.I L t w r r 9 a j j M K K M M M M M ",
"1 1 O O O O 1 1 O O O 1 w L 2.6.t.t.t.t.4.4.7.2.4.4.4.4.4.4.4.4.u.u.y.y.y.y.y.u.u.2.' ' ' ' / n Y Y v v v l l l b D E / `  .3.3.5.0.n.K.J.t.2.C i i 8 5 3 3 3 3 0 8 8 0 0 j j n M j q 4 3 3 4 7 9 9 9 9 7 9 9 9 2 2 2 4 4 4 q q 9 9 9 9 9 9 9 9 9 9 9 9 9 9 9 9 9 9 9 9 9 9 9 9 9 9 9 9 9 9 9 9 8 8 8 9 9 y y y a a a a 9 9 4 4 a a a q q q q q 9 9 9 9 9 9 9 9 y y y y y y y y y y y y y 9 9 9 9 9 9 9 9 9 9 9 4 4 4 4 4 4 4 4 9 9 y 9 y y 9 9 y y y y y y y y q q q q q q q q 9 9 9 9 9 9 9 9 y y y y y y i y i i y 8 5 3 3 3 3 3 4 4 5 5 2 2 2 2 5 5 4 5 5 2 2 2 2 2 2 2 2 2 1 1 1 6 N N t M / / _ ' / K M j 9 9 9 9 ",
"1 1 1 1 1 1 6 6 6 6 1 O O 1 6 6 r M 2.4.t.t.w.4.3.3.3._ _ _ _ _ _ 7.3.X.X.X.X.X.F R ( R R Q R F ( ( ( ` @.*.e.e.3.5.w.C.C.t.t.8.t.4.2.M w w w w j j a q q 7 4 4 3 3 3 3 5 7 q a 4 4 4 4 4 4 4 4 4 4 4 4 4 4 4 4 q q q q q 7 4 4 0 0 0 0 0 y y y 0 0 0 9 y i y y i i i i i i i i a a a a a a a a 8 8 8 y i i i i a a a a i a i i i i i y y y y y i i i i i i i i i i i i i i i i i y i y y y y y 9 9 9 9 9 9 9 9 9 9 9 9 9 9 9 9 i i i i i i i i y y y y y y i i 9 9 9 9 9 9 9 9 y y y y y i i i y y y y y 9 q q 9 9 9 9 y y y y i a a a a a y y a y 5 5 5 y y a 9 a j n n n n n D D n n n n n j j j j j j y 9 9 y i a a ",
"6 1 1 1 1 1 1 1 O 1 1 6 6 6 1 1 1 1 O O O 2 w M 2.2.2.3.3.4.r.r. . .' ( R R R T F ( ( R F R R R ~ ! ! ! W Y Y Y S Y Q ( ) ) ) K m m z n n D T T 9 9 7 4 4 4 4 7 4 4 7 7 4 4 2 2 4 4 4 7 7 7 7 4 4 4 4 4 4 4 4 4 9 9 9 9 9 9 y y 9 9 9 9 y y y y y y y y y y y y i i i i i i i i i i i i i i i i i i p p j j j j h h h z c n n n n n b b b b c c n n n n n n n n n n n n n n n n j j j h h h h h i i i i i i i i p p p p i i i i p p p p p p p p i i i p p p f f p p p p p p p p z z z z z z z z p p i y y y 9 9 q q 9 9 i y i i 9 9 y y y y 9 9 9 9 y y j j j n _ K j 9 5 u p z p p p i y 9 9 7 5 3 3 3 3 3 9 9 y y y i ",
"1 1 1 1 1 1 1 6 6 6 1 1 1 1 1 1 O 1 1 6 1 1 1 1 O O 1 2 4 q a a ( ( Q E T E ! T [ [ ~ ^ W ^ ~ ^ Q Q Q ~ ~ ~ ` ` Q E T b z h p p h p i 9 3 3 3 3 8 7 3 2 3 3 7 7 2 2 4 4 7 7 4 4 7 4 4 3 3 4 7 7 7 7 7 7 7 7 7 7 8 8 8 0 0 0 u u 8 8 8 y y y y y i i y y i i i i i i i i i i i i i i i i i i i i i i i i i a a a G G R R / ( ( ) Q Q Q ( ( ( ( ( ( ( ( ( ( ( ( ( ( ( ( ( ( ( ( ( F F F D D D D D n n n n n n n n n n n z z z p p p p p p k k p p f l l l l l l l l l l l l l l l l l l l l l l l f p p i i 0 0 9 9 9 9 9 y i i i 9 9 9 9 9 9 9 9 a j K K K K M j M M K K K M j j M M M M M M M M n j a 9 8 9 y i y i i i ",
"6 6 1 1 1 O O O O 1 1 6 6 6 6 1 1 1 6 1 1 1 6 6 1 1 1 1 1 1 O O O O O O 1 6 6 6 N N N N N N a a a a a a y y 5 5 w q 4 2 2 2 6 4 2 6 r r r r r r 9 7 7 4 4 7 q q 7 q q q q 7 7 4 3 3 2 3 3 4 7 7 7 7 7 7 7 7 7 7 i i i 9 9 8 8 8 y y y y y y y y y y y y y y y y y y y y y y y y y y y y y y y y 8 8 y 9 9 9 9 9 8 8 8 u u u i i c n D D F R R R R R R R Q Q Q Q Q Q Q Q Q Q Q Q T T T T F F F F T T T T T T T T T T A b c z l l l l f f h h f f z z l l l l l l z z z z z z z z k k k l l l l l l k k p i y 9 9 i y y y i a a a M M M M K K K K j j a 9 9 9 9 9 7 9 4 7 7 9 w a 8 8 8 8 0 8 0 u a a y y y y a a y y y y ",
"1 1 1 1 1 1 1 1 1 1 1 1 1 1 1 1 O O 1 1 1 O O 1 1 1 1 1 1 1 1 1 1 6 6 1 6 2 2 1 O O O O O O O O 1 1 1 1 1 1 1 O 4 4 4 4 q q q q 3 5 5 4 9 8 0 0 q q 4 4 4 4 6 N 9 7 3 2 2 3 3 7 4 7 9 q 9 7 4 3 7 4 4 4 3 3 3 3 y y a a y a a a y y y y a a a a y y y y y y y y 9 9 9 9 9 9 9 9 9 9 9 9 9 9 9 9 a a a y y y y y a q 9 9 9 9 9 7 8 u u p h j n n A T T T R R Q Q Q Q Q Q Q Q Q Q F F F F A F A S T T T T T T T T T T Y A v l l f l l l l l l l l k z k k z z z z k k k k k h h h k k k h h h h h z k k p a a q y p p i y 9 9 9 7 5 5 8 8 9 9 y y 5 9 y a a y 9 5 i i y 9 9 0 9 9 a a a y y p p p 9 9 y y y y i i 9 9 q q "
};
